;FLAVOR:Marlin
;TIME:23191
;Filament used: 13.8818m
;Layer height: 0.2
;MINX:14.161
;MINY:13.723
;MINZ:0.2
;MAXX:204.157
;MAXY:208.82
;MAXZ:25
;TARGET_MACHINE.NAME:Creality Ender-3 Pro
;Generated with Cura_SteamEngine 5.7.2
M104 S200
M105
M109 S200
M82 ;absolute extrusion mode
; Ender 3 Custom Start G-code
G92 E0 ; Reset Extruder
G28 ; Home all axes
G29 ; Bed Auto Leveling
G1 Z5.0 F3000 ; Move Z Axis up a bit during heating to not damage bed
M104 S175 ; Start heating up the nozzle most of the way
M190 S60 ; Start heating the bed, wait until target temperature reached
M109 S200.0 ; Finish heating the nozzle
G1 Z2.0 F3000 ; Move Z Axis up little to prevent scratching of Heat Bed
G1 X0.1 Y20 Z0.3 F5000.0 ; Move to start position
G1 X0.1 Y200.0 Z0.3 F1500.0 E15 ; Draw the first line
G1 X0.4 Y200.0 Z0.3 F5000.0 ; Move to side a little
G1 X0.4 Y20 Z0.3 F1500.0 E30 ; Draw the second line
G92 E0 ; Reset Extruder
G1 Z2.0 F3000 ; Move Z Axis up little to prevent scratching of Heat Bed
G1 X5 Y20 Z0.3 F5000.0 ; Move over to prevent blob squish
G92 E0
G92 E0
G1 F1500 E-6.5
;LAYER_COUNT:125
;LAYER:0
M107
;MESH:Accumulator.stl
G0 F6000 X122.228 Y102.133 Z0.2
;TYPE:WALL-INNER
G1 F1500 E0
G1 F1200 X121.746 Y101.902 E0.01778
G1 X121.4 Y101.646 E0.03209
G1 X121.076 Y101.246 E0.04921
G1 X120.853 Y100.726 E0.06803
G1 X120.771 Y100.177 E0.08649
G1 X120.894 Y99.531 E0.10837
G1 X121.203 Y98.978 E0.12944
G1 X121.634 Y98.589 E0.14875
G1 X122.028 Y98.372 E0.16371
G1 X122.47 Y98.25 E0.17896
G1 X122.945 Y98.238 E0.19476
G1 X123.388 Y98.325 E0.20978
G1 X123.82 Y98.533 E0.22572
G1 X124.268 Y98.909 E0.24518
G1 X124.499 Y99.245 E0.25874
G1 X124.652 Y99.589 E0.27126
G1 X124.765 Y100.14 E0.28997
G1 X124.678 Y100.805 E0.31228
G1 X124.424 Y101.289 E0.33046
G1 X124.15 Y101.628 E0.34495
G1 X123.653 Y101.983 E0.36527
G1 X123.268 Y102.127 E0.37894
G1 X122.753 Y102.193 E0.39621
G1 X122.228 Y102.133 E0.41378
G1 F1500 E-6.08622
G0 F6000 X122.187 Y102.225
G0 X121.652 Y102.057
G0 X126.874 Y107.28
G0 X72.595 Y192.354
G1 F1500 E0.41378
G1 F1200 X74.601 Y189.451 E0.53115
G1 X76.449 Y186.461 E0.64806
G1 X78.146 Y183.365 E0.76548
G1 X79.688 Y180.172 E0.88342
G1 X81.057 Y176.919 E1.00081
G1 X81.8 Y174.909 E1.07208
G1 X80.279 Y173.389 E1.1436
G1 X80.121 Y173.109 E1.15429
G1 X80.109 Y172.883 E1.16182
G1 X80.233 Y172.585 E1.17255
G1 X83.528 Y169.287 E1.32761
G1 X84.125 Y166.811 E1.41232
G1 X85.37 Y160.464 E1.62745
G1 X86.086 Y157.648 E1.72409
G1 X86.991 Y154.794 E1.82367
G1 X88.035 Y152.052 E1.92126
G1 X89.226 Y149.372 E2.0188
G1 X90.578 Y146.755 E2.11677
G1 X92.06 Y144.239 E2.21389
G1 X93.68 Y141.807 E2.31108
G1 X95.44 Y139.463 E2.40858
G1 X97.356 Y137.191 E2.50743
G1 X99.291 Y135.147 E2.60104
G1 X203.591 Y30.84 E7.50716
G1 X191.431 Y18.681 E8.0791
G1 X191.282 Y18.433 E8.08873
G1 X191.285 Y18.069 E8.10083
G1 X191.437 Y17.826 E8.11037
G1 X190.8 Y17.189 E8.14033
G1 X190.392 Y17.597 E8.15952
G1 X185.531 Y25.991 E8.48214
G1 X130.262 Y81.264 E11.08192
G1 X126.185 Y85.208 E11.27059
G1 X121.943 Y89.076 E11.46153
G1 X117.543 Y92.841 E11.65413
G1 X113.054 Y96.448 E11.84567
G1 X108.418 Y99.943 E12.03877
G1 X103.719 Y103.257 E12.23002
G1 X98.912 Y106.435 E12.42168
G1 X93.996 Y109.469 E12.61382
G1 X88.983 Y112.35 E12.80613
G1 X83.899 Y115.066 E12.99784
G1 X73.087 Y120.422 E13.39915
G1 X67.772 Y123.259 E13.59953
G1 X67.756 Y123.252 E13.60012
G1 X62.1 Y126.508 E13.81718
G1 X56.788 Y129.786 E14.02479
G1 X51.527 Y133.264 E14.23455
G1 X46.398 Y136.881 E14.4433
G1 X41.397 Y140.65 E14.65158
G1 X36.488 Y144.594 E14.86102
G1 X31.73 Y148.666 E15.06931
G1 X27.083 Y152.902 E15.27845
G1 X22.577 Y157.268 E15.48713
G1 X15.933 Y163.912 E15.79965
G1 X27.387 Y175.367 E16.33843
G1 X34.114 Y168.637 E16.65492
G1 X37.902 Y164.965 E16.83039
G1 X41.911 Y161.289 E17.0113
G1 X45.988 Y157.766 E17.19051
G1 X50.178 Y154.352 E17.37027
G1 X54.496 Y151.037 E17.55133
G1 X58.895 Y147.859 E17.73183
G1 X63.345 Y144.842 E17.91065
G1 X66.821 Y142.624 E18.04779
G1 X67.062 Y142.557 E18.05611
G1 X67.312 Y142.594 E18.06452
G1 X67.504 Y142.701 E18.07183
G1 X67.805 Y143.074 E18.08777
G1 X67.888 Y143.355 E18.09752
G1 X67.86 Y143.572 E18.10479
G1 X67.756 Y143.765 E18.11209
G1 X31.773 Y179.752 E19.80471
G1 X43.228 Y191.203 E20.34342
G1 X65.123 Y169.315 E21.37313
G1 X65.404 Y169.184 E21.38344
G1 X65.59 Y169.181 E21.38963
G1 X65.778 Y169.239 E21.39618
G1 X66.089 Y169.437 E21.40844
G1 X66.289 Y169.695 E21.4193
G1 X66.332 Y169.895 E21.4261
G1 X66.308 Y170.091 E21.43267
G1 X65.49 Y172.213 E21.50831
G1 X64.289 Y174.858 E21.60492
G1 X62.963 Y177.405 E21.70043
G1 X61.471 Y179.927 E21.79789
G1 X59.866 Y182.318 E21.89367
G1 X58.115 Y184.636 E21.99029
G1 X56.256 Y186.833 E22.08602
G1 X54.345 Y188.853 E22.1785
G1 X47.613 Y195.591 E22.4953
G1 X59.065 Y207.043 E23.03396
G1 X65.71 Y200.401 E23.34645
G1 X68.038 Y197.948 E23.45893
G1 X68.052 Y197.949 E23.4594
G1 X70.433 Y195.161 E23.58134
G1 X72.595 Y192.354 E23.69919
G1 F1500 E17.19919
G0 F6000 X72.505 Y192.305
G0 X70.293 Y195.047
G0 X58.583 Y197.872
G0 X58.209 Y199.151
G1 F1500 E23.69919
G1 F1200 X57.845 Y199.605 E23.71854
G1 X57.395 Y199.964 E23.73769
G1 X56.748 Y200.183 E23.76041
G1 X56.166 Y200.166 E23.77977
G1 X55.717 Y200.049 E23.7952
G1 X55.319 Y199.828 E23.81035
G1 X54.887 Y199.447 E23.8295
G1 X54.61 Y198.94 E23.84872
G1 X54.46 Y198.38 E23.868
G1 X54.512 Y197.809 E23.88707
G1 X54.685 Y197.278 E23.90565
G1 X55.043 Y196.813 E23.92517
G1 X55.498 Y196.451 E23.9445
G1 X56.157 Y196.232 E23.9676
G1 X56.744 Y196.255 E23.98714
G1 X57.179 Y196.37 E24.0021
G1 X57.578 Y196.586 E24.0172
G1 X58.017 Y196.975 E24.0367
G1 X58.285 Y197.472 E24.05548
G1 X58.404 Y197.931 E24.07126
G1 X58.423 Y198.496 E24.09006
G1 X58.209 Y199.151 E24.11298
G1 F1500 E17.61298
G0 F6000 X58.25 Y197.943
G0 X58.139 Y197.535
G0 X57.886 Y197.07
G0 X57.491 Y196.719
G0 X57.119 Y196.517
G0 X56.71 Y196.41
G0 X56.283 Y196.398
G0 X54.923 Y196.684
G0 X42.062 Y183.995
G0 X42.298 Y183.404
G1 F1500 E24.11298
G1 F1200 X41.928 Y183.865 E24.13264
G1 X41.455 Y184.159 E24.15116
G1 X40.906 Y184.343 E24.17042
G1 X40.326 Y184.326 E24.18972
G1 X39.877 Y184.209 E24.20515
G1 X39.479 Y183.988 E24.22029
G1 X39.045 Y183.605 E24.23954
G1 X38.77 Y183.1 E24.25867
G1 X38.621 Y182.543 E24.27785
G1 X38.672 Y181.969 E24.29701
G1 X38.846 Y181.437 E24.31563
G1 X39.211 Y180.971 E24.33532
G1 X39.566 Y180.686 E24.35046
G1 X39.985 Y180.491 E24.36583
G1 X40.432 Y180.393 E24.38105
G1 X40.902 Y180.41 E24.39669
G1 X41.34 Y180.526 E24.41176
G1 X41.743 Y180.745 E24.42702
G1 X42.166 Y181.123 E24.44589
G1 X42.445 Y181.631 E24.46516
G1 X42.565 Y182.075 E24.48046
G1 X42.583 Y182.537 E24.49584
G1 X42.49 Y182.992 E24.51129
G1 X42.298 Y183.404 E24.5264
G1 F1500 E18.0264
G0 F6000 X42.422 Y182.525
G0 X42.409 Y182.104
G0 X42.3 Y181.696
G0 X42.048 Y181.232
G0 X41.652 Y180.88
G0 X41.28 Y180.678
G0 X40.872 Y180.572
G0 X39.084 Y180.844
G0 X26.227 Y168.155
G0 X26.53 Y167.472
G1 F1500 E24.5264
G1 F1200 X26.092 Y168.025 E24.54987
G1 X25.612 Y168.319 E24.56859
G1 X25.067 Y168.503 E24.58772
G1 X24.485 Y168.486 E24.60709
G1 X24.036 Y168.369 E24.62252
G1 X23.841 Y168.278 E24.62968
G1 X23.461 Y168.009 E24.64516
G1 X23.149 Y167.669 E24.66051
G1 X22.928 Y167.255 E24.67612
G1 X22.814 Y166.82 E24.69107
G1 X22.802 Y166.355 E24.70655
G1 X22.889 Y165.907 E24.72172
G1 X23.082 Y165.503 E24.73662
G1 X23.446 Y165.037 E24.75628
G1 X23.932 Y164.737 E24.77528
G1 X24.48 Y164.552 E24.79452
G1 X25.048 Y164.572 E24.81342
G1 X25.611 Y164.72 E24.83278
G1 X26.076 Y165.045 E24.85165
G1 X26.385 Y165.388 E24.86701
G1 X26.605 Y165.796 E24.88242
G1 X26.755 Y166.346 E24.90138
G1 X26.709 Y166.924 E24.92067
G1 X26.53 Y167.472 E24.93984
G0 F6000 X26.173 Y167.278
;TYPE:WALL-OUTER
G1 F1200 X25.838 Y167.706 E24.95792
G1 X25.461 Y167.943 E24.97273
G1 X25.007 Y168.101 E24.98872
G1 X24.521 Y168.082 E25.0049
G1 X24.1 Y167.972 E25.01937
G1 X23.712 Y167.692 E25.03528
G1 X23.467 Y167.415 E25.04758
G1 X23.315 Y167.131 E25.0583
G1 X23.218 Y166.783 E25.07031
G1 X23.207 Y166.37 E25.08405
G1 X23.283 Y166.01 E25.09629
G1 X23.427 Y165.706 E25.10748
G1 X23.71 Y165.346 E25.12271
G1 X24.083 Y165.113 E25.13734
G1 X24.539 Y164.957 E25.15337
G1 X24.998 Y164.969 E25.16864
G1 X25.449 Y165.092 E25.18419
G1 X25.815 Y165.348 E25.19904
G1 X26.073 Y165.641 E25.21203
G1 X26.234 Y165.945 E25.22347
G1 X26.355 Y166.394 E25.23894
G1 X26.307 Y166.867 E25.25475
G1 X26.173 Y167.278 E25.26913
G1 F1500 E18.76913
G0 F6000 X26.239 Y168.009
G0 X39.084 Y180.844
G0 X41.942 Y183.208
G1 F1500 E25.26913
G1 F1200 X41.666 Y183.554 E25.28385
G1 X41.302 Y183.783 E25.29815
G1 X40.847 Y183.941 E25.31417
G1 X40.361 Y183.922 E25.33035
G1 X40.053 Y183.842 E25.34093
G1 X39.69 Y183.646 E25.35465
G1 X39.364 Y183.354 E25.36921
G1 X39.138 Y182.929 E25.38522
G1 X39.025 Y182.507 E25.39975
G1 X39.073 Y182.029 E25.41573
G1 X39.217 Y181.607 E25.43056
G1 X39.494 Y181.254 E25.44548
G1 X39.799 Y181.018 E25.45831
G1 X40.133 Y180.868 E25.47049
G1 X40.445 Y180.8 E25.48111
G1 X40.863 Y180.814 E25.49502
G1 X41.191 Y180.902 E25.50631
G1 X41.53 Y181.09 E25.5192
G1 X41.86 Y181.392 E25.53408
G1 X42.074 Y181.781 E25.54885
G1 X42.162 Y182.118 E25.56043
G1 X42.176 Y182.529 E25.57411
G1 X42.098 Y182.885 E25.58623
G1 X41.942 Y183.208 E25.59816
G1 F1500 E19.09816
G0 F6000 X42.178 Y183.394
G0 X42.062 Y183.995
G0 X54.923 Y196.684
G0 X57.853 Y198.956
G1 F1500 E25.59816
G1 F1200 X57.562 Y199.322 E25.61372
G1 X57.221 Y199.595 E25.62824
G1 X56.688 Y199.782 E25.64703
G1 X56.201 Y199.762 E25.66324
G1 X55.893 Y199.682 E25.67383
G1 X55.53 Y199.486 E25.68755
G1 X55.204 Y199.194 E25.7021
G1 X54.978 Y198.768 E25.71814
G1 X54.864 Y198.344 E25.73275
G1 X54.913 Y197.869 E25.74863
G1 X55.057 Y197.447 E25.76346
G1 X55.334 Y197.094 E25.77838
G1 X55.691 Y196.809 E25.79358
G1 X56.215 Y196.637 E25.81192
G1 X56.686 Y196.651 E25.82759
G1 X57.031 Y196.742 E25.83946
G1 X57.35 Y196.915 E25.85153
G1 X57.688 Y197.213 E25.86652
G1 X57.914 Y197.621 E25.88203
G1 X58.007 Y197.979 E25.89433
G1 X58.019 Y198.436 E25.90954
G1 X57.853 Y198.956 E25.92769
G1 F1500 E19.42769
G0 F6000 X58.137 Y199.05
G0 X58.583 Y197.872
G0 X70.293 Y195.047
G0 X72.918 Y192.59
G1 F1500 E25.92769
G1 F1200 X74.936 Y189.67 E26.04575
G1 X76.795 Y186.663 E26.16333
G1 X78.502 Y183.548 E26.28147
G1 X80.053 Y180.337 E26.40008
G1 X81.429 Y177.066 E26.51811
G1 X82.264 Y174.807 E26.59821
G1 X80.539 Y173.079 E26.67942
G1 X80.505 Y172.937 E26.68427
G1 X80.541 Y172.846 E26.68753
G1 X83.89 Y169.49 E26.84522
G1 X84.516 Y166.897 E26.93394
G1 X85.758 Y160.562 E27.14866
G1 X86.477 Y157.735 E27.24568
G1 X87.365 Y154.936 E27.34334
G1 X88.401 Y152.214 E27.44021
G1 X89.582 Y149.556 E27.53695
G1 X90.923 Y146.958 E27.63419
G1 X92.393 Y144.461 E27.73057
G1 X94.02 Y142.019 E27.82817
G1 X95.767 Y139.695 E27.92487
G1 X97.646 Y137.466 E28.02183
G1 X99.574 Y135.43 E28.11509
G1 X204.157 Y30.84 E33.03452
G1 X191.664 Y18.348 E33.62213
G1 X191.665 Y18.163 E33.62828
G1 X192.001 Y17.825 E33.64413
G1 X190.8 Y16.623 E33.70065
G1 X190.072 Y17.351 E33.73489
G1 X185.216 Y25.739 E34.05726
G1 X129.984 Y80.976 E36.65532
G1 X125.915 Y84.912 E36.84361
G1 X121.683 Y88.772 E37.03412
G1 X117.278 Y92.54 E37.22692
G1 X112.813 Y96.128 E37.41744
G1 X108.188 Y99.616 E37.61011
G1 X103.499 Y102.923 E37.80095
G1 X98.702 Y106.095 E37.99222
G1 X93.796 Y109.122 E38.18396
G1 X88.795 Y111.997 E38.37582
G1 X83.721 Y114.708 E38.56716
G1 X72.904 Y120.066 E38.96865
G1 X67.591 Y122.903 E39.16898
G1 X67.574 Y122.895 E39.1696
G1 X61.895 Y126.164 E39.38754
G1 X56.572 Y129.449 E39.59559
G1 X51.301 Y132.934 E39.80575
G1 X46.162 Y136.558 E40.0149
G1 X41.151 Y140.334 E40.22359
G1 X36.232 Y144.286 E40.43346
G1 X31.465 Y148.366 E40.64215
G1 X26.809 Y152.61 E40.85169
G1 X22.272 Y157.008 E41.06186
G1 X15.367 Y163.912 E41.38662
G1 X27.387 Y175.933 E41.95203
G1 X34.392 Y168.924 E42.28162
G1 X38.172 Y165.26 E42.45671
G1 X42.173 Y161.592 E42.63724
G1 X46.241 Y158.076 E42.81608
G1 X50.422 Y154.669 E42.99546
G1 X54.73 Y151.361 E43.17612
G1 X59.119 Y148.19 E43.35621
G1 X63.56 Y145.179 E43.53467
G1 X67.02 Y142.968 E43.67124
G1 X67.199 Y142.968 E43.67719
G1 X67.458 Y143.281 E43.6907
G1 X67.487 Y143.414 E43.69523
G1 X67.437 Y143.523 E43.69922
G1 X31.207 Y179.752 E45.40334
G1 X43.228 Y191.769 E45.96868
G1 X65.379 Y169.622 E47.0105
G1 X65.489 Y169.576 E47.01447
G1 X65.576 Y169.587 E47.01738
G1 X65.905 Y169.794 E47.03031
G1 X65.93 Y169.953 E47.03567
G1 X65.119 Y172.063 E47.11085
G1 X63.934 Y174.673 E47.20619
G1 X62.609 Y177.218 E47.30162
G1 X61.139 Y179.704 E47.39768
G1 X59.532 Y182.097 E47.49355
G1 X57.809 Y184.378 E47.58863
G1 X55.966 Y186.558 E47.68357
G1 X54.062 Y188.57 E47.77571
G1 X47.047 Y195.591 E48.10581
G1 X59.065 Y207.609 E48.6711
G1 X65.996 Y200.68 E48.99707
G1 X68.327 Y198.225 E49.10967
G1 X68.342 Y198.226 E49.11017
G1 X70.744 Y195.413 E49.2332
G1 X72.918 Y192.59 E49.3517
G1 F1500 E42.8517
G0 F6000 X72.505 Y192.305
G0 X74.467 Y189.362
G0 X78.793 Y182.482
G0 X81.995 Y174.868
G0 X80.099 Y172.965
G0 X83.677 Y169.373
G0 X85.525 Y160.509
G0 X86.251 Y157.668
G0 X87.135 Y154.875
G0 X88.175 Y152.137
G0 X89.371 Y149.451
G0 X90.708 Y146.857
G0 X92.193 Y144.332
G0 X93.818 Y141.895
G0 X95.577 Y139.555
G0 X97.474 Y137.306
G0 X99.274 Y135.402
G0 X127.043 Y107.111
G0 X122.761 Y102.375
G0 X122.34 Y101.741
G1 F1500 E49.3517
G1 F1200 X121.952 Y101.56 E49.36594
G1 X121.669 Y101.343 E49.37781
G1 X121.416 Y101.029 E49.39122
G1 X121.243 Y100.615 E49.40614
G1 X121.177 Y100.186 E49.42058
G1 X121.267 Y99.689 E49.43738
G1 X121.526 Y99.219 E49.45522
G1 X121.883 Y98.908 E49.47097
G1 X122.159 Y98.756 E49.48145
G1 X122.506 Y98.655 E49.49347
G1 X122.91 Y98.636 E49.50692
G1 X123.276 Y98.714 E49.51937
G1 X123.602 Y98.868 E49.53136
G1 X123.967 Y99.18 E49.54733
G1 X124.151 Y99.441 E49.55795
G1 X124.272 Y99.731 E49.56841
G1 X124.356 Y100.151 E49.58265
G1 X124.288 Y100.679 E49.60036
G1 X124.111 Y101.035 E49.61358
G1 X123.886 Y101.322 E49.62571
G1 X123.439 Y101.636 E49.64388
G1 X123.15 Y101.739 E49.65408
G1 X122.729 Y101.787 E49.66818
G1 X122.34 Y101.741 E49.68121
G1 F1500 E43.18121
G0 F6000 X122.129 Y102.197
G0 X121.289 Y101.793
G0 X26.887 Y166.96
G0 X26.852 Y167.64
;TYPE:SKIN
G1 F1500 E49.68121
G1 F1200 X27.055 Y167.014 E49.70309
G1 X27.119 Y166.312 E49.72654
G1 X26.945 Y165.678 E49.74841
G1 X26.704 Y165.204 E49.76609
G1 X26.312 Y164.772 E49.78549
G1 X25.741 Y164.378 E49.80857
G1 X25.092 Y164.213 E49.83084
G1 X24.428 Y164.189 E49.85294
G1 X23.75 Y164.421 E49.87677
G1 X23.178 Y164.782 E49.89927
G1 X22.767 Y165.322 E49.92184
G1 X22.555 Y165.765 E49.93818
G1 X22.443 Y166.301 E49.95639
G1 X22.452 Y166.841 E49.97435
G1 X22.582 Y167.366 E49.99234
G1 X22.844 Y167.86 E50.01094
G1 X23.21 Y168.27 E50.02922
G1 X23.633 Y168.569 E50.04645
G1 X23.914 Y168.705 E50.05683
G1 X24.405 Y168.838 E50.07375
G1 X24.943 Y168.856 E50.09165
G1 X25.288 Y168.806 E50.10325
G1 X25.78 Y168.636 E50.12056
G1 X26.354 Y168.282 E50.14299
G1 X26.852 Y167.64 E50.17002
G1 F1500 E43.67002
G0 F6000 X26.239 Y168.009
G0 X39.084 Y180.844
G0 X42.594 Y183.608
G1 F1500 E50.17002
G1 F1200 X42.826 Y183.125 E50.18784
G1 X42.94 Y182.593 E50.20593
G1 X42.918 Y182.001 E50.22564
G1 X42.771 Y181.465 E50.24412
G1 X42.447 Y180.893 E50.26599
G1 X41.944 Y180.444 E50.28841
G1 X41.498 Y180.207 E50.30521
G1 X40.982 Y180.059 E50.32307
G1 X40.374 Y180.036 E50.3433
G1 X39.843 Y180.154 E50.36139
G1 X39.391 Y180.366 E50.378
G1 X38.954 Y180.714 E50.39658
G1 X38.519 Y181.267 E50.41998
G1 X38.312 Y181.914 E50.44258
G1 X38.268 Y182.402 E50.45887
G1 X38.298 Y182.745 E50.47032
G1 X38.444 Y183.256 E50.488
G1 X38.76 Y183.834 E50.50991
G1 X39.248 Y184.263 E50.53152
G1 X39.764 Y184.55 E50.55116
G1 X40.248 Y184.678 E50.56781
G1 X40.815 Y184.695 E50.58668
G1 X41.087 Y184.659 E50.5958
G1 X41.585 Y184.494 E50.61325
G1 X42.19 Y184.118 E50.63694
G1 X42.594 Y183.608 E50.65858
G1 F1500 E44.15858
G0 F6000 X42.391 Y183.448
G0 X42.062 Y183.995
G0 X54.923 Y196.684
G0 X58.527 Y199.326
G1 F1500 E50.65858
G1 F1200 X58.783 Y198.548 E50.68583
G1 X58.759 Y197.853 E50.70895
G1 X58.618 Y197.328 E50.72704
G1 X58.283 Y196.724 E50.75001
G1 X57.777 Y196.286 E50.77227
G1 X57.319 Y196.038 E50.78959
G1 X56.8 Y195.898 E50.80747
G1 X56.1 Y195.873 E50.83077
