;FLAVOR:Marlin
;TIME:6066
;Filament used: 2.59966m
;Layer height: 0.2
;MINX:86.14
;MINY:86.685
;MINZ:0.2
;MAXX:134.705
;MAXY:132.919
;MAXZ:24
;TARGET_MACHINE.NAME:Creality Ender-3 Pro
;Generated with Cura_SteamEngine 5.7.2
M104 S200
M105
M109 S200
M82 ;absolute extrusion mode
; Ender 3 Custom Start G-code
G92 E0 ; Reset Extruder
G28 ; Home all axes
G29 ; Bed Auto Leveling
G1 Z5.0 F3000 ; Move Z Axis up a bit during heating to not damage bed
M104 S175 ; Start heating up the nozzle most of the way
M190 S60 ; Start heating the bed, wait until target temperature reached
M109 S200.0 ; Finish heating the nozzle
G1 Z2.0 F3000 ; Move Z Axis up little to prevent scratching of Heat Bed
G1 X0.1 Y20 Z0.3 F5000.0 ; Move to start position
G1 X0.1 Y200.0 Z0.3 F1500.0 E15 ; Draw the first line
G1 X0.4 Y200.0 Z0.3 F5000.0 ; Move to side a little
G1 X0.4 Y20 Z0.3 F1500.0 E30 ; Draw the second line
G92 E0 ; Reset Extruder
G1 Z2.0 F3000 ; Move Z Axis up little to prevent scratching of Heat Bed
G1 X5 Y20 Z0.3 F5000.0 ; Move over to prevent blob squish
G92 E0
G92 E0
G1 F1500 E-6.5
;LAYER_COUNT:120
;LAYER:0
M107
G0 F6000 X97.082 Y91.484 Z0.2
;TYPE:SKIRT
G1 F1500 E0
G1 F1200 X97.785 Y90.99 E0.02858
G1 X97.86 Y90.89 E0.03274
G1 X97.859 Y90.884 E0.03294
G1 X98.66 Y90.375 E0.0645
G1 X98.668 Y90.37 E0.06482
G1 X99.297 Y89.93 E0.09035
G1 X99.381 Y89.921 E0.09316
G1 X100.428 Y89.334 E0.13308
G1 X101.391 Y88.856 E0.16884
G1 X102.167 Y88.523 E0.19692
G1 X102.261 Y88.44 E0.2011
G1 X102.268 Y88.408 E0.20218
G1 X103.464 Y88.031 E0.24389
G1 X103.475 Y88.027 E0.24428
G1 X104.386 Y87.683 E0.27667
G1 X105.497 Y87.456 E0.31439
G1 X105.506 Y87.454 E0.31469
G1 X106.012 Y87.325 E0.33206
G1 X106.111 Y87.331 E0.33536
G1 X106.491 Y87.258 E0.34823
G1 X107.574 Y87.093 E0.38467
G1 X108.6 Y86.993 E0.41895
G1 X109.693 Y86.944 E0.45534
G1 X110.753 Y86.949 E0.4906
G1 X111.813 Y87.011 E0.52591
G1 X112.876 Y87.126 E0.56148
G1 X113.951 Y87.295 E0.59767
G1 X115.275 Y87.58 E0.64272
G1 X117.439 Y90.657 E0.76783
G1 X117.451 Y90.672 E0.76847
G1 X117.711 Y90.974 E0.78172
G1 X117.741 Y91.002 E0.78309
G1 X118.059 Y91.248 E0.79646
G1 X118.093 Y91.269 E0.79779
G1 X118.447 Y91.443 E0.81091
G1 X118.485 Y91.458 E0.81227
G1 X118.88 Y91.561 E0.82585
G1 X118.918 Y91.567 E0.82713
G1 X119.313 Y91.59 E0.84029
G1 X119.353 Y91.588 E0.84162
G1 X119.747 Y91.532 E0.85485
G1 X119.791 Y91.52 E0.85637
G1 X120.198 Y91.362 E0.87089
G1 X120.252 Y91.327 E0.87303
G1 X120.465 Y91.274 E0.88033
G1 X123.213 Y91.173 E0.97179
G1 X123.405 Y91.212 E0.97831
G1 X123.498 Y91.268 E0.98192
G1 X123.611 Y91.398 E0.98765
G1 X124.287 Y92.926 E1.04322
G1 X124.289 Y92.931 E1.0434
G1 X124.483 Y93.338 E1.0584
G1 X124.511 Y93.54 E1.06518
G1 X124.493 Y93.712 E1.07093
G1 X124.492 Y93.728 E1.07147
G1 X124.488 Y93.877 E1.07642
G1 X124.186 Y94.114 E1.08919
G1 X124.173 Y94.11 E1.08964
G1 X124.067 Y94.148 E1.09339
G1 X123.943 Y94.237 E1.09847
G1 X123.704 Y94.242 E1.10642
G1 X123.677 Y94.222 E1.10753
G1 X123.657 Y94.209 E1.10833
G1 X122.745 Y93.688 E1.14326
G1 X122.736 Y93.684 E1.14359
G1 X121.816 Y93.219 E1.17787
G1 X121.807 Y93.214 E1.17822
G1 X120.839 Y92.786 E1.21342
G1 X120.83 Y92.782 E1.21375
G1 X119.851 Y92.407 E1.24862
G1 X119.841 Y92.404 E1.24896
G1 X118.84 Y92.08 E1.28396
G1 X118.83 Y92.077 E1.2843
G1 X118.039 Y91.865 E1.31154
G1 X115.205 Y87.83 E1.47554
G1 X115.09 Y87.751 E1.48018
G1 X115.034 Y87.737 E1.4821
G1 X115.025 Y87.732 E1.48244
G1 X114.892 Y87.702 E1.48698
G1 X114.608 Y87.641 E1.49664
G1 X114.274 Y87.569 E1.508
G1 X113.918 Y87.493 E1.52011
G1 X113.913 Y87.492 E1.52028
G1 X113.897 Y87.489 E1.52082
G1 X113.891 Y87.488 E1.52102
G1 X113.669 Y87.453 E1.5285
G1 X112.861 Y87.323 E1.55572
G1 X112.852 Y87.322 E1.55602
G1 X112.799 Y87.316 E1.55779
G1 X112.792 Y87.316 E1.55803
G1 X111.826 Y87.21 E1.59035
G1 X111.815 Y87.209 E1.59072
G1 X110.764 Y87.149 E1.62573
G1 X110.754 Y87.149 E1.62606
G1 X109.724 Y87.144 E1.66032
G1 X109.68 Y87.144 E1.66178
G1 X108.642 Y87.192 E1.69635
G1 X108.607 Y87.194 E1.69751
G1 X108.599 Y87.195 E1.69778
G1 X107.705 Y87.284 E1.72766
G1 X107.643 Y87.29 E1.72973
G1 X107.626 Y87.291 E1.7303
G1 X107.568 Y87.298 E1.73224
G1 X107.561 Y87.299 E1.73248
G1 X107.523 Y87.305 E1.73376
G1 X107.513 Y87.306 E1.73409
G1 X107.498 Y87.307 E1.73459
G1 X106.61 Y87.442 E1.76447
G1 X106.602 Y87.443 E1.76473
G1 X106.542 Y87.453 E1.76676
G1 X106.519 Y87.455 E1.76752
G1 X105.793 Y87.604 E1.79218
G1 X105.739 Y87.601 E1.79397
G1 X105.495 Y87.664 E1.80236
G1 X104.903 Y87.782 E1.82243
G1 X104.794 Y87.843 E1.82659
G1 X104.506 Y87.918 E1.83649
G1 X104.5 Y87.92 E1.8367
G1 X104.476 Y87.927 E1.83753
G1 X104.465 Y87.93 E1.83791
G1 X104.457 Y87.932 E1.83818
G1 X102.941 Y88.407 E1.89102
G1 X102.858 Y88.467 E1.89443
G1 X102.516 Y88.594 E1.90656
G1 X102.495 Y88.602 E1.90731
G1 X102.458 Y88.616 E1.90862
G1 X102.45 Y88.619 E1.90891
G1 X101.493 Y89.031 E1.94356
G1 X101.484 Y89.036 E1.94391
G1 X100.539 Y89.502 E1.97895
G1 X100.528 Y89.507 E1.97935
G1 X100.514 Y89.515 E1.97989
G1 X100.49 Y89.527 E1.98078
G1 X99.657 Y89.991 E2.01249
G1 X99.651 Y89.995 E2.01273
G1 X99.621 Y90.013 E2.0139
G1 X99.602 Y90.024 E2.01463
G1 X99.119 Y90.328 E2.03361
G1 X99.069 Y90.328 E2.03527
G1 X99.011 Y90.358 E2.03744
G1 X98.871 Y90.463 E2.04327
G1 X98.692 Y90.597 E2.0507
G1 X98.366 Y90.802 E2.06351
G1 X98.321 Y90.857 E2.06587
G1 X97.776 Y91.239 E2.08801
G1 X97.709 Y91.285 E2.09071
G1 X97.705 Y91.29 E2.09093
G1 X97.527 Y91.414 E2.09814
G1 X97.452 Y91.514 E2.1023
G1 X97.476 Y91.691 E2.10824
G1 X97.604 Y91.878 E2.11578
G1 X97.556 Y92.516 E2.13706
G1 X97.571 Y92.585 E2.13941
G1 X97.522 Y93.241 E2.16128
G1 X97.537 Y93.325 E2.16412
G1 X97.488 Y93.969 E2.1856
G1 X97.496 Y94.044 E2.18811
G1 X97.738 Y94.809 E2.2148
G1 X97.844 Y95.358 E2.2334
G1 X97.877 Y95.931 E2.25249
G1 X97.867 Y96.169 E2.26041
G1 X97.833 Y96.431 E2.2692
G1 X97.766 Y96.717 E2.27897
G1 X97.695 Y96.942 E2.28681
G1 X97.639 Y97.082 E2.29183
G1 X97.563 Y97.01 E2.29531
G1 X97.606 Y96.932 E2.29827
G1 X97.628 Y96.865 E2.30062
G1 X97.673 Y96.556 E2.311
G1 X97.675 Y96.531 E2.31184
G1 X97.682 Y96.14 E2.32485
G1 X97.682 Y96.123 E2.32541
G1 X97.635 Y95.403 E2.34941
G1 X97.632 Y95.38 E2.35018
G1 X97.529 Y94.825 E2.36896
G1 X97.523 Y94.801 E2.36978
G1 X97.149 Y93.615 E2.41114
G1 X97.227 Y93.568 E2.41417
G1 X97.274 Y93.462 E2.41802
G1 X97.367 Y92.737 E2.44234
G1 X97.369 Y92.705 E2.4434
G1 X97.36 Y92.438 E2.45229
G1 X97.358 Y92.417 E2.45299
G1 X97.299 Y92 E2.467
G1 X97.291 Y91.964 E2.46822
G1 X97.184 Y91.645 E2.47941
G1 X97.159 Y91.595 E2.48127
G1 X97.082 Y91.484 E2.48577
G1 F1500 E-4.01423
G0 F6000 X97.162 Y91.108
G0 X97.55 Y90.781
G0 X99.277 Y89.592
G0 X101.965 Y88.243
G0 X103.827 Y87.541
G0 X106.492 Y86.987
G0 X108.615 Y86.729
G0 X110.773 Y86.685
G0 X112.92 Y86.863
G0 X115.324 Y87.333
G0 X119.711 Y91.941
G1 F1500 E2.48577
G1 F1200 X119.803 Y91.928 E2.48886
G1 X119.936 Y91.893 E2.49343
G1 X120.343 Y91.735 E2.50795
G1 X120.388 Y91.706 E2.50973
G1 X120.522 Y91.673 E2.51432
G1 X123.18 Y91.575 E2.60279
G1 X123.246 Y91.588 E2.60503
G1 X123.269 Y91.615 E2.60621
G1 X123.921 Y93.088 E2.65978
G1 X123.928 Y93.103 E2.66033
G1 X124.096 Y93.456 E2.67334
G1 X124.108 Y93.544 E2.67629
G1 X124.095 Y93.669 E2.68047
G1 X124.094 Y93.678 E2.68077
G1 X123.99 Y93.76 E2.68518
G1 X123.833 Y93.823 E2.6908
G1 X123.813 Y93.837 E2.69161
G1 X122.944 Y93.341 E2.72489
G1 X122.917 Y93.327 E2.72591
G1 X121.997 Y92.862 E2.76019
G1 X121.969 Y92.848 E2.76123
G1 X121.001 Y92.42 E2.79644
G1 X120.973 Y92.409 E2.79744
G1 X119.994 Y92.034 E2.8323
G1 X119.964 Y92.023 E2.83337
G1 X119.711 Y91.941 E2.84221
G0 F6000 X121.15 Y92.049
G1 F1200 X122.995 Y91.981 E2.90362
G1 X123.544 Y93.224 E2.94882
G1 X123.142 Y92.994 E2.96422
G1 X123.097 Y92.97 E2.96592
G1 X122.177 Y92.505 E3.0002
G1 X122.13 Y92.482 E3.00194
G1 X121.162 Y92.054 E3.03714
G1 X121.15 Y92.049 E3.03758
G1 F1500 E-3.46242
G0 F6000 X124.988 Y109.166
G1 F1500 E3.03758
G1 F1200 X125.29 Y109.158 E3.04762
G1 X125.29 Y109.179 E3.04832
G1 X125.354 Y109.325 E3.05363
G1 X125.888 Y109.823 E3.07791
G1 X125.886 Y113.812 E3.21059
G1 X125.599 Y114.035 E3.22267
G1 X125.593 Y114.04 E3.22293
G1 X125.362 Y114.235 E3.23299
G1 X125.291 Y114.388 E3.2386
G1 X125.291 Y114.394 E3.2388
G1 X125.047 Y114.394 E3.24691
G1 X124.715 Y114.313 E3.25828
G1 X124.325 Y114.004 E3.27483
G1 X123.958 Y113.467 E3.29646
G1 X123.747 Y113.007 E3.3133
G1 X123.691 Y112.805 E3.32027
G1 X123.69 Y110.824 E3.38616
G1 X123.951 Y110.186 E3.40908
G1 X124.193 Y109.837 E3.42321
G1 X124.633 Y109.339 E3.44531
G1 X124.988 Y109.166 E3.45845
G0 F6000 X125.054 Y109.578
G1 F1200 X125.081 Y109.618 E3.46005
G1 X125.488 Y109.998 E3.47857
G1 X125.486 Y113.616 E3.59891
G1 X125.354 Y113.719 E3.60447
G1 X125.335 Y113.735 E3.6053
G1 X125.104 Y113.93 E3.61535
G1 X125.059 Y113.985 E3.61772
G1 X124.894 Y113.944 E3.62337
G1 X124.621 Y113.728 E3.63495
G1 X124.309 Y113.272 E3.65333
G1 X124.122 Y112.864 E3.66826
G1 X124.091 Y112.752 E3.67212
G1 X124.09 Y110.902 E3.73365
G1 X124.305 Y110.378 E3.75249
G1 X124.509 Y110.082 E3.76445
G1 X124.88 Y109.663 E3.78306
G1 X125.054 Y109.578 E3.7895
G0 F6000 X125.021 Y110.108
G1 F1200 X125.088 Y110.171 E3.79256
G1 X125.086 Y113.422 E3.90069
G1 X125.077 Y113.429 E3.90107
G1 X124.985 Y113.506 E3.90506
G1 X124.916 Y113.452 E3.90797
G1 X124.656 Y113.071 E3.92332
G1 X124.5 Y112.731 E3.93576
G1 X124.491 Y112.697 E3.93693
G1 X124.49 Y110.983 E3.99393
G1 X124.66 Y110.567 E4.00888
G1 X124.824 Y110.33 E4.01847
G1 X125.021 Y110.108 E4.02834
G1 F1500 E-2.47166
G0 F6000 X91.084 Y118.967
G1 F1500 E4.02834
G1 F1200 X91.137 Y119.192 E4.03603
G1 X91.137 Y119.42 E4.04361
G1 X91.083 Y119.646 E4.05134
G1 X90.982 Y119.849 E4.05888
G1 X90.831 Y120.029 E4.0667
G1 X90.646 Y120.167 E4.07437
G1 X90.439 Y120.258 E4.08189
G1 X90.273 Y120.3 E4.08759
G1 X89.981 Y120.282 E4.09732
G1 X89.736 Y120.209 E4.10582
G1 X89.67 Y120.177 E4.10826
G1 X89.458 Y120.019 E4.11705
G1 X89.358 Y119.91 E4.12197
G1 X88.86 Y119.177 E4.15145
G1 X89.49 Y118.559 E4.1808
G1 X89.651 Y118.447 E4.18732
G1 X89.862 Y118.353 E4.19501
G1 X90.007 Y118.318 E4.19997
G1 X90.119 Y118.308 E4.20371
G1 X90.339 Y118.323 E4.21104
G1 X90.54 Y118.391 E4.2181
G1 X90.763 Y118.521 E4.22668
G1 X90.815 Y118.564 E4.22893
G1 X90.979 Y118.759 E4.2374
G1 X91.084 Y118.967 E4.24515
G0 F6000 X90.705 Y119.105
G1 F1200 X90.737 Y119.239 E4.24974
G1 X90.737 Y119.373 E4.25419
G1 X90.704 Y119.509 E4.25885
G1 X90.645 Y119.629 E4.26329
G1 X90.556 Y119.734 E4.26787
G1 X90.442 Y119.82 E4.27262
G1 X90.306 Y119.879 E4.27755
G1 X90.235 Y119.897 E4.27999
G1 X90.052 Y119.886 E4.28609
G1 X89.881 Y119.835 E4.29202
G1 X89.724 Y119.718 E4.29853
G1 X89.677 Y119.667 E4.30084
G1 X89.379 Y119.228 E4.31849
G1 X89.743 Y118.87 E4.33547
G1 X89.847 Y118.798 E4.33968
G1 X89.991 Y118.734 E4.34492
G1 X90.072 Y118.714 E4.34769
G1 X90.127 Y118.709 E4.34953
G1 X90.262 Y118.719 E4.35403
G1 X90.374 Y118.756 E4.35795
G1 X90.531 Y118.848 E4.36401
G1 X90.644 Y118.983 E4.36986
G1 X90.705 Y119.105 E4.3744
G0 F6000 X90.327 Y119.243
G1 F1200 X90.337 Y119.285 E4.37584
G1 X90.337 Y119.326 E4.3772
G1 X90.326 Y119.371 E4.37874
G1 X90.308 Y119.407 E4.38008
G1 X90.279 Y119.441 E4.38156
G1 X90.238 Y119.472 E4.38327
G1 X90.189 Y119.494 E4.38506
G1 X90.123 Y119.49 E4.38726
G1 X90.064 Y119.472 E4.38931
G1 X89.995 Y119.421 E4.39217
G1 X89.99 Y119.416 E4.3924
G1 X89.898 Y119.28 E4.39786
G1 X90.004 Y119.176 E4.4028
G1 X90.047 Y119.146 E4.40454
G1 X90.115 Y119.116 E4.40702
G1 X90.135 Y119.111 E4.4077
G1 X90.183 Y119.114 E4.4093
G1 X90.209 Y119.123 E4.41022
G1 X90.268 Y119.158 E4.4125
G1 X90.309 Y119.206 E4.4146
G1 X90.327 Y119.243 E4.41597
G1 F1500 E-2.08403
G0 F6000 X88.803 Y118.752
G0 X87.973 Y118.35
G0 X86.738 Y100.904
G0 X97.168 Y97.005
G0 X98.061 Y97.103
;TYPE:SUPPORT-INTERFACE
G1 F1500 E4.41597
G1 F1200 X98.074 Y97.071 E4.41712
G1 X98.153 Y96.821 E4.42584
G1 X98.225 Y96.513 E4.43636
G1 X98.266 Y96.198 E4.44692
G1 X98.278 Y95.927 E4.45594
G1 X98.243 Y95.313 E4.4764
G1 X98.125 Y94.706 E4.49697
G1 X97.889 Y93.959 E4.52302
G1 X97.942 Y93.26 E4.54634
G1 X97.924 Y93.22 E4.5478
G1 X97.977 Y92.518 E4.57121
G1 X97.959 Y92.485 E4.57246
G1 X98.013 Y91.768 E4.59638
G1 X97.918 Y91.629 E4.60198
G1 X98.022 Y91.556 E4.6062
G1 X98.761 Y91.037 E4.63624
G1 X98.756 Y91.029 E4.63655
G1 X98.918 Y90.927 E4.64292
G1 X99.086 Y90.801 E4.6499
G1 X99.096 Y90.815 E4.65048
G1 X99.81 Y90.366 E4.67853
G1 X99.828 Y90.355 E4.67923
G1 X99.851 Y90.341 E4.68013
G1 X100.684 Y89.877 E4.71184
G1 X100.707 Y89.865 E4.7127
G1 X100.726 Y89.855 E4.71342
G1 X101.651 Y89.399 E4.74772
G1 X102.608 Y88.987 E4.78237
G1 X102.639 Y88.975 E4.78348
G1 X102.66 Y88.967 E4.78422
G1 X103.329 Y88.719 E4.80796
G1 X103.321 Y88.708 E4.80841
G1 X104.575 Y88.314 E4.85213
G1 X104.586 Y88.312 E4.8525
G1 X104.606 Y88.306 E4.85319
G1 X105.297 Y88.127 E4.87693
G1 X105.287 Y88.113 E4.87751
G1 X105.59 Y88.053 E4.88778
G1 X105.701 Y88.024 E4.8916
G1 X105.705 Y88.03 E4.89184
G1 X106.579 Y87.851 E4.92151
G1 X106.582 Y87.851 E4.92161
G1 X106.648 Y87.84 E4.92383
G1 X106.655 Y87.84 E4.92407
G1 X107.557 Y87.703 E4.95441
G1 X107.577 Y87.702 E4.95508
G1 X107.616 Y87.696 E4.95639
G1 X107.666 Y87.69 E4.95806
G1 X107.745 Y87.682 E4.96071
G1 X108.631 Y87.594 E4.99032
G1 X108.663 Y87.592 E4.99139
G1 X109.698 Y87.544 E5.02585
G1 X109.723 Y87.544 E5.02668
G1 X110.742 Y87.549 E5.06057
G1 X111.789 Y87.609 E5.09545
G1 X112.762 Y87.715 E5.128
G1 X112.764 Y87.715 E5.12807
G1 X112.808 Y87.72 E5.12954
G1 X113.606 Y87.848 E5.15642
G1 X113.823 Y87.882 E5.16373
G1 X113.823 Y87.883 E5.16376
G1 X113.834 Y87.885 E5.16414
G1 X114.19 Y87.961 E5.17624
G1 X114.524 Y88.033 E5.18761
G1 X114.806 Y88.093 E5.1972
G1 X114.806 Y88.092 E5.19723
G1 X114.88 Y88.109 E5.19975
G1 X114.883 Y88.112 E5.1999
G1 X114.92 Y88.121 E5.20116
G1 X117.453 Y91.726 E5.3477
G1 X116.785 Y91.584 E5.37042
G1 X115.723 Y91.414 E5.40619
G1 X114.668 Y91.299 E5.44149
G1 X113.629 Y91.24 E5.4761
G1 X112.567 Y91.235 E5.51142
G1 X111.492 Y91.285 E5.54722
G1 X110.452 Y91.388 E5.58198
G1 X109.403 Y91.546 E5.61726
G1 X108.361 Y91.759 E5.65263
G1 X107.337 Y92.021 E5.68779
G1 X106.316 Y92.343 E5.7234
G1 X105.339 Y92.704 E5.75804
G1 X104.354 Y93.127 E5.79369
G1 X103.415 Y93.592 E5.82854
G1 X102.474 Y94.118 E5.8644
G1 X101.591 Y94.671 E5.89905
G1 X100.676 Y95.314 E5.93625
G1 X100.078 Y95.766 E5.96118
G1 X100.078 Y95.767 E5.96121
G1 X99.529 Y96.161 E5.98369
G1 X99.072 Y96.472 E6.00207
G1 X98.569 Y96.797 E6.02199
G1 X98.061 Y97.103 E6.04172
G1 F1500 E-0.45828
G0 F6000 X99.4 Y96.006
G1 F1500 E6.04172
G1 F1200 X98.384 Y94.99 E6.08951
G1 X98.399 Y95.066
G1 X105.073 Y88.392 E6.40343
G0 F6000 X105.303 Y88.332
G1 F1200 X108.497 Y91.526 E6.55367
G0 F6000 X108.784 Y91.469
G1 F1200 X112.378 Y87.874 E6.72274
G0 F6000 X111.555 Y87.796
G1 F1200 X114.88 Y91.121 E6.87914
G0 F6000 X115.815 Y91.226
G1 F1200 X116.427 Y90.614 E6.90793
G1 F1500 E0.40793
G0 F6000 X115.026 Y88.62
G1 F1500 E6.90793
G1 F1200 X112.612 Y91.035 E7.0215
G0 F6000 X111.452 Y91.087
G1 F1200 X108.204 Y87.84 E7.17425
G0 F6000 X109.084 Y87.775
G1 F1200 X103.563 Y93.296 E7.43394
G1 X103.506 Y93.323
G1 X100.43 Y90.248 E7.5786
G1 F1500 E1.0786
G0 F6000 X98.85 Y91.22
G1 F1500 E7.5786
G1 F1200 X98.207 Y91.863 E7.60885
G0 F6000 X98.356 Y91.567
G1 F1200 X101.369 Y94.581 E7.75059
G1 F1500 E1.25059
G0 F6000 X105.87 Y92.294
G1 F1500 E7.75059
G1 F1200 X102.731 Y89.155 E7.89824
G1 F1500 E1.39824
;MESH:Clock-circlee-guarded.stl
G0 F6000 X106.055 Y97.211
G0 X112.67 Y127.825
;TYPE:WALL-INNER
G1 F1500 E7.89824
G1 F1200 X112.112 Y127.804 E7.91681
G1 X111.606 Y127.769 E7.93368
G1 X110.745 Y127.673 E7.9625
G1 X109.807 Y127.513 E7.99415
G1 X108.915 Y127.305 E8.02461
G1 X108.347 Y127.142 E8.04427
G1 X107.519 Y126.867 E8.07328
G1 X106.652 Y126.523 E8.10431
G1 X106.221 Y126.328 E8.12004
G1 X105.785 Y126.116 E8.13617
G1 X105.273 Y125.847 E8.1554
G1 X104.553 Y125.427 E8.18313
G1 X104.157 Y125.175 E8.19874
G1 X103.361 Y124.613 E8.23115
G1 X102.988 Y124.32 E8.24692
G1 X102.275 Y123.712 E8.27809
G1 X101.917 Y123.379 E8.29435
G1 X101.525 Y122.99 E8.31272
G1 X101.186 Y122.634 E8.32907
G1 X100.567 Y121.917 E8.36057
G1 X100.044 Y121.232 E8.38924
G1 X99.51 Y120.453 E8.42065
