;FLAVOR:Marlin
;TIME:29158
;Filament used: 19.0814m
;Layer height: 0.2
;MINX:37.532
;MINY:40.2
;MINZ:0.2
;MAXX:182.464
;MAXY:179.8
;MAXZ:34.2
;TARGET_MACHINE.NAME:Creality Ender-3 Pro
;Generated with Cura_SteamEngine 5.7.2
M104 S200
M105
M109 S200
M82 ;absolute extrusion mode
; Ender 3 Custom Start G-code
G92 E0 ; Reset Extruder
G28 ; Home all axes
G29 ; Bed Auto Leveling
G1 Z5.0 F3000 ; Move Z Axis up a bit during heating to not damage bed
M104 S175 ; Start heating up the nozzle most of the way
M190 S60 ; Start heating the bed, wait until target temperature reached
M109 S200.0 ; Finish heating the nozzle
G1 Z2.0 F3000 ; Move Z Axis up little to prevent scratching of Heat Bed
G1 X0.1 Y20 Z0.3 F5000.0 ; Move to start position
G1 X0.1 Y200.0 Z0.3 F1500.0 E15 ; Draw the first line
G1 X0.4 Y200.0 Z0.3 F5000.0 ; Move to side a little
G1 X0.4 Y20 Z0.3 F1500.0 E30 ; Draw the second line
G92 E0 ; Reset Extruder
G1 Z2.0 F3000 ; Move Z Axis up little to prevent scratching of Heat Bed
G1 X5 Y20 Z0.3 F5000.0 ; Move over to prevent blob squish
G92 E0
G92 E0
G1 F1500 E-6.5
;LAYER_COUNT:171
;LAYER:0
M107
;MESH:Base Plate 2.stl
G0 F6000 X90.113 Y63.075 Z0.2
;TYPE:WALL-INNER
G1 F1500 E0
G1 F1200 X89.638 Y63.1 E0.01582
G1 X89.18 Y63.071 E0.03108
G1 X88.704 Y62.984 E0.04718
G1 X88.23 Y62.84 E0.06365
G1 X87.82 Y62.662 E0.07852
G1 X87.394 Y62.413 E0.09493
G1 X87.032 Y62.139 E0.11003
G1 X86.695 Y61.821 E0.12544
G1 X86.379 Y61.448 E0.1417
G1 X86.108 Y61.035 E0.15813
G1 X85.894 Y60.607 E0.17405
G1 X85.742 Y60.19 E0.18881
G1 X85.631 Y59.73 E0.20455
G1 X85.573 Y59.261 E0.22027
G1 X85.572 Y58.761 E0.2369
G1 X85.628 Y58.285 E0.25284
G1 X85.748 Y57.788 E0.26984
G1 X85.888 Y57.408 E0.28331
G1 X86.115 Y56.948 E0.30037
G1 X86.358 Y56.577 E0.31513
G1 X86.661 Y56.212 E0.3309
G1 X87.062 Y55.833 E0.34926
G1 X87.386 Y55.593 E0.36267
G1 X87.858 Y55.316 E0.38087
G1 X88.297 Y55.132 E0.3967
G1 X88.689 Y55.016 E0.4103
G1 X89.164 Y54.932 E0.42634
G1 X89.663 Y54.9 E0.44297
G1 X90.168 Y54.932 E0.4598
G1 X90.643 Y55.016 E0.47585
G1 X91.102 Y55.156 E0.49181
G1 X91.542 Y55.351 E0.50781
G1 X91.946 Y55.593 E0.52348
G1 X92.27 Y55.833 E0.53689
G1 X92.671 Y56.212 E0.55524
G1 X92.974 Y56.577 E0.57102
G1 X93.217 Y56.948 E0.58577
G1 X93.432 Y57.379 E0.60179
G1 X93.6 Y57.85 E0.61842
G1 X93.708 Y58.315 E0.6343
G1 X93.759 Y58.736 E0.6484
G1 X93.759 Y59.244 E0.6653
G1 X93.696 Y59.75 E0.68226
G1 X93.581 Y60.209 E0.698
G1 X93.428 Y60.627 E0.7128
G1 X93.198 Y61.079 E0.72967
G1 X92.943 Y61.461 E0.74495
G1 X92.649 Y61.809 E0.7601
G1 X92.293 Y62.144 E0.77636
G1 X91.898 Y62.439 E0.79275
G1 X91.521 Y62.657 E0.80724
G1 X91.074 Y62.851 E0.82344
G1 X90.61 Y62.989 E0.83955
G1 X90.113 Y63.075 E0.85632
G1 F1500 E-5.64368
G0 F6000 X89.548 Y63.196
G0 X90.666 Y63.161
G0 X128.273 Y87.767
G0 X132.268 Y90.939
G1 F1500 E0.85632
G1 F1200 X131.676 Y90.761 E0.87688
G1 X131.106 Y90.518 E0.89749
G1 X130.539 Y90.194 E0.91921
G1 X130.013 Y89.81 E0.94087
G1 X129.498 Y89.324 E0.96442
G1 X129.105 Y88.849 E0.98493
G1 X128.742 Y88.301 E1.00679
G1 X128.436 Y87.685 E1.02967
G1 X128.22 Y87.081 E1.051
G1 X128.074 Y86.465 E1.07206
G1 X128 Y85.827 E1.09342
G1 X128.003 Y85.15 E1.11594
G1 X128.074 Y84.521 E1.13699
G1 X128.226 Y83.888 E1.15865
G1 X128.447 Y83.286 E1.17997
G1 X128.736 Y82.706 E1.20153
G1 X129.098 Y82.15 E1.22359
G1 X129.501 Y81.675 E1.24431
G1 X129.997 Y81.205 E1.26704
G1 X130.494 Y80.834 E1.28767
G1 X131.057 Y80.502 E1.30941
G1 X131.685 Y80.232 E1.33214
G1 X132.299 Y80.049 E1.35345
G1 X132.921 Y79.937 E1.37447
G1 X133.542 Y79.9 E1.39516
G1 X143.606 Y79.9 E1.72989
G1 X144.201 Y79.934 E1.74972
G1 X144.86 Y80.049 E1.77197
G1 X145.46 Y80.228 E1.79279
G1 X146.063 Y80.484 E1.81458
G1 X146.641 Y80.817 E1.83677
G1 X147.186 Y81.226 E1.85943
G1 X147.612 Y81.626 E1.87887
G1 X148.062 Y82.16 E1.90209
G1 X148.404 Y82.678 E1.92274
G1 X148.7 Y83.258 E1.94439
G1 X148.927 Y83.884 E1.96654
G1 X149.079 Y84.518 E1.98823
G1 X149.155 Y85.164 E2.00986
G1 X149.156 Y85.809 E2.03131
G1 X149.086 Y86.451 E2.05279
G1 X148.92 Y87.14 E2.07636
G1 X148.72 Y87.684 E2.09564
G1 X148.416 Y88.296 E2.11837
G1 X148.072 Y88.825 E2.13936
G1 X147.667 Y89.308 E2.16032
G1 X147.165 Y89.786 E2.18338
G1 X146.652 Y90.173 E2.20475
G1 X146.117 Y90.484 E2.22533
G1 X145.494 Y90.756 E2.24794
G1 X144.835 Y90.951 E2.2708
G1 X144.19 Y91.063 E2.29257
G1 X143.618 Y91.099 E2.31164
G1 X133.546 Y91.099 E2.64663
G1 X132.965 Y91.063 E2.66599
G1 X132.268 Y90.939 E2.68954
G1 F1500 E-3.81046
G0 F6000 X137.217 Y91.279
G0 X137.151 Y92.664
G0 X137.601 Y100.68
G1 F1500 E2.68954
G1 F1200 X137.14 Y100.539 E2.70557
G1 X136.772 Y100.379 E2.71892
G1 X136.357 Y100.145 E2.73477
G1 X135.97 Y99.86 E2.75075
G1 X135.573 Y99.484 E2.76894
G1 X135.27 Y99.119 E2.78472
G1 X135.046 Y98.779 E2.79826
G1 X134.799 Y98.285 E2.81663
G1 X134.644 Y97.846 E2.83211
G1 X134.543 Y97.425 E2.84651
G1 X134.484 Y96.932 E2.86303
G1 X134.484 Y96.461 E2.87869
G1 X134.539 Y95.991 E2.89443
G1 X134.663 Y95.487 E2.9117
G1 X134.827 Y95.047 E2.92731
G1 X135.015 Y94.671 E2.9413
G1 X135.27 Y94.277 E2.9569
G1 X135.573 Y93.912 E2.97268
G1 X135.975 Y93.533 E2.99106
G1 X136.353 Y93.257 E3.00663
G1 X136.777 Y93.015 E3.02286
G1 X137.145 Y92.859 E3.03616
G1 X137.672 Y92.7 E3.05447
G1 X138.14 Y92.624 E3.07024
G1 X138.616 Y92.6 E3.08609
G1 X139.017 Y92.624 E3.09945
G1 X139.555 Y92.716 E3.1176
G1 X140.014 Y92.856 E3.13356
G1 X140.454 Y93.051 E3.14957
G1 X140.857 Y93.293 E3.16521
G1 X141.237 Y93.58 E3.18104
G1 X141.583 Y93.912 E3.19699
G1 X141.886 Y94.277 E3.21277
G1 X142.145 Y94.679 E3.22868
G1 X142.329 Y95.047 E3.24236
G1 X142.496 Y95.488 E3.25804
G1 X142.614 Y95.973 E3.27465
G1 X142.672 Y96.462 E3.29102
G1 X142.672 Y96.934 E3.30672
G1 X142.617 Y97.409 E3.32263
G1 X142.496 Y97.906 E3.33964
G1 X142.328 Y98.355 E3.35559
G1 X142.11 Y98.779 E3.37144
G1 X141.843 Y99.176 E3.38736
G1 X141.583 Y99.484 E3.40076
G1 X141.185 Y99.86 E3.41897
G1 X140.801 Y100.144 E3.43486
G1 X140.386 Y100.38 E3.45074
G1 X139.947 Y100.564 E3.46657
G1 X139.555 Y100.68 E3.48016
G1 X139.017 Y100.776 E3.49834
G1 X138.544 Y100.8 E3.51409
G1 X138.14 Y100.776 E3.52755
G1 X137.601 Y100.68 E3.54576
G1 F1500 E-2.95424
G0 F6000 X137.217 Y100.671
G0 X137.156 Y102.12
G0 X132.268 Y113.339
G1 F1500 E3.54576
G1 F1200 X131.676 Y113.161 E3.56632
G1 X131.106 Y112.918 E3.58693
G1 X130.539 Y112.594 E3.60865
G1 X130.013 Y112.21 E3.63031
G1 X129.498 Y111.724 E3.65387
G1 X129.105 Y111.249 E3.67437
G1 X128.742 Y110.701 E3.69623
G1 X128.436 Y110.085 E3.71911
G1 X128.224 Y109.498 E3.73987
G1 X128.078 Y108.889 E3.7607
G1 X128 Y108.227 E3.78287
G1 X128.003 Y107.55 E3.80539
G1 X128.071 Y106.938 E3.82587
G1 X128.227 Y106.282 E3.84829
G1 X128.458 Y105.661 E3.87033
G1 X128.743 Y105.093 E3.89147
G1 X129.089 Y104.562 E3.91255
G1 X129.511 Y104.064 E3.93426
G1 X129.992 Y103.609 E3.95628
G1 X130.504 Y103.227 E3.97753
G1 X131.064 Y102.898 E3.99913
G1 X131.664 Y102.639 E4.02086
G1 X132.275 Y102.455 E4.04209
G1 X132.97 Y102.332 E4.06556
G1 X133.576 Y102.3 E4.08575
G1 X143.606 Y102.3 E4.41935
G1 X144.189 Y102.333 E4.43877
G1 X144.888 Y102.457 E4.46238
G1 X145.46 Y102.628 E4.48224
G1 X146.051 Y102.878 E4.50358
G1 X146.644 Y103.219 E4.52633
G1 X147.145 Y103.592 E4.54711
G1 X147.631 Y104.045 E4.5692
G1 X148.044 Y104.536 E4.59054
G1 X148.418 Y105.103 E4.61313
G1 X148.702 Y105.662 E4.63399
G1 X148.936 Y106.316 E4.65709
G1 X149.079 Y106.918 E4.67767
G1 X149.155 Y107.564 E4.6993
G1 X149.156 Y108.209 E4.72076
G1 X149.086 Y108.851 E4.74224
G1 X148.92 Y109.54 E4.76581
G1 X148.72 Y110.084 E4.78509
G1 X148.416 Y110.696 E4.80781
G1 X148.072 Y111.225 E4.8288
G1 X147.667 Y111.708 E4.84977
G1 X147.165 Y112.186 E4.87282
G1 X146.652 Y112.573 E4.8942
G1 X146.117 Y112.884 E4.91478
G1 X145.494 Y113.156 E4.93739
G1 X144.835 Y113.351 E4.96025
G1 X144.19 Y113.463 E4.98202
G1 X143.618 Y113.499 E5.00108
G1 X133.546 Y113.499 E5.33608
G1 X132.965 Y113.463 E5.35544
G1 X132.268 Y113.339 E5.37899
G1 F1500 E-1.12101
G0 F6000 X137.217 Y113.679
G0 X137.151 Y115.064
G0 X137.601 Y123.08
G1 F1500 E5.37899
G1 F1200 X137.14 Y122.939 E5.39502
G1 X136.772 Y122.779 E5.40837
G1 X136.357 Y122.545 E5.42421
G1 X135.97 Y122.26 E5.4402
G1 X135.573 Y121.884 E5.45838
G1 X135.27 Y121.519 E5.47416
G1 X135.046 Y121.179 E5.4877
G1 X134.799 Y120.685 E5.50607
G1 X134.644 Y120.246 E5.52156
G1 X134.543 Y119.825 E5.53596
G1 X134.484 Y119.332 E5.55247
G1 X134.484 Y118.861 E5.56814
G1 X134.539 Y118.391 E5.58388
G1 X134.663 Y117.887 E5.60114
G1 X134.827 Y117.447 E5.61676
G1 X135.015 Y117.071 E5.63074
G1 X135.27 Y116.677 E5.64635
G1 X135.573 Y116.312 E5.66213
G1 X135.975 Y115.933 E5.6805
G1 X136.353 Y115.657 E5.69607
G1 X136.777 Y115.415 E5.71231
G1 X137.145 Y115.259 E5.7256
G1 X137.672 Y115.1 E5.74391
G1 X138.14 Y115.024 E5.75968
G1 X138.616 Y115 E5.77553
G1 X139.017 Y115.024 E5.78889
G1 X139.555 Y115.116 E5.80705
G1 X140.014 Y115.256 E5.82301
G1 X140.454 Y115.451 E5.83901
G1 X140.857 Y115.693 E5.85465
G1 X141.237 Y115.98 E5.87049
G1 X141.583 Y116.312 E5.88644
G1 X141.886 Y116.677 E5.90221
G1 X142.145 Y117.079 E5.91812
G1 X142.329 Y117.447 E5.9318
G1 X142.496 Y117.888 E5.94749
G1 X142.614 Y118.373 E5.96409
G1 X142.672 Y118.862 E5.98047
G1 X142.672 Y119.334 E5.99617
G1 X142.617 Y119.809 E6.01207
G1 X142.496 Y120.306 E6.02908
G1 X142.328 Y120.755 E6.04503
G1 X142.11 Y121.179 E6.06089
G1 X141.843 Y121.576 E6.0768
G1 X141.583 Y121.884 E6.09021
G1 X141.185 Y122.26 E6.10842
G1 X140.801 Y122.544 E6.1243
G1 X140.386 Y122.78 E6.14018
G1 X139.947 Y122.964 E6.15601
G1 X139.555 Y123.08 E6.16961
G1 X139.017 Y123.176 E6.18779
G1 X138.544 Y123.2 E6.20354
G1 X138.14 Y123.176 E6.217
G1 X137.601 Y123.08 E6.23521
G1 F1500 E-0.26479
G0 F6000 X137.217 Y123.071
G0 X137.046 Y124.52
G0 X132.299 Y135.748
G1 F1500 E6.23521
G1 F1200 X131.691 Y135.566 E6.25632
G1 X131.071 Y135.301 E6.27874
G1 X130.516 Y134.979 E6.30008
G1 X129.979 Y134.583 E6.32228
G1 X129.529 Y134.158 E6.34286
G1 X129.124 Y133.674 E6.36385
G1 X128.747 Y133.11 E6.38642
G1 X128.454 Y132.531 E6.408
G1 X128.23 Y131.917 E6.42974
G1 X128.08 Y131.297 E6.45095
G1 X128.001 Y130.639 E6.473
G1 X128.001 Y129.968 E6.49531
G1 X128.074 Y129.321 E6.51697
G1 X128.225 Y128.69 E6.53855
G1 X128.458 Y128.061 E6.56086
G1 X128.743 Y127.493 E6.582
G1 X129.089 Y126.962 E6.60308
G1 X129.511 Y126.464 E6.62479
G1 X129.992 Y126.009 E6.64681
G1 X130.504 Y125.627 E6.66805
G1 X131.064 Y125.298 E6.68966
G1 X131.664 Y125.039 E6.71139
G1 X132.275 Y124.855 E6.73262
G1 X132.97 Y124.732 E6.75609
G1 X133.576 Y124.7 E6.77628
G1 X143.606 Y124.7 E7.10987
G1 X144.189 Y124.733 E7.1293
G1 X144.888 Y124.857 E7.15291
G1 X145.46 Y125.028 E7.17276
G1 X146.051 Y125.278 E7.19411
G1 X146.644 Y125.619 E7.21686
G1 X147.145 Y125.992 E7.23763
G1 X147.631 Y126.445 E7.25973
G1 X148.044 Y126.936 E7.28107
G1 X148.418 Y127.503 E7.30366
G1 X148.702 Y128.062 E7.32452
G1 X148.936 Y128.716 E7.34762
G1 X149.079 Y129.318 E7.3682
G1 X149.155 Y129.952 E7.38944
G1 X149.156 Y130.606 E7.41119
G1 X149.085 Y131.258 E7.433
G1 X148.934 Y131.894 E7.45474
G1 X148.711 Y132.506 E7.47641
G1 X148.404 Y133.116 E7.49912
G1 X148.084 Y133.608 E7.51864
G1 X147.667 Y134.108 E7.5403
G1 X147.173 Y134.578 E7.56298
G1 X146.682 Y134.952 E7.58351
G1 X146.053 Y135.316 E7.60768
G1 X145.449 Y135.572 E7.6295
G1 X144.884 Y135.74 E7.6491
G1 X144.19 Y135.864 E7.67255
G1 X143.58 Y135.901 E7.69287
G1 X133.546 Y135.899 E8.02661
G1 X132.929 Y135.859 E8.04717
G1 X132.299 Y135.748 E8.06845
G1 F1500 E1.56845
G0 F6000 X131.734 Y135.684
G0 X131.014 Y135.475
G0 X125.481 Y142.446
G0 X121.604 Y149.072
G1 F1500 E8.06845
G1 F1200 X121.123 Y148.991 E8.08467
G1 X120.606 Y148.836 E8.10262
G1 X120.225 Y148.672 E8.11642
G1 X119.817 Y148.441 E8.13201
G1 X119.407 Y148.137 E8.14899
G1 X119.033 Y147.784 E8.16609
G1 X118.731 Y147.419 E8.18185
G1 X118.506 Y147.079 E8.19541
G1 X118.285 Y146.638 E8.21182
G1 X118.103 Y146.138 E8.22952
G1 X118.006 Y145.722 E8.24372
G1 X117.952 Y145.285 E8.25837
G1 X117.951 Y144.726 E8.27696
G1 X118.011 Y144.246 E8.29305
G1 X118.103 Y143.854 E8.30644
G1 X118.264 Y143.404 E8.32234
G1 X118.506 Y142.913 E8.34054
G1 X118.739 Y142.56 E8.35461
G1 X119.058 Y142.18 E8.37111
G1 X119.401 Y141.86 E8.38672
G1 X119.769 Y141.581 E8.40208
G1 X120.211 Y141.327 E8.41903
G1 X120.637 Y141.14 E8.43451
G1 X121.104 Y141.005 E8.45067
G1 X121.555 Y140.925 E8.46591
G1 X122.033 Y140.896 E8.48184
G1 X122.501 Y140.922 E8.49743
G1 X122.986 Y141.006 E8.5138
G1 X123.419 Y141.132 E8.5288
G1 X123.873 Y141.327 E8.54523
G1 X124.325 Y141.592 E8.56266
G1 X124.698 Y141.877 E8.57827
G1 X125.014 Y142.172 E8.59265
G1 X125.335 Y142.552 E8.60919
G1 X125.574 Y142.913 E8.62359
G1 X125.821 Y143.407 E8.64196
G1 X125.976 Y143.846 E8.65745
G1 X126.084 Y144.311 E8.67332
G1 X126.132 Y144.707 E8.68659
G1 X126.135 Y145.239 E8.70429
G1 X126.079 Y145.708 E8.72
G1 X125.957 Y146.209 E8.73715
G1 X125.793 Y146.649 E8.75277
G1 X125.593 Y147.047 E8.76758
G1 X125.35 Y147.419 E8.78236
G1 X125.029 Y147.804 E8.79903
G1 X124.676 Y148.135 E8.81513
G1 X124.31 Y148.411 E8.83037
G1 X123.905 Y148.649 E8.846
G1 X123.471 Y148.837 E8.86173
G1 X123 Y148.981 E8.87811
G1 X122.55 Y149.063 E8.89332
G1 X122.057 Y149.096 E8.90976
G1 X121.604 Y149.072 E8.92484
G1 F1500 E2.42484
G0 F6000 X122.952 Y148.831
G0 X123.195 Y148.742
G0 X125.15 Y147.939
G0 X146.054 Y144.683
G0 X147.335 Y145.417
G1 F1500 E8.92484
G1 F1200 X146.901 Y145.161 E8.9416
G1 X146.538 Y144.891 E8.95665
G1 X146.185 Y144.558 E8.97279
G1 X145.88 Y144.198 E8.98848
G1 X145.634 Y143.827 E9.00329
G1 X145.402 Y143.373 E9.02025
G1 X145.241 Y142.936 E9.03574
G1 X145.135 Y142.494 E9.05085
G1 X145.076 Y142.019 E9.06677
G1 X145.072 Y141.548 E9.08244
G1 X145.135 Y140.998 E9.10085
G1 X145.247 Y140.539 E9.11657
G1 X145.383 Y140.163 E9.12987
G1 X145.6 Y139.725 E9.14612
G1 X145.896 Y139.269 E9.16421
G1 X146.203 Y138.916 E9.17977
G1 X146.516 Y138.62 E9.19409
G1 X146.937 Y138.303 E9.21162
G1 X147.326 Y138.081 E9.22652
G1 X147.726 Y137.908 E9.24101
G1 X148.255 Y137.748 E9.2594
G1 X148.675 Y137.677 E9.27356
G1 X149.125 Y137.644 E9.28857
G1 X149.631 Y137.671 E9.30542
G1 X150.144 Y137.765 E9.32277
G1 X150.598 Y137.904 E9.33856
G1 X150.992 Y138.074 E9.35283
G1 X151.409 Y138.312 E9.3688
G1 X151.77 Y138.577 E9.3837
G1 X152.144 Y138.922 E9.40062
G1 X152.458 Y139.298 E9.41692
G1 X152.695 Y139.655 E9.43117
G1 X152.932 Y140.123 E9.44862
G1 X153.082 Y140.534 E9.46317
G1 X153.198 Y140.999 E9.47911
G1 X153.26 Y141.505 E9.49606
G1 X153.259 Y141.982 E9.51193
G1 X153.208 Y142.431 E9.52696
G1 X153.091 Y142.927 E9.54391
G1 X152.942 Y143.341 E9.55854
G1 X152.715 Y143.799 E9.57554
G1 X152.451 Y144.199 E9.59148
G1 X152.125 Y144.58 E9.60816
G1 X151.77 Y144.911 E9.62431
G1 X151.409 Y145.176 E9.6392
G1 X151.02 Y145.405 E9.65421
G1 X150.58 Y145.597 E9.67018
G1 X150.143 Y145.728 E9.68535
G1 X149.649 Y145.819 E9.70206
G1 X149.134 Y145.844 E9.71921
G1 X148.708 Y145.822 E9.7334
G1 X148.189 Y145.728 E9.75094
G1 X147.775 Y145.605 E9.76531
G1 X147.335 Y145.417 E9.78122
G1 F1500 E3.28122
G0 F6000 X148.711 Y145.661
G0 X148.97 Y145.661
G0 X151.105 Y145.565
G0 X173.182 Y147.939
G0 X173.658 Y148.136
G1 F1500 E9.78122
G1 F1200 X173.303 Y147.804 E9.79739
G1 X173.012 Y147.46 E9.81237
G1 X172.739 Y147.047 E9.82884
G1 X172.525 Y146.619 E9.84475
G1 X172.351 Y146.138 E9.86177
G1 X172.252 Y145.711 E9.87635
G1 X172.196 Y145.244 E9.89199
G1 X172.197 Y144.76 E9.90809
G1 X172.259 Y144.246 E9.92531
G1 X172.372 Y143.784 E9.94113
G1 X172.526 Y143.371 E9.95579
G1 X172.742 Y142.939 E9.97185
G1 X173.004 Y142.542 E9.98767
G1 X173.334 Y142.157 E10.00454
G1 X173.656 Y141.857 E10.01917
G1 X174.02 Y141.582 E10.03435
G1 X174.447 Y141.333 E10.05079
G1 X174.89 Y141.14 E10.06686
G1 X175.375 Y141.001 E10.08364
G1 X175.852 Y140.921 E10.09973
G1 X176.328 Y140.897 E10.11558
G1 X176.797 Y140.929 E10.13121
G1 X177.267 Y141.015 E10.14711
G1 X177.731 Y141.154 E10.16322
G1 X178.159 Y141.347 E10.17883
G1 X178.577 Y141.592 E10.19495
G1 X178.95 Y141.877 E10.21056
G1 X179.299 Y142.209 E10.22658
G1 X179.601 Y142.573 E10.24231
G1 X179.86 Y142.975 E10.25822
G1 X180.045 Y143.343 E10.27192
G1 X180.207 Y143.789 E10.2877
G1 X180.332 Y144.311 E10.30555
G1 X180.38 Y144.707 E10.31882
