;FLAVOR:Marlin
;TIME:9465
;Filament used: 4.4968m
;Layer height: 0.2
;MINX:59.785
;MINY:62.353
;MINZ:0.2
;MAXX:161.059
;MAXY:133.252
;MAXZ:35
;TARGET_MACHINE.NAME:Creality Ender-3 Pro
;Generated with Cura_SteamEngine 5.7.2
M104 S200
M105
M109 S200
M82 ;absolute extrusion mode
; Ender 3 Custom Start G-code
G92 E0 ; Reset Extruder
G28 ; Home all axes
G29 ; Bed Auto Leveling
G1 Z5.0 F3000 ; Move Z Axis up a bit during heating to not damage bed
M104 S175 ; Start heating up the nozzle most of the way
M190 S60 ; Start heating the bed, wait until target temperature reached
M109 S200.0 ; Finish heating the nozzle
G1 Z2.0 F3000 ; Move Z Axis up little to prevent scratching of Heat Bed
G1 X0.1 Y20 Z0.3 F5000.0 ; Move to start position
G1 X0.1 Y200.0 Z0.3 F1500.0 E15 ; Draw the first line
G1 X0.4 Y200.0 Z0.3 F5000.0 ; Move to side a little
G1 X0.4 Y20 Z0.3 F1500.0 E30 ; Draw the second line
G92 E0 ; Reset Extruder
G1 Z2.0 F3000 ; Move Z Axis up little to prevent scratching of Heat Bed
G1 X5 Y20 Z0.3 F5000.0 ; Move over to prevent blob squish
G92 E0
G92 E0
G1 F1500 E-6.5
;LAYER_COUNT:175
;LAYER:0
M107
G0 F6000 X88.245 Y104.449 Z0.2
;TYPE:SKIRT
G1 F1500 E0
G1 F1200 X91.207 Y103.619 E0.10231
G1 X94.169 Y104.449 E0.20462
G1 X96.304 Y106.703 E0.30788
G1 X97.133 Y109.542 E0.40625
G1 X96.303 Y112.506 E0.50863
G1 X94.169 Y114.64 E0.609
G1 X91.205 Y115.47 E0.71138
G1 X88.368 Y114.641 E0.80968
G1 X86.11 Y112.383 E0.91589
G1 X85.279 Y109.544 E1.01428
G1 X86.11 Y106.703 E1.11273
G1 X88.245 Y104.449 E1.21599
G0 F6000 X88.46 Y104.804
G1 F1200 X91.207 Y104.034 E1.31088
G1 X93.954 Y104.804 E1.40577
G1 X95.947 Y106.909 E1.50218
G1 X96.717 Y109.544 E1.59349
G1 X95.946 Y112.297 E1.68858
G1 X93.96 Y114.283 E1.78199
G1 X91.208 Y115.054 E1.87705
G1 X88.579 Y114.286 E1.96814
G1 X86.465 Y112.172 E2.06758
G1 X85.696 Y109.544 E2.15865
G1 X86.467 Y106.909 E2.24997
G1 X88.46 Y104.804 E2.34638
G0 F6000 X88.674 Y105.159
G1 F1200 X91.207 Y104.45 E2.43387
G1 X93.74 Y105.159 E2.52135
G1 X95.59 Y107.113 E2.61085
G1 X96.301 Y109.547 E2.69519
G1 X95.589 Y112.088 E2.78296
G1 X93.751 Y113.926 E2.86941
G1 X91.211 Y114.638 E2.95715
G1 X88.79 Y113.931 E3.04104
G1 X86.82 Y111.961 E3.1337
G1 X86.113 Y109.544 E3.21746
G1 X86.824 Y107.112 E3.30173
G1 X88.674 Y105.159 E3.3912
G0 F6000 X88.888 Y105.515
G1 F1200 X91.207 Y104.865 E3.47131
G1 X93.526 Y105.515 E3.55141
G1 X95.233 Y107.317 E3.63397
G1 X95.885 Y109.55 E3.71134
G1 X95.233 Y111.878 E3.79175
G1 X93.541 Y113.57 E3.87133
G1 X91.214 Y114.222 E3.95171
G1 X89 Y113.575 E4.02843
G1 X87.176 Y111.751 E4.11422
G1 X86.53 Y109.544 E4.19071
G1 X87.181 Y107.317 E4.26788
G1 X88.888 Y105.515 E4.35044
G0 F6000 X89.103 Y105.87
G1 F1200 X91.207 Y105.28 E4.42311
G1 X93.311 Y105.87 E4.49579
G1 X94.876 Y107.523 E4.5715
G1 X95.469 Y109.553 E4.64184
G1 X94.877 Y111.668 E4.71489
G1 X93.331 Y113.214 E4.78761
G1 X91.217 Y113.806 E4.86063
G1 X89.211 Y113.22 E4.93014
G1 X87.531 Y111.54 E5.00916
G1 X86.947 Y109.544 E5.07833
G1 X87.538 Y107.522 E5.1484
G1 X89.103 Y105.87 E5.22408
G0 F6000 X89.317 Y106.225
G1 F1200 X91.207 Y105.695 E5.28937
G1 X93.097 Y106.225 E5.35465
G1 X94.519 Y107.726 E5.42342
G1 X95.053 Y109.556 E5.48683
G1 X94.52 Y111.459 E5.55256
G1 X93.122 Y112.857 E5.61832
G1 X91.219 Y113.39 E5.68405
G1 X89.422 Y112.865 E5.74631
G1 X87.885 Y111.328 E5.81861
G1 X87.363 Y109.546 E5.88037
G1 X87.895 Y107.726 E5.94344
G1 X89.317 Y106.225 E6.0122
G0 F6000 X89.531 Y106.581
G1 F1200 X91.207 Y106.112 E6.07009
G1 X92.883 Y106.581 E6.12798
G1 X94.162 Y107.932 E6.18985
G1 X94.636 Y109.557 E6.24615
G1 X94.161 Y111.254 E6.30476
G1 X92.917 Y112.498 E6.36328
G1 X91.22 Y112.973 E6.42189
G1 X89.63 Y112.509 E6.47698
G1 X88.24 Y111.119 E6.54236
G1 X87.78 Y109.544 E6.59693
G1 X88.251 Y107.933 E6.65276
G1 X89.531 Y106.581 E6.71468
G0 F6000 X89.746 Y106.936
G1 F1200 X91.207 Y106.527 E6.76514
G1 X92.668 Y106.936 E6.81561
G1 X93.805 Y108.136 E6.87059
G1 X94.221 Y109.559 E6.9199
G1 X93.805 Y111.044 E6.97119
G1 X92.707 Y112.142 E7.02284
G1 X91.223 Y112.557 E7.07409
G1 X89.841 Y112.154 E7.12197
G1 X88.596 Y110.909 E7.18053
G1 X88.196 Y109.544 E7.22784
G1 X88.608 Y108.138 E7.27657
G1 X89.746 Y106.936 E7.33162
G0 F6000 X89.96 Y107.292
G1 F1200 X91.207 Y106.942 E7.3747
G1 X92.454 Y107.292 E7.41778
G1 X93.448 Y108.34 E7.46582
G1 X93.805 Y109.562 E7.50816
G1 X93.448 Y110.835 E7.55214
G1 X92.498 Y111.785 E7.59682
G1 X91.225 Y112.142 E7.6408
G1 X90.052 Y111.799 E7.68144
G1 X88.951 Y110.698 E7.73323
G1 X88.613 Y109.543 E7.77326
G1 X88.965 Y108.342 E7.81488
G1 X89.96 Y107.292 E7.863
G0 F6000 X90.175 Y107.646
G1 F1200 X91.207 Y107.357 E7.89864
G1 X92.239 Y107.646 E7.93429
G1 X93.091 Y108.546 E7.97551
G1 X93.389 Y109.565 E8.01082
G1 X93.091 Y110.626 E8.04747
G1 X92.289 Y111.428 E8.0852
G1 X91.228 Y111.726 E8.12185
G1 X90.263 Y111.444 E8.15529
G1 X89.306 Y110.487 E8.2003
G1 X89.03 Y109.544 E8.23298
G1 X89.322 Y108.547 E8.26754
G1 X90.175 Y107.646 E8.3088
G1 F1500 E1.8088
G0 F6000 X90.05 Y107.201
G0 X91.207 Y106.876
G0 X123.324 Y116.248
G1 F1500 E8.3088
G1 F1200 X123.88 Y114.345 E8.37474
G1 X125.318 Y112.829 E8.44424
G1 X127.303 Y112.272 E8.51281
G1 X129.288 Y112.829 E8.58138
G1 X130.726 Y114.345 E8.65088
G1 X131.28 Y116.246 E8.71674
G1 X130.723 Y118.235 E8.78544
G1 X129.29 Y119.668 E8.85284
G1 X127.301 Y120.225 E8.92154
G1 X125.4 Y119.669 E8.98742
G1 X123.882 Y118.151 E9.05882
G1 X123.324 Y116.248 E9.12478
G0 F6000 X123.741 Y116.247
G1 F1200 X124.237 Y114.549 E9.18362
G1 X125.532 Y113.184 E9.2462
G1 X127.303 Y112.687 E9.30738
G1 X129.074 Y113.184 E9.36856
G1 X130.369 Y114.549 E9.43114
G1 X130.864 Y116.248 E9.48999
G1 X130.366 Y118.026 E9.55141
G1 X129.081 Y119.311 E9.61185
G1 X127.304 Y119.809 E9.67323
G1 X125.611 Y119.314 E9.7319
G1 X124.237 Y117.94 E9.79653
G1 X123.741 Y116.247 E9.8552
G0 F6000 X124.158 Y116.246
G1 F1200 X124.594 Y114.755 E9.90687
G1 X125.747 Y113.539 E9.9626
G1 X127.303 Y113.103 E10.01635
G1 X128.859 Y113.539 E10.0701
G1 X130.012 Y114.755 E10.12583
G1 X130.448 Y116.251 E10.17766
G1 X130.009 Y117.817 E10.23175
G1 X128.872 Y118.954 E10.28523
G1 X127.307 Y119.393 E10.33929
G1 X125.821 Y118.958 E10.39079
G1 X124.592 Y117.729 E10.4486
G1 X124.158 Y116.246 E10.49999
G0 F6000 X124.575 Y116.246
G1 F1200 X124.951 Y114.959 E10.54459
G1 X125.961 Y113.895 E10.59338
G1 X127.303 Y113.518 E10.63975
G1 X128.645 Y113.895 E10.68611
G1 X129.655 Y114.959 E10.7349
G1 X130.032 Y116.254 E10.77976
G1 X129.653 Y117.607 E10.8265
G1 X128.662 Y118.598 E10.87311
G1 X127.31 Y118.977 E10.91981
G1 X126.032 Y118.603 E10.9641
G1 X124.948 Y117.519 E11.01509
G1 X124.575 Y116.246 E11.05921
G0 F6000 X124.991 Y116.248
G1 F1200 X125.308 Y115.165 E11.09674
G1 X126.176 Y114.25 E11.13869
G1 X127.303 Y113.933 E11.17763
G1 X128.43 Y114.25 E11.21657
G1 X129.298 Y115.165 E11.25851
G1 X129.616 Y116.256 E11.29631
G1 X129.296 Y117.398 E11.33576
G1 X128.453 Y118.241 E11.37541
G1 X127.312 Y118.561 E11.41482
G1 X126.243 Y118.248 E11.45187
G1 X125.301 Y117.306 E11.49618
G1 X124.991 Y116.248 E11.53285
G0 F6000 X125.408 Y116.248
G1 F1200 X125.665 Y115.369 E11.56331
G1 X126.39 Y114.605 E11.59834
G1 X127.303 Y114.349 E11.62988
G1 X128.216 Y114.605 E11.66141
G1 X128.941 Y115.369 E11.69645
G1 X129.2 Y116.259 E11.72727
G1 X128.94 Y117.188 E11.75936
G1 X128.243 Y117.885 E11.79215
G1 X127.315 Y118.145 E11.8242
G1 X126.454 Y117.893 E11.85404
G1 X125.657 Y117.096 E11.89153
G1 X125.408 Y116.248 E11.92092
G0 F6000 X125.825 Y116.248
G1 F1200 X126.022 Y115.573 E11.94431
G1 X126.604 Y114.96 E11.97242
G1 X127.303 Y114.764 E11.99657
G1 X128.002 Y114.96 E12.02071
G1 X128.584 Y115.574 E12.04885
G1 X128.784 Y116.259 E12.07259
G1 X128.581 Y116.983 E12.0976
G1 X128.038 Y117.526 E12.12314
G1 X127.316 Y117.728 E12.14807
G1 X126.662 Y117.537 E12.17073
G1 X126.013 Y116.888 E12.20126
G1 X125.825 Y116.248 E12.22345
G0 F6000 X126.242 Y116.247
G1 F1200 X126.379 Y115.779 E12.23967
G1 X126.819 Y115.315 E12.26093
G1 X127.303 Y115.179 E12.27765
G1 X127.787 Y115.315 E12.29438
G1 X128.228 Y115.779 E12.31567
G1 X128.368 Y116.262 E12.33239
G1 X128.225 Y116.773 E12.35004
G1 X127.828 Y117.17 E12.36872
G1 X127.319 Y117.312 E12.38629
G1 X126.873 Y117.182 E12.40174
G1 X126.368 Y116.677 E12.4255
G1 X126.242 Y116.247 E12.4404
G0 F6000 X126.659 Y116.247
G1 F1200 X126.735 Y115.985 E12.44947
G1 X127.032 Y115.672 E12.46382
G1 X127.303 Y115.596 E12.47319
G1 X127.574 Y115.672 E12.48255
G1 X127.871 Y115.985 E12.4969
G1 X127.952 Y116.264 E12.50656
G1 X127.868 Y116.564 E12.51692
G1 X127.619 Y116.813 E12.52863
G1 X127.32 Y116.897 E12.53896
G1 X127.085 Y116.828 E12.54711
G1 X126.723 Y116.466 E12.56414
G1 X126.659 Y116.247 E12.57173
G0 F6000 X127.076 Y116.247
G1 F1200 X127.093 Y116.189 E12.57374
G1 X127.246 Y116.027 E12.58115
G1 X127.303 Y116.011 E12.58312
G1 X127.36 Y116.027 E12.58509
G1 X127.514 Y116.189 E12.59252
G1 X127.536 Y116.266 E12.59518
G1 X127.511 Y116.355 E12.59826
G1 X127.41 Y116.456 E12.60301
G1 X127.323 Y116.481 E12.60602
G1 X127.296 Y116.473 E12.60696
G1 X127.078 Y116.255 E12.61721
G1 X127.076 Y116.247 E12.61749
G1 F1500 E6.11749
G0 F6000 X152.229 Y83.137
G1 F1500 E12.61749
G1 F1200 X150.906 Y81.814 E12.67972
G1 X150.42 Y80.156 E12.73718
G1 X150.904 Y78.498 E12.79463
G1 X152.158 Y77.177 E12.85521
G1 X153.887 Y76.692 E12.91493
G1 X155.616 Y77.177 E12.97466
G1 X156.87 Y78.498 E13.03524
G1 X157.352 Y80.154 E13.09261
G1 X156.867 Y81.887 E13.15246
G1 X155.618 Y83.136 E13.21121
G1 X153.885 Y83.621 E13.27106
G1 X152.229 Y83.137 E13.32845
G0 F6000 X152.44 Y82.782
G1 F1200 X151.261 Y81.603 E13.3839
G1 X150.837 Y80.155 E13.43409
G1 X151.261 Y78.702 E13.48443
G1 X152.372 Y77.533 E13.53807
G1 X153.887 Y77.107 E13.59041
G1 X155.402 Y77.533 E13.64276
G1 X156.512 Y78.702 E13.69637
G1 X156.936 Y80.156 E13.74675
G1 X156.51 Y81.678 E13.79931
G1 X155.409 Y82.779 E13.8511
G1 X153.888 Y83.205 E13.90364
G1 X152.44 Y82.782 E13.95381
G0 F6000 X152.651 Y82.427
G1 F1200 X151.616 Y81.392 E14.00249
G1 X151.254 Y80.154 E14.04539
G1 X151.618 Y78.907 E14.0886
G1 X152.585 Y77.888 E14.13532
G1 X153.887 Y77.523 E14.1803
G1 X155.189 Y77.888 E14.22527
G1 X156.156 Y78.907 E14.272
G1 X156.52 Y80.159 E14.31536
G1 X156.153 Y81.469 E14.36061
G1 X155.2 Y82.422 E14.40544
G1 X153.891 Y82.789 E14.45065
G1 X152.651 Y82.427 E14.49362
G0 F6000 X152.862 Y82.072
G1 F1200 X151.971 Y81.181 E14.53553
G1 X151.671 Y80.154 E14.57111
G1 X151.975 Y79.112 E14.60721
G1 X152.8 Y78.243 E14.64707
G1 X153.887 Y77.938 E14.68462
G1 X154.974 Y78.243 E14.72217
G1 X155.799 Y79.112 E14.76202
G1 X156.104 Y80.161 E14.79836
G1 X155.797 Y81.259 E14.83628
G1 X154.99 Y82.066 E14.87424
G1 X153.894 Y82.373 E14.91209
G1 X152.862 Y82.072 E14.94785
G0 F6000 X153.072 Y81.716
G1 F1200 X152.325 Y80.969 E14.98298
G1 X152.087 Y80.156 E15.01116
G1 X152.332 Y79.318 E15.0402
G1 X153.016 Y78.598 E15.07323
G1 X153.887 Y78.353 E15.10332
G1 X154.758 Y78.598 E15.13342
G1 X155.442 Y79.318 E15.16645
G1 X155.688 Y80.164 E15.19575
G1 X155.441 Y81.049 E15.22631
G1 X154.78 Y81.71 E15.2574
G1 X153.897 Y81.957 E15.2879
G1 X153.072 Y81.716 E15.31648
G0 F6000 X153.283 Y81.361
G1 F1200 X152.68 Y80.758 E15.34485
G1 X152.504 Y80.156 E15.36571
G1 X152.688 Y79.524 E15.3876
G1 X153.231 Y78.953 E15.41381
G1 X153.887 Y78.769 E15.43647
G1 X154.543 Y78.953 E15.45913
G1 X155.086 Y79.524 E15.48534
G1 X155.272 Y80.165 E15.50754
G1 X155.083 Y80.841 E15.53088
G1 X154.572 Y81.352 E15.55492
G1 X153.898 Y81.54 E15.57819
G1 X153.283 Y81.361 E15.5995
G0 F6000 X153.491 Y81.005
G1 F1200 X153.037 Y80.551 E15.62085
G1 X152.921 Y80.155 E15.63457
G1 X153.045 Y79.729 E15.64933
G1 X153.444 Y79.308 E15.66862
G1 X153.887 Y79.184 E15.68392
G1 X154.33 Y79.308 E15.69922
G1 X154.728 Y79.728 E15.71847
G1 X154.856 Y80.167 E15.73368
G1 X154.725 Y80.635 E15.74984
G1 X154.366 Y80.994 E15.76673
G1 X153.9 Y81.125 E15.78283
G1 X153.491 Y81.005 E15.79701
G0 F6000 X153.702 Y80.65
G1 F1200 X153.392 Y80.34 E15.81159
G1 X153.338 Y80.155 E15.818
G1 X153.403 Y79.932 E15.82572
G1 X153.657 Y79.665 E15.83798
G1 X153.887 Y79.6 E15.84593
G1 X154.117 Y79.665 E15.85388
G1 X154.372 Y79.933 E15.86618
G1 X154.44 Y80.169 E15.87435
G1 X154.369 Y80.425 E15.88319
G1 X154.156 Y80.638 E15.89321
G1 X153.903 Y80.709 E15.90195
G1 X153.702 Y80.65 E15.90891
G0 F6000 X153.909 Y80.291
G1 F1200 X153.759 Y80.141 E15.91597
G1 X153.872 Y80.02 E15.92148
G1 X153.887 Y80.016 E15.92199
G1 X153.902 Y80.02 E15.92251
G1 X154.014 Y80.137 E15.9279
G1 X154.024 Y80.173 E15.92914
G1 X154.012 Y80.216 E15.93062
G1 X153.947 Y80.281 E15.93368
G1 X153.909 Y80.291 E15.93499
G1 F1500 E9.43499
G0 F6000 X93.565 Y108.512
G0 X92.733 Y108.755
;TYPE:SUPPORT
G1 F1500 E15.93499
G1 F1200 X92.971 Y109.562 E15.96297
G1 X92.733 Y110.415 E15.99243
G1 X92.079 Y111.069 E16.02319
G1 X91.226 Y111.308 E16.05265
G1 X90.474 Y111.086 E16.07873
G1 X89.658 Y110.274 E16.11702
G1 X89.445 Y109.544 E16.14231
G1 X89.675 Y108.755 E16.16965
G1 X90.388 Y108.002 E16.20414
G1 X91.204 Y107.772 E16.23233
G1 X92.02 Y108.002 E16.26053
G1 X92.733 Y108.755 E16.29502
G1 F1500 E9.79502
;MESH:Track Segment Top-Back (Needs Support).stl
G0 F6000 X93.363 Y108.157
G0 X92.487 Y107.236
G0 X65.48 Y95.599
G0 X64.624 Y94.257
;TYPE:WALL-INNER
G1 F1500 E16.29502
G1 F1200 X64.944 Y93.377 E16.32617
G1 X65.69 Y91.605 E16.39011
G1 X66.518 Y89.873 E16.45396
G1 X67.411 Y88.202 E16.51698
G1 X68.378 Y86.57 E16.58007
G1 X69.434 Y84.967 E16.64392
G1 X70.538 Y83.446 E16.70643
G1 X71.752 Y81.92 E16.77129
G1 X72.995 Y80.5 E16.83405
G1 X74.302 Y79.141 E16.89677
G1 X75.702 Y77.81 E16.96102
G1 X77.14 Y76.564 E17.0243
G1 X78.654 Y75.372 E17.08839
G1 X80.184 Y74.275 E17.15101
G1 X81.791 Y73.231 E17.21475
G1 X83.452 Y72.252 E17.27887
G1 X85.141 Y71.364 E17.34234
G1 X86.854 Y70.561 E17.40526
G1 X88.628 Y69.827 E17.46912
G1 X90.449 Y69.171 E17.5335
G1 X92.223 Y68.619 E17.59529
G1 X94.108 Y68.124 E17.66011
G1 X95.981 Y67.732 E17.72376
G1 X97.817 Y67.428 E17.78565
G1 X99.724 Y67.201 E17.84953
G1 X101.661 Y67.06 E17.91412
G1 X103.516 Y67.016 E17.97584
G1 X105.44 Y67.053 E18.03984
G1 X107.338 Y67.179 E18.10311
G1 X109.25 Y67.391 E18.16709
G1 X111.121 Y67.688 E18.2301
G1 X112.984 Y68.07 E18.29335
G1 X114.815 Y68.533 E18.35617
G1 X116.641 Y69.089 E18.41966
G1 X119.237 Y69.93 E18.51042
G1 X121.998 Y70.737 E18.60609
G1 X124.455 Y71.377 E18.69054
G1 X127.122 Y71.989 E18.78155
G1 X129.822 Y72.522 E18.87308
G1 X132.407 Y72.958 E18.96028
G1 X135.149 Y73.336 E19.05234
G1 X137.92 Y73.634 E19.14503
G1 X140.602 Y73.84 E19.2345
G1 X143.332 Y73.972 E19.3254
G1 X145.983 Y74.016 E19.41359
G1 X150.444 Y74.016 E19.56196
G1 X159.736 Y73.041 E19.87271
G1 X159.305 Y68.942 E20.0098
G1 X159.143 Y68.811 E20.01673
G1 X150.191 Y69.748 E20.3161
G1 X145.481 Y69.744 E20.47275
G1 X142.908 Y69.68 E20.55836
G1 X140.167 Y69.534 E20.64965
G1 X137.584 Y69.309 E20.73589
G1 X134.997 Y69.014 E20.82249
G1 X132.403 Y68.635 E20.90968
G1 X129.83 Y68.18 E20.99659
G1 X127.276 Y67.652 E21.08333
G1 X124.743 Y67.048 E21.16994
G1 X122.214 Y66.363 E21.25709
G1 X119.723 Y65.611 E21.34363
G1 X116.665 Y64.624 E21.45051
G1 X114.743 Y64.103 E21.51674
G1 X112.788 Y63.661 E21.58341
G1 X110.736 Y63.291 E21.65276
G1 X110.537 Y63.271 E21.65941
G1 X108.871 Y63.041 E21.71535
G1 X106.838 Y62.855 E21.78325
G1 X104.82 Y62.76 E21.85044
G1 X102.832 Y62.753 E21.91656
G1 X100.818 Y62.835 E21.9836
G1 X98.784 Y63.005 E22.05149
G1 X96.842 Y63.258 E22.11663
G1 X94.859 Y63.602 E22.18357
G1 X92.913 Y64.024 E22.2498
G1 X90.971 Y64.537 E22.3166
G1 X89.052 Y65.137 E22.38348
G1 X87.18 Y65.812 E22.44966
G1 X85.312 Y66.578 E22.51681
G1 X83.551 Y67.391 E22.58132
G1 X81.711 Y68.34 E22.65018
G1 X79.974 Y69.334 E22.71675
G1 X78.281 Y70.408 E22.78343
G1 X76.65 Y71.545 E22.84956
G1 X75.055 Y72.762 E22.91629
G1 X73.507 Y74.053 E22.98333
G1 X72.022 Y75.403 E23.05008
G1 X70.601 Y76.816 E23.11673
G1 X69.247 Y78.289 E23.18328
G1 X67.964 Y79.813 E23.24954
G1 X66.732 Y81.409 E23.3166
G1 X65.579 Y83.047 E23.38322
G1 X64.505 Y84.721 E23.44937
G1 X63.47 Y86.502 E23.51788
G1 X62.574 Y88.215 E23.58218
G1 X61.709 Y90.055 E23.6498
G1 X60.941 Y91.901 E23.7163
G1 X60.598 Y92.836 E23.74943
G1 X60.858 Y92.587 E23.7614
G1 X61.355 Y92.308 E23.78036
G1 X61.885 Y92.145 E23.7988
