;FLAVOR:Marlin
;TIME:11399
;Filament used: 5.23447m
;Layer height: 0.2
;MINX:70.95
;MINY:70.782
;MINZ:0.2
;MAXX:149.072
;MAXY:150.306
;MAXZ:107.2
;TARGET_MACHINE.NAME:Creality Ender-3 Pro
;Generated with Cura_SteamEngine 5.7.2
M104 S200
M105
M109 S200
M82 ;absolute extrusion mode
; Ender 3 Custom Start G-code
G92 E0 ; Reset Extruder
G28 ; Home all axes
G29 ; Bed Auto Leveling
G1 Z5.0 F3000 ; Move Z Axis up a bit during heating to not damage bed
M104 S175 ; Start heating up the nozzle most of the way
M190 S60 ; Start heating the bed, wait until target temperature reached
M109 S200.0 ; Finish heating the nozzle
G1 Z2.0 F3000 ; Move Z Axis up little to prevent scratching of Heat Bed
G1 X0.1 Y20 Z0.3 F5000.0 ; Move to start position
G1 X0.1 Y200.0 Z0.3 F1500.0 E15 ; Draw the first line
G1 X0.4 Y200.0 Z0.3 F5000.0 ; Move to side a little
G1 X0.4 Y20 Z0.3 F1500.0 E30 ; Draw the second line
G92 E0 ; Reset Extruder
G1 Z2.0 F3000 ; Move Z Axis up little to prevent scratching of Heat Bed
G1 X5 Y20 Z0.3 F5000.0 ; Move over to prevent blob squish
G92 E0
G92 E0
G1 F1500 E-6.5
;LAYER_COUNT:536
;LAYER:0
M107
G0 F6000 X107.533 Y83.085 Z0.2
;TYPE:SKIRT
G1 F1500 E0
G1 F1200 X107.676 Y82.936 E0.00687
G1 X107.865 Y82.882 E0.01341
G1 X108.054 Y82.936 E0.01994
G1 X108.197 Y83.085 E0.02681
G1 X108.248 Y83.266 E0.03307
G1 X108.196 Y83.457 E0.03965
G1 X108.056 Y83.597 E0.04624
G1 X107.865 Y83.65 E0.05283
G1 X107.686 Y83.597 E0.05904
G1 X107.534 Y83.445 E0.06619
G1 X107.481 Y83.265 E0.07243
G1 X107.533 Y83.085 E0.07866
G1 F1500 E-6.42134
G0 F6000 X109.053 Y83.68
G1 F1500 E0.07866
G1 F1200 X109.299 Y83.422 E0.09052
G1 X109.627 Y83.329 E0.10186
G1 X109.955 Y83.422 E0.1132
G1 X110.2 Y83.679 E0.12501
G1 X110.232 Y83.791 E0.12888
G1 X110.302 Y83.895 E0.13305
G1 X110.478 Y83.929 E0.13901
G1 X111.09 Y83.758 E0.16015
G1 X111.769 Y83.949 E0.18361
G1 X112.267 Y84.472 E0.20763
G1 X112.454 Y85.119 E0.23003
G1 X112.341 Y85.521 E0.24391
G1 X112.347 Y85.646 E0.24808
G1 X112.396 Y85.72 E0.25103
G1 X112.54 Y85.857 E0.25764
G1 X112.653 Y85.91 E0.26179
G1 X112.74 Y85.902 E0.2647
G1 X112.747 Y85.9 E0.26494
G1 X113.794 Y86.161 E0.30083
G1 X114.54 Y86.947 E0.33687
G1 X114.806 Y87.952 E0.37145
G1 X114.472 Y89.033 E0.40908
G1 X113.585 Y89.909 E0.45054
G1 X112.55 Y90.199 E0.48629
G1 X111.567 Y89.911 E0.52036
G1 X110.823 Y89.167 E0.55536
G1 X110.712 Y89.111 E0.55949
G1 X110.584 Y89.135 E0.56382
G1 X110.367 Y89.257 E0.5721
G1 X110.283 Y89.349 E0.57625
G1 X110.27 Y89.477 E0.58053
G1 X110.329 Y89.73 E0.58917
G1 X110.331 Y89.896 E0.59469
G1 X110.23 Y90.288 E0.60815
G1 X109.99 Y90.544 E0.61982
G1 X109.664 Y90.639 E0.63112
G1 X109.547 Y90.602 E0.6352
G1 X109.422 Y90.604 E0.63936
G1 X109.346 Y90.652 E0.64235
G1 X109.323 Y90.675 E0.64343
G1 X109.06 Y90.747 E0.6525
G1 X108.665 Y90.631 E0.66619
G1 X108.541 Y90.635 E0.67032
G1 X108.468 Y90.681 E0.67319
G1 X108.413 Y90.736 E0.67577
G1 X108.219 Y90.79 E0.68247
G1 X108.041 Y90.737 E0.68865
G1 X107.889 Y90.585 E0.6958
G1 X107.836 Y90.405 E0.70204
G1 X107.889 Y90.223 E0.70834
G1 X108.029 Y90.075 E0.71512
G1 X108.083 Y89.962 E0.71929
G1 X108.026 Y89.797 E0.72509
G1 X107.888 Y89.659 E0.73158
G1 X107.836 Y89.481 E0.73775
G1 X107.888 Y89.301 E0.74398
G1 X108.031 Y89.152 E0.75085
G1 X108.22 Y89.098 E0.75739
G1 X108.411 Y89.152 E0.76399
G1 X108.695 Y89.449 E0.77766
G1 X108.805 Y89.508 E0.78181
G1 X108.928 Y89.49 E0.78594
G1 X108.995 Y89.436 E0.78881
G1 X109.342 Y89.004 E0.80724
G1 X109.674 Y88.891 E0.8189
G1 X109.694 Y88.906 E0.81973
G1 X109.983 Y89 E0.82984
G1 X110.11 Y89.158 E0.83658
G1 X110.215 Y89.225 E0.84073
G1 X110.359 Y89.209 E0.84554
G1 X110.598 Y89.083 E0.85453
G1 X110.685 Y88.993 E0.85869
G1 X110.697 Y88.85 E0.86347
G1 X110.524 Y88.256 E0.88404
G1 X110.453 Y88.153 E0.8882
G1 X110.278 Y88.119 E0.89413
G1 X109.81 Y88.25 E0.9103
G1 X109.778 Y88.228 E0.91159
G1 X109.451 Y88.132 E0.92292
G1 X109.139 Y87.82 E0.9376
G1 X109.027 Y87.438 E0.95084
G1 X109.103 Y87.179 E0.95982
G1 X109.099 Y87.055 E0.96394
G1 X109.013 Y86.951 E0.96843
G1 X108.793 Y86.821 E0.97693
G1 X108.671 Y86.794 E0.98109
G1 X108.55 Y86.851 E0.98554
G1 X108.41 Y86.99 E0.9921
G1 X108.22 Y87.043 E0.99866
G1 X108.041 Y86.99 E1.00487
G1 X107.889 Y86.838 E1.01202
G1 X107.836 Y86.657 E1.01829
G1 X107.887 Y86.479 E1.02445
G1 X108.029 Y86.33 E1.0313
G1 X108.082 Y86.217 E1.03545
G1 X108.026 Y86.051 E1.04127
G1 X107.889 Y85.913 E1.04774
G1 X107.836 Y85.733 E1.05398
G1 X107.888 Y85.553 E1.06021
G1 X108.031 Y85.404 E1.06708
G1 X108.219 Y85.351 E1.07358
G1 X108.503 Y85.43 E1.08338
G1 X108.628 Y85.424 E1.08755
G1 X108.703 Y85.374 E1.09054
G1 X108.805 Y85.265 E1.09551
G1 X109.406 Y85.067 E1.11656
G1 X109.506 Y84.993 E1.12069
G1 X109.543 Y84.873 E1.12487
G1 X109.485 Y84.736 E1.12982
G1 X109.055 Y84.305 E1.15007
G1 X108.963 Y83.992 E1.16092
G1 X109.053 Y83.68 E1.17172
G0 F6000 X109.41 Y83.886
G1 F1200 X109.514 Y83.777 E1.17673
G1 X109.627 Y83.745 E1.18064
G1 X109.74 Y83.777 E1.18454
G1 X109.842 Y83.884 E1.18946
G1 X109.847 Y83.902 E1.19008
G1 X109.945 Y84.097 E1.19734
G1 X110.106 Y84.245 E1.20461
G1 X110.308 Y84.325 E1.21184
G1 X110.585 Y84.314 E1.22106
G1 X111.089 Y84.173 E1.23847
G1 X111.554 Y84.304 E1.25453
G1 X111.91 Y84.678 E1.27171
G1 X112.038 Y85.12 E1.28701
G1 X111.956 Y85.413 E1.29713
G1 X111.937 Y85.63 E1.30438
G1 X111.996 Y85.84 E1.31163
G1 X112.12 Y86.01 E1.31863
G1 X112.264 Y86.147 E1.32524
G1 X112.447 Y86.266 E1.3325
G1 X112.66 Y86.312 E1.33975
G1 X112.715 Y86.304 E1.3416
G1 X113.584 Y86.521 E1.37139
G1 X114.179 Y87.147 E1.40011
G1 X114.39 Y87.944 E1.42754
G1 X114.12 Y88.818 E1.45796
G1 X113.377 Y89.552 E1.4927
G1 X112.553 Y89.783 E1.52116
G1 X111.778 Y89.555 E1.54803
G1 X111.106 Y88.884 E1.57961
G1 X111.081 Y88.738 E1.58454
G1 X110.908 Y88.144 E1.60512
G1 X110.81 Y87.949 E1.61238
G1 X110.649 Y87.802 E1.61963
G1 X110.446 Y87.723 E1.62687
G1 X110.171 Y87.734 E1.63603
G1 X109.835 Y87.828 E1.64763
G1 X109.662 Y87.777 E1.65363
G1 X109.494 Y87.609 E1.66153
G1 X109.444 Y87.438 E1.66746
G1 X109.487 Y87.292 E1.67252
G1 X109.509 Y87.075 E1.67978
G1 X109.453 Y86.865 E1.687
G1 X109.324 Y86.688 E1.69429
G1 X109.216 Y86.606 E1.6988
G1 X108.996 Y86.476 E1.7073
G1 X108.791 Y86.401 E1.71456
G1 X108.573 Y86.405 E1.72181
G1 X108.406 Y86.472 E1.72779
G1 X108.438 Y86.423 E1.72974
G1 X108.484 Y86.209 E1.73702
G1 X108.45 Y85.994 E1.74426
G1 X108.326 Y85.795 E1.75206
G1 X108.396 Y85.815 E1.75448
G1 X108.613 Y85.834 E1.76173
G1 X108.823 Y85.775 E1.76898
G1 X108.995 Y85.648 E1.77609
G1 X109.028 Y85.613 E1.77769
G1 X109.531 Y85.447 E1.79531
G1 X109.722 Y85.342 E1.80256
G1 X109.863 Y85.176 E1.8098
G1 X109.936 Y84.97 E1.81707
G1 X109.93 Y84.752 E1.82433
G1 X109.846 Y84.55 E1.8316
G1 X109.768 Y84.453 E1.83574
G1 X109.409 Y84.093 E1.85265
G1 X109.379 Y83.991 E1.85619
G1 X109.41 Y83.886 E1.85983
G0 F6000 X110.33 Y84.724
G1 F1200 X110.548 Y84.728 E1.86708
G1 X110.693 Y84.699 E1.872
G1 X111.088 Y84.589 E1.88564
G1 X111.342 Y84.66 E1.89441
G1 X111.551 Y84.88 E1.9045
G1 X111.622 Y85.124 E1.91295
G1 X111.571 Y85.305 E1.91921
G1 X111.534 Y85.584 E1.92857
G1 X111.576 Y85.863 E1.93795
G1 X111.695 Y86.119 E1.94734
G1 X111.845 Y86.299 E1.95514
G1 X111.989 Y86.436 E1.96175
G1 X112.219 Y86.6 E1.97114
G1 X112.485 Y86.693 E1.98051
G1 X112.658 Y86.702 E1.98628
G1 X113.374 Y86.88 E2.01082
G1 X113.818 Y87.348 E2.03227
G1 X113.974 Y87.936 E2.05251
G1 X113.767 Y88.603 E2.07573
G1 X113.168 Y89.195 E2.10374
G1 X112.556 Y89.366 E2.12488
G1 X111.989 Y89.2 E2.14453
G1 X111.475 Y88.687 E2.16868
G1 X111.465 Y88.626 E2.17074
G1 X111.292 Y88.032 E2.19132
G1 X111.176 Y87.775 E2.20069
G1 X110.992 Y87.561 E2.21008
G1 X110.756 Y87.406 E2.21947
G1 X110.486 Y87.324 E2.22886
G1 X110.204 Y87.32 E2.23824
G1 X110.063 Y87.349 E2.24303
G1 X109.87 Y87.403 E2.24969
G1 X109.911 Y87.126 E2.25901
G1 X109.872 Y86.847 E2.26837
G1 X109.757 Y86.589 E2.27777
G1 X109.574 Y86.374 E2.28716
G1 X109.42 Y86.262 E2.29349
G1 X109.2 Y86.132 E2.30199
G1 X109.084 Y86.084 E2.30617
G1 X109.103 Y86.075 E2.30687
G1 X109.231 Y85.967 E2.31244
G1 X109.656 Y85.827 E2.32732
G1 X109.909 Y85.701 E2.33672
G1 X110.117 Y85.511 E2.34609
G1 X110.263 Y85.269 E2.35549
G1 X110.336 Y84.997 E2.36486
G1 X110.33 Y84.724 E2.37394
G0 F6000 X110.715 Y85.102
G1 F1200 X110.801 Y85.084 E2.37686
G1 X111.088 Y85.004 E2.38677
G1 X111.128 Y85.015 E2.38815
G1 X111.195 Y85.086 E2.3914
G1 X111.206 Y85.125 E2.39275
G1 X111.186 Y85.197 E2.39523
G1 X111.135 Y85.527 E2.40634
G1 X111.163 Y85.86 E2.41745
G1 X111.27 Y86.176 E2.42855
G1 X111.448 Y86.459 E2.43967
G1 X111.569 Y86.589 E2.44558
G1 X111.713 Y86.726 E2.45219
G1 X111.981 Y86.926 E2.46331
G1 X112.288 Y87.057 E2.47441
G1 X112.618 Y87.111 E2.48553
G1 X112.639 Y87.109 E2.48623
G1 X113.165 Y87.24 E2.50426
G1 X113.459 Y87.55 E2.51847
G1 X113.558 Y87.927 E2.53144
G1 X113.415 Y88.39 E2.54756
G1 X112.962 Y88.838 E2.56875
G1 X112.557 Y88.951 E2.58273
G1 X112.199 Y88.846 E2.59514
G1 X111.841 Y88.488 E2.61198
G1 X111.676 Y87.921 E2.63162
G1 X111.545 Y87.613 E2.64275
G1 X111.345 Y87.346 E2.65385
G1 X111.087 Y87.133 E2.66497
G1 X110.787 Y86.988 E2.67606
G1 X110.46 Y86.918 E2.68718
G1 X110.29 Y86.923 E2.69284
G1 X110.285 Y86.856 E2.69507
G1 X110.183 Y86.538 E2.70618
G1 X110.008 Y86.253 E2.7173
G1 X109.904 Y86.15 E2.72217
G1 X110.084 Y86.065 E2.72879
G1 X110.344 Y85.856 E2.73989
G1 X110.548 Y85.59 E2.75104
G1 X110.682 Y85.285 E2.76212
G1 X110.715 Y85.102 E2.7683
G0 F6000 X110.782 Y85.951
G1 F1200 X110.849 Y86.208 E2.77713
G1 X111.019 Y86.546 E2.78972
G1 X111.164 Y86.722 E2.7973
G1 X111.105 Y86.686 E2.7996
G1 X110.747 Y86.561 E2.81221
G1 X110.612 Y86.543 E2.81674
G1 X110.604 Y86.512 E2.81781
G1 X110.482 Y86.261 E2.82709
G1 X110.557 Y86.206 E2.83018
G1 X110.782 Y85.951 E2.84149
G1 F1500 E-3.65851
G0 F6000 X111.79 Y87.272
G1 F1500 E2.84149
G1 F1200 X112.08 Y87.41 E2.85218
G1 X112.449 Y87.497 E2.86479
G1 X112.546 Y87.499 E2.86801
G1 X112.955 Y87.601 E2.88203
G1 X113.098 Y87.751 E2.88893
G1 X113.142 Y87.917 E2.89464
G1 X113.062 Y88.176 E2.90365
G1 X112.753 Y88.481 E2.91809
G1 X112.561 Y88.535 E2.92473
G1 X112.41 Y88.49 E2.92997
G1 X112.196 Y88.277 E2.94001
G1 X112.06 Y87.809 E2.95622
G1 X111.917 Y87.458 E2.96883
G1 X111.79 Y87.272 E2.97632
G0 F6000 X112.503 Y87.901
G1 F1200 X112.712 Y87.953 E2.98348
G1 X112.709 Y87.963 E2.98383
G1 X112.578 Y88.093 E2.98997
G1 X112.551 Y88.066 E2.99124
G1 X112.503 Y87.901 E2.99695
G1 F1500 E-3.50305
G0 F6000 X109.867 Y89.467
G1 F1500 E2.99695
G1 F1200 X109.881 Y89.568 E3.00034
G1 X109.93 Y89.775 E3.00742
G1 X109.93 Y89.849 E3.00988
G1 X109.868 Y90.089 E3.01812
G1 X109.774 Y90.19 E3.02271
G1 X109.667 Y90.221 E3.02642
G1 X109.45 Y90.194 E3.03369
G1 X109.239 Y90.247 E3.04093
G1 X109.154 Y90.306 E3.04437
G1 X109.063 Y90.331 E3.04751
G1 X108.778 Y90.247 E3.05739
G1 X108.561 Y90.225 E3.06464
G1 X108.367 Y90.278 E3.07133
G1 X108.439 Y90.167 E3.07573
G1 X108.484 Y89.954 E3.08297
G1 X108.454 Y89.76 E3.0895
G1 X108.583 Y89.854 E3.09481
G1 X108.794 Y89.909 E3.10206
G1 X109.011 Y89.886 E3.10932
G1 X109.205 Y89.786 E3.11658
G1 X109.307 Y89.686 E3.12133
G1 X109.58 Y89.345 E3.13586
G1 X109.664 Y89.317 E3.13881
G1 X109.746 Y89.344 E3.14168
G1 X109.799 Y89.409 E3.14447
G1 X109.867 Y89.467 E3.14744
G1 F1500 E-3.35256
G0 F6000 X110.766 Y91.441
G1 F1500 E3.14744
G1 F1200 X111.518 Y91.23 E3.17342
G1 X112.27 Y91.441 E3.1994
G1 X112.948 Y92.152 E3.23207
G1 X113.205 Y92.925 E3.25917
G1 X113.019 Y93.693 E3.28545
G1 X112.478 Y94.234 E3.31089
G1 X111.71 Y94.42 E3.33718
G1 X111.165 Y94.24 E3.35627
G1 X111.04 Y94.24 E3.36042
G1 X110.939 Y94.314 E3.36459
G1 X110.91 Y94.376 E3.36687
G1 X110.842 Y94.616 E3.37516
G1 X110.5 Y94.958 E3.39125
G1 X110.028 Y95.09 E3.40755
G1 X109.582 Y94.959 E3.42301
G1 X109.216 Y94.593 E3.44023
G1 X109.104 Y94.209 E3.45353
G1 X109.033 Y94.106 E3.45769
G1 X108.859 Y94.072 E3.46359
G1 X108.62 Y94.138 E3.47183
G1 X108.441 Y94.085 E3.47804
G1 X108.217 Y93.861 E3.48858
G1 X108.106 Y93.804 E3.49273
G1 X108.015 Y93.812 E3.49577
G1 X107.808 Y93.878 E3.50299
G1 X107.601 Y93.834 E3.51003
G1 X107.446 Y93.693 E3.517
G1 X107.401 Y93.516 E3.52308
G1 X107.476 Y93.32 E3.53006
G1 X107.681 Y93.121 E3.53956
G1 X107.879 Y93.001 E3.54726
G1 X108.173 Y92.897 E3.55763
G1 X108.503 Y92.942 E3.56871
G1 X108.626 Y92.92 E3.57287
G1 X108.678 Y92.878 E3.57509
G1 X108.96 Y92.568 E3.58903
G1 X109.334 Y92.429 E3.6023
G1 X109.874 Y92.547 E3.62068
G1 X109.999 Y92.535 E3.62486
G1 X110.109 Y92.408 E3.63045
G1 X110.225 Y92.013 E3.64414
G1 X110.766 Y91.441 E3.67033
G0 F6000 X110.981 Y91.796
G1 F1200 X111.518 Y91.645 E3.68888
G1 X112.057 Y91.797 E3.70751
G1 X112.598 Y92.363 E3.73355
G1 X112.79 Y92.941 E3.7538
G1 X112.657 Y93.489 E3.77256
G1 X112.274 Y93.872 E3.79057
G1 X111.727 Y94.004 E3.80929
G1 X111.291 Y93.86 E3.82456
G1 X111.074 Y93.831 E3.83184
G1 X110.862 Y93.88 E3.83908
G1 X110.681 Y94.002 E3.84634
G1 X110.525 Y94.267 E3.85657
G1 X110.486 Y94.406 E3.86137
G1 X110.291 Y94.601 E3.87054
G1 X110.031 Y94.674 E3.87952
G1 X109.793 Y94.604 E3.88778
G1 X109.571 Y94.382 E3.89822
G1 X109.488 Y94.097 E3.90809
G1 X109.39 Y93.902 E3.91535
G1 X109.229 Y93.755 E3.9226
G1 X109.025 Y93.676 E3.92988
G1 X108.752 Y93.687 E3.93896
G1 X108.64 Y93.718 E3.94283
G1 X108.5 Y93.578 E3.94941
G1 X108.321 Y93.454 E3.95666
G1 X108.108 Y93.403 E3.96394
G1 X107.956 Y93.423 E3.96904
G1 X108.053 Y93.364 E3.97282
G1 X108.216 Y93.306 E3.97857
G1 X108.448 Y93.338 E3.98636
G1 X108.666 Y93.328 E3.99362
G1 X108.866 Y93.241 E4.00087
G1 X108.974 Y93.147 E4.00564
G1 X109.19 Y92.909 E4.01633
G1 X109.363 Y92.845 E4.02246
G1 X109.789 Y92.938 E4.03696
G1 X110.007 Y92.945 E4.04422
G1 X110.213 Y92.874 E4.05146
G1 X110.38 Y92.734 E4.05871
G1 X110.493 Y92.521 E4.06673
G1 X110.582 Y92.219 E4.0772
G1 X110.981 Y91.796 E4.09654
G0 F6000 X111.195 Y92.151
G1 F1200 X111.518 Y92.061 E4.1077
G1 X111.843 Y92.152 E4.11892
G1 X112.246 Y92.574 E4.13833
G1 X112.373 Y92.958 E4.15178
G1 X112.294 Y93.286 E4.163
G1 X112.071 Y93.509 E4.17349
G1 X111.741 Y93.589 E4.18479
G1 X111.416 Y93.481 E4.19618
G1 X111.139 Y93.431 E4.20554
G1 X110.858 Y93.46 E4.21493
G1 X110.597 Y93.567 E4.22432
G1 X110.376 Y93.742 E4.23369
G1 X110.213 Y93.973 E4.2431
G1 X110.14 Y94.158 E4.24971
G1 X110.129 Y94.197 E4.25106
G1 X110.081 Y94.245 E4.25332
G1 X110.034 Y94.258 E4.25494
G1 X110.004 Y94.249 E4.25598
G1 X109.926 Y94.171 E4.25965
G1 X109.872 Y93.985 E4.26609
G1 X109.756 Y93.728 E4.27547
G1 X109.572 Y93.514 E4.28486
G1 X109.336 Y93.359 E4.29425
G1 X109.325 Y93.356 E4.29463
G1 X109.408 Y93.264 E4.29875
G1 X109.703 Y93.329 E4.30879
G1 X109.985 Y93.35 E4.3182
G1 X110.261 Y93.291 E4.32759
G1 X110.509 Y93.158 E4.33695
G1 X110.711 Y92.96 E4.34635
G1 X110.877 Y92.633 E4.35855
G1 X110.939 Y92.423 E4.36583
G1 X111.195 Y92.151 E4.37826
G0 F6000 X111.411 Y92.507
G1 F1200 X111.519 Y92.476 E4.38199
G1 X111.63 Y92.507 E4.38583
G1 X111.895 Y92.786 E4.39863
G1 X111.958 Y92.974 E4.40522
G1 X111.931 Y93.083 E4.40896
G1 X111.868 Y93.146 E4.41192
G1 X111.759 Y93.173 E4.41565
G1 X111.542 Y93.101 E4.42326
G1 X111.215 Y93.035 E4.43435
G1 X111.123 Y93.039 E4.43742
G1 X111.26 Y92.746 E4.44817
G1 X111.294 Y92.63 E4.4522
G1 X111.411 Y92.507 E4.45784
G1 F1500 E-2.04216
G0 F6000 X114.401 Y94.368
G1 F1500 E4.45784
G1 F1200 X115.511 Y93.196 E4.51153
G1 X115.564 Y93.083 E4.51568
G1 X115.508 Y92.917 E4.52151
G1 X115.055 Y92.462 E4.54286
G1 X114.677 Y91.171 E4.5876
G1 X114.781 Y90.817 E4.59988
G1 X114.783 Y90.81 E4.60012
G1 X115.066 Y89.712 E4.63783
G1 X115.934 Y88.775 E4.68031
G1 X117.171 Y88.463 E4.72274
G1 X117.22 Y88.477 E4.72444
G1 X117.332 Y88.477 E4.72816
G1 X117.385 Y88.462 E4.73
G1 X118.74 Y88.842 E4.7768
G1 X119.808 Y89.96 E4.82823
G1 X120.211 Y91.269 E4.87378
G1 X119.849 Y92.614 E4.92011
G1 X118.75 Y93.701 E4.97152
G1 X118.693 Y93.812 E4.97567
G1 X118.748 Y93.982 E4.98161
G1 X119.183 Y94.43 E5.00238
G1 X119.584 Y95.73 E5.04763
G1 X119.213 Y97.071 E5.09391
G1 X118.229 Y98.031 E5.13963
G1 X116.83 Y98.402 E5.18777
G1 X115.437 Y97.994 E5.23605
G1 X114.402 Y96.959 E5.28473
G1 X114.022 Y95.664 E5.32962
G1 X114.401 Y94.368 E5.37453
G0 F6000 X114.758 Y94.574
G1 F1200 X115.802 Y93.471 E5.42504
G1 X115.92 Y93.288 E5.43229
G1 X115.966 Y93.074 E5.43957
