;FLAVOR:Marlin
;TIME:12966
;Filament used: 8.73604m
;Layer height: 0.2
;MINX:69.202
;MINY:62.878
;MINZ:0.2
;MAXX:151.593
;MAXY:157.467
;MAXZ:29.2
;TARGET_MACHINE.NAME:Creality Ender-3 Pro
;Generated with Cura_SteamEngine 5.7.2
M104 S200
M105
M109 S200
M82 ;absolute extrusion mode
; Ender 3 Custom Start G-code
G92 E0 ; Reset Extruder
G28 ; Home all axes
G29 ; Bed Auto Leveling
G1 Z5.0 F3000 ; Move Z Axis up a bit during heating to not damage bed
M104 S175 ; Start heating up the nozzle most of the way
M190 S60 ; Start heating the bed, wait until target temperature reached
M109 S200.0 ; Finish heating the nozzle
G1 Z2.0 F3000 ; Move Z Axis up little to prevent scratching of Heat Bed
G1 X0.1 Y20 Z0.3 F5000.0 ; Move to start position
G1 X0.1 Y200.0 Z0.3 F1500.0 E15 ; Draw the first line
G1 X0.4 Y200.0 Z0.3 F5000.0 ; Move to side a little
G1 X0.4 Y20 Z0.3 F1500.0 E30 ; Draw the second line
G92 E0 ; Reset Extruder
G1 Z2.0 F3000 ; Move Z Axis up little to prevent scratching of Heat Bed
G1 X5 Y20 Z0.3 F5000.0 ; Move over to prevent blob squish
G92 E0
G92 E0
G1 F1500 E-6.5
;LAYER_COUNT:146
;LAYER:0
M107
G0 F6000 X72.491 Y66.874 Z0.2
;TYPE:SKIRT
G1 F1500 E0
G1 F1200 X73.385 Y66.075 E0.03988
G1 X74.367 Y65.378 E0.07993
G1 X75.411 Y64.801 E0.11961
G1 X76.533 Y64.34 E0.15995
G1 X77.675 Y64.011 E0.19948
G1 X78.863 Y63.81 E0.23955
G1 X80.033 Y63.743 E0.27853
G1 X150.74 Y63.743 E2.63026
G1 X150.74 Y64.342 E2.65018
G1 X150.54 Y64.342 E2.65683
G1 X150.54 Y64.143 E2.66345
G1 X150.539 Y64.043 E2.66678
G1 X150.5 Y63.924 E2.67094
G1 X150.339 Y63.843 E2.67694
G1 X80.038 Y63.843 E5.01516
G1 X78.885 Y63.907 E5.05356
G1 X78.863 Y63.91 E5.0543
G1 X77.713 Y64.105 E5.0931
G1 X77.69 Y64.11 E5.09388
G1 X76.569 Y64.434 E5.13269
G1 X76.549 Y64.441 E5.1334
G1 X75.471 Y64.887 E5.1722
G1 X75.45 Y64.897 E5.17297
G1 X74.43 Y65.461 E5.21174
G1 X74.411 Y65.473 E5.21248
G1 X73.459 Y66.148 E5.2513
G1 X73.442 Y66.162 E5.25203
G1 X72.573 Y66.94 E5.29083
G1 X72.557 Y66.956 E5.29158
G1 X71.78 Y67.825 E5.33035
G1 X71.766 Y67.842 E5.33108
G1 X71.091 Y68.793 E5.36987
G1 X71.079 Y68.812 E5.37062
G1 X70.515 Y69.833 E5.40941
G1 X70.505 Y69.853 E5.41016
G1 X70.058 Y70.931 E5.44897
G1 X70.051 Y70.953 E5.44974
G1 X69.728 Y72.073 E5.48851
G1 X69.723 Y72.095 E5.48926
G1 X69.528 Y73.245 E5.52806
G1 X69.525 Y73.267 E5.52879
G1 X69.46 Y74.421 E5.56724
G1 X69.46 Y141.065 E7.78383
G1 X69.525 Y142.218 E7.82224
G1 X69.528 Y142.24 E7.82297
G1 X69.723 Y143.39 E7.86177
G1 X69.728 Y143.412 E7.86252
G1 X70.051 Y144.532 E7.90129
G1 X70.058 Y144.554 E7.90206
G1 X70.505 Y145.632 E7.94087
G1 X70.515 Y145.652 E7.94161
G1 X71.079 Y146.673 E7.98041
G1 X71.091 Y146.692 E7.98116
G1 X71.766 Y147.643 E8.01995
G1 X71.78 Y147.66 E8.02068
G1 X72.557 Y148.53 E8.05947
G1 X72.573 Y148.546 E8.06023
G1 X73.442 Y149.323 E8.099
G1 X73.459 Y149.337 E8.09973
G1 X74.411 Y150.012 E8.13855
G1 X74.43 Y150.024 E8.13929
G1 X75.45 Y150.588 E8.17806
G1 X75.471 Y150.598 E8.17883
G1 X76.549 Y151.044 E8.21764
G1 X76.569 Y151.051 E8.21834
G1 X77.69 Y151.375 E8.25715
G1 X77.713 Y151.38 E8.25793
G1 X78.863 Y151.575 E8.29673
G1 X78.885 Y151.578 E8.29747
G1 X80.038 Y151.643 E8.33588
G1 X112.05 Y151.643 E9.4006
G1 X117.534 Y151.736 E9.58303
G1 X122.983 Y152.015 E9.7645
G1 X128.448 Y152.482 E9.94693
G1 X133.884 Y153.135 E10.12903
G1 X139.279 Y153.969 E10.3106
G1 X144.661 Y154.99 E10.4928
G1 X150.042 Y156.203 E10.67626
G1 X150.166 Y156.191 E10.6804
G1 X150.259 Y156.108 E10.68455
G1 X150.286 Y156.008 E10.688
G1 X150.286 Y155.748 E10.69664
G1 X150.489 Y155.794 E10.70357
G1 X150.489 Y156.405 E10.72389
G1 X144.534 Y155.068 E10.92688
G1 X144.527 Y155.066 E10.92713
G1 X139.296 Y154.075 E11.1042
G1 X139.29 Y154.074 E11.10441
G1 X133.88 Y153.239 E11.28647
G1 X133.873 Y153.238 E11.28671
G1 X128.327 Y152.572 E11.47249
G1 X128.32 Y152.572 E11.47273
G1 X123.091 Y152.129 E11.64727
G1 X123.084 Y152.128 E11.6475
G1 X117.487 Y151.837 E11.83391
G1 X117.48 Y151.837 E11.83414
G1 X112.036 Y151.744 E12.01524
G1 X80.035 Y151.744 E13.0796
G1 X78.86 Y151.675 E13.11874
G1 X77.674 Y151.474 E13.15875
G1 X76.533 Y151.145 E13.19825
G1 X75.411 Y150.684 E13.23859
G1 X74.367 Y150.107 E13.27827
G1 X73.384 Y149.41 E13.31835
G1 X72.491 Y148.612 E13.35818
G1 X71.693 Y147.718 E13.39804
G1 X71.001 Y146.742 E13.43783
G1 X70.417 Y145.684 E13.47803
G1 X69.957 Y144.569 E13.51814
G1 X69.629 Y143.429 E13.5576
G1 X69.427 Y142.24 E13.59771
G1 X69.359 Y141.071 E13.63666
G1 X69.359 Y74.415 E15.85364
G1 X69.428 Y73.242 E15.89273
G1 X69.629 Y72.056 E15.93273
G1 X69.957 Y70.916 E15.97219
G1 X70.417 Y69.801 E16.01231
G1 X71.001 Y68.743 E16.0525
G1 X71.693 Y67.767 E16.09229
G1 X72.491 Y66.874 E16.13213
G1 F1500 E9.63213
G0 F6000 X122.406 Y83.727
G1 F1500 E16.13213
G1 F1200 X122.507 Y83.448 E16.142
G1 X122.633 Y83.199 E16.15128
G1 X122.794 Y82.956 E16.16097
G1 X122.985 Y82.727 E16.17089
G1 X123.2 Y82.523 E16.18075
G1 X123.427 Y82.354 E16.19016
G1 X123.672 Y82.213 E16.19956
G1 X123.952 Y82.093 E16.20969
G1 X124.213 Y82.014 E16.21876
G1 X124.514 Y81.96 E16.22894
G1 X124.8 Y81.945 E16.23846
G1 X125.092 Y81.961 E16.24819
G1 X125.383 Y82.013 E16.25802
G1 X125.646 Y82.092 E16.26715
G1 X125.928 Y82.213 E16.27736
G1 X126.173 Y82.354 E16.28676
G1 X126.4 Y82.523 E16.29617
G1 X126.618 Y82.731 E16.3062
G1 X126.802 Y82.949 E16.31568
G1 X126.966 Y83.198 E16.3256
G1 X127.095 Y83.455 E16.33517
G1 X127.194 Y83.727 E16.34479
G1 X127.258 Y83.997 E16.35402
G1 X127.294 Y84.305 E16.36434
G1 X127.294 Y84.58 E16.37348
G1 X127.258 Y84.888 E16.3838
G1 X127.195 Y85.155 E16.39292
G1 X127.094 Y85.432 E16.40273
G1 X126.965 Y85.69 E16.41232
G1 X126.801 Y85.939 E16.42224
G1 X126.621 Y86.152 E16.43151
G1 X126.4 Y86.362 E16.44165
G1 X126.173 Y86.531 E16.45106
G1 X125.928 Y86.672 E16.46047
G1 X125.646 Y86.793 E16.47067
G1 X125.382 Y86.872 E16.47984
G1 X125.093 Y86.924 E16.4896
G1 X124.8 Y86.941 E16.49937
G1 X124.513 Y86.925 E16.50893
G1 X124.213 Y86.871 E16.51907
G1 X123.952 Y86.792 E16.52814
G1 X123.672 Y86.672 E16.53827
G1 X123.427 Y86.531 E16.54767
G1 X123.2 Y86.362 E16.55708
G1 X122.981 Y86.155 E16.5671
G1 X122.795 Y85.934 E16.57671
G1 X122.636 Y85.694 E16.58629
G1 X122.506 Y85.432 E16.59602
G1 X122.405 Y85.155 E16.60582
G1 X122.342 Y84.888 E16.61495
G1 X122.306 Y84.58 E16.62526
G1 X122.306 Y84.305 E16.63441
G1 X122.342 Y83.997 E16.64472
G1 X122.406 Y83.727 E16.65395
G0 F6000 X122.79 Y83.841
G1 F1200 X122.874 Y83.61 E16.66212
G1 X122.982 Y83.396 E16.6701
G1 X123.115 Y83.195 E16.67811
G1 X123.273 Y83.005 E16.68633
G1 X123.46 Y82.828 E16.6949
G1 X123.648 Y82.688 E16.70269
G1 X123.851 Y82.572 E16.71047
G1 X124.086 Y82.471 E16.71898
G1 X124.31 Y82.403 E16.72676
G1 X124.563 Y82.358 E16.73531
G1 X124.799 Y82.345 E16.74317
G1 X125.042 Y82.359 E16.75127
G1 X125.291 Y82.403 E16.75968
G1 X125.515 Y82.47 E16.76745
G1 X125.742 Y82.568 E16.77568
G1 X125.952 Y82.688 E16.78372
G1 X126.14 Y82.828 E16.79152
G1 X126.327 Y83.006 E16.8001
G1 X126.482 Y83.191 E16.80813
G1 X126.62 Y83.399 E16.81643
G1 X126.727 Y83.613 E16.82439
G1 X126.81 Y83.841 E16.83246
G1 X126.864 Y84.069 E16.84025
G1 X126.894 Y84.325 E16.84883
G1 X126.894 Y84.56 E16.85664
G1 X126.864 Y84.816 E16.86522
G1 X126.812 Y85.038 E16.8728
G1 X126.726 Y85.273 E16.88112
G1 X126.616 Y85.493 E16.8893
G1 X126.481 Y85.697 E16.89744
G1 X126.326 Y85.881 E16.90544
G1 X126.146 Y86.053 E16.91372
G1 X125.952 Y86.197 E16.92176
G1 X125.742 Y86.317 E16.9298
G1 X125.515 Y86.415 E16.93803
G1 X125.29 Y86.482 E16.94584
G1 X125.043 Y86.526 E16.95418
G1 X124.799 Y86.541 E16.96231
G1 X124.564 Y86.527 E16.97014
G1 X124.309 Y86.482 E16.97875
G1 X124.086 Y86.414 E16.98651
G1 X123.851 Y86.313 E16.99501
G1 X123.648 Y86.197 E17.00279
G1 X123.454 Y86.052 E17.01085
G1 X123.271 Y85.879 E17.01922
G1 X123.118 Y85.697 E17.02713
G1 X122.985 Y85.496 E17.03515
G1 X122.874 Y85.273 E17.04343
G1 X122.788 Y85.038 E17.05175
G1 X122.736 Y84.816 E17.05934
G1 X122.706 Y84.56 E17.06791
G1 X122.706 Y84.325 E17.07573
G1 X122.736 Y84.069 E17.0843
G1 X122.79 Y83.841 E17.09209
G0 F6000 X123.174 Y83.955
G1 F1200 X123.242 Y83.769 E17.09868
G1 X123.325 Y83.603 E17.10485
G1 X123.437 Y83.435 E17.11157
G1 X123.571 Y83.274 E17.11854
G1 X123.713 Y83.139 E17.12505
G1 X123.866 Y83.025 E17.1314
G1 X124.037 Y82.927 E17.13795
G1 X124.216 Y82.85 E17.14443
G1 X124.406 Y82.792 E17.15104
G1 X124.614 Y82.755 E17.15807
G1 X124.798 Y82.745 E17.1642
G1 X124.992 Y82.756 E17.17066
G1 X125.198 Y82.793 E17.17762
G1 X125.376 Y82.846 E17.1838
G1 X125.563 Y82.926 E17.19056
G1 X125.734 Y83.025 E17.19714
G1 X125.886 Y83.138 E17.20344
G1 X126.036 Y83.28 E17.21031
G1 X126.16 Y83.428 E17.21673
G1 X126.273 Y83.601 E17.2236
G1 X126.36 Y83.771 E17.22995
G1 X126.426 Y83.955 E17.23645
G1 X126.47 Y84.141 E17.24281
G1 X126.494 Y84.345 E17.24964
G1 X126.494 Y84.54 E17.25613
G1 X126.47 Y84.746 E17.26303
G1 X126.429 Y84.919 E17.26894
G1 X126.355 Y85.121 E17.27609
G1 X126.272 Y85.288 E17.2823
G1 X126.161 Y85.456 E17.28899
G1 X126.036 Y85.604 E17.29544
G1 X125.886 Y85.747 E17.30233
G1 X125.734 Y85.86 E17.30863
G1 X125.563 Y85.959 E17.3152
G1 X125.376 Y86.039 E17.32197
G1 X125.197 Y86.092 E17.32818
G1 X124.992 Y86.129 E17.3351
G1 X124.798 Y86.14 E17.34157
G1 X124.614 Y86.13 E17.3477
G1 X124.406 Y86.093 E17.35472
G1 X124.216 Y86.035 E17.36133
G1 X124.037 Y85.958 E17.36781
G1 X123.866 Y85.86 E17.37437
G1 X123.713 Y85.746 E17.38071
G1 X123.562 Y85.603 E17.38763
G1 X123.437 Y85.455 E17.39407
G1 X123.332 Y85.295 E17.40044
G1 X123.243 Y85.118 E17.40703
G1 X123.171 Y84.919 E17.41407
G1 X123.13 Y84.746 E17.41998
G1 X123.106 Y84.54 E17.42688
G1 X123.106 Y84.345 E17.43336
G1 X123.13 Y84.141 E17.44019
G1 X123.174 Y83.955 E17.44655
G0 F6000 X123.557 Y84.071
G1 F1200 X123.609 Y83.928 E17.45161
G1 X123.674 Y83.8 E17.45639
G1 X123.761 Y83.669 E17.46162
G1 X123.859 Y83.551 E17.46672
G1 X123.968 Y83.448 E17.47171
G1 X124.087 Y83.359 E17.47665
G1 X124.216 Y83.285 E17.4816
G1 X124.361 Y83.223 E17.48684
G1 X124.493 Y83.183 E17.49143
G1 X124.655 Y83.154 E17.4969
G1 X124.797 Y83.146 E17.50163
G1 X124.951 Y83.155 E17.50676
G1 X125.106 Y83.183 E17.512
G1 X125.237 Y83.222 E17.51655
G1 X125.384 Y83.285 E17.52187
G1 X125.513 Y83.359 E17.52681
G1 X125.632 Y83.448 E17.53176
G1 X125.74 Y83.551 E17.53672
G1 X125.84 Y83.67 E17.54189
G1 X125.927 Y83.802 E17.54715
G1 X125.99 Y83.927 E17.5518
G1 X126.043 Y84.071 E17.55691
G1 X126.075 Y84.205 E17.56149
G1 X126.094 Y84.374 E17.56715
G1 X126.094 Y84.511 E17.5717
G1 X126.074 Y84.682 E17.57743
G1 X126.044 Y84.81 E17.5818
G1 X125.991 Y84.955 E17.58694
G1 X125.926 Y85.084 E17.59174
G1 X125.834 Y85.224 E17.59731
G1 X125.75 Y85.323 E17.60163
G1 X125.627 Y85.441 E17.6073
G1 X125.513 Y85.526 E17.61203
G1 X125.384 Y85.6 E17.61698
G1 X125.237 Y85.663 E17.6223
G1 X125.107 Y85.702 E17.62681
G1 X124.942 Y85.731 E17.63238
G1 X124.805 Y85.74 E17.63695
G1 X124.656 Y85.731 E17.64191
G1 X124.492 Y85.702 E17.64745
G1 X124.361 Y85.662 E17.65201
G1 X124.216 Y85.6 E17.65725
G1 X124.087 Y85.526 E17.6622
G1 X123.968 Y85.437 E17.66714
G1 X123.857 Y85.332 E17.67222
G1 X123.757 Y85.213 E17.67739
G1 X123.678 Y85.094 E17.68215
G1 X123.609 Y84.956 E17.68728
G1 X123.556 Y84.81 E17.69244
G1 X123.526 Y84.682 E17.69682
G1 X123.506 Y84.511 E17.70254
G1 X123.506 Y84.374 E17.7071
G1 X123.525 Y84.205 E17.71275
G1 X123.557 Y84.071 E17.71734
G0 F6000 X123.942 Y84.184
G1 F1200 X123.977 Y84.087 E17.72077
G1 X124.021 Y84 E17.72401
G1 X124.081 Y83.91 E17.72761
G1 X124.153 Y83.824 E17.73134
G1 X124.228 Y83.753 E17.73477
G1 X124.314 Y83.689 E17.73834
G1 X124.387 Y83.647 E17.74114
G1 X124.495 Y83.601 E17.74504
G1 X124.589 Y83.572 E17.74832
G1 X124.705 Y83.552 E17.75223
G1 X124.797 Y83.547 E17.75529
G1 X124.902 Y83.553 E17.75879
G1 X125.011 Y83.572 E17.76247
G1 X125.105 Y83.6 E17.76574
G1 X125.209 Y83.645 E17.7695
G1 X125.286 Y83.689 E17.77245
G1 X125.372 Y83.753 E17.77602
G1 X125.449 Y83.826 E17.77955
G1 X125.516 Y83.906 E17.78302
G1 X125.58 Y84.004 E17.78691
G1 X125.624 Y84.09 E17.79013
G1 X125.658 Y84.184 E17.79345
G1 X125.681 Y84.278 E17.79667
G1 X125.694 Y84.394 E17.80055
G1 X125.694 Y84.491 E17.80378
G1 X125.68 Y84.612 E17.80783
G1 X125.661 Y84.691 E17.81053
G1 X125.623 Y84.796 E17.81424
G1 X125.576 Y84.891 E17.81777
G1 X125.517 Y84.98 E17.82132
G1 X125.456 Y85.052 E17.82446
G1 X125.372 Y85.132 E17.82832
G1 X125.286 Y85.196 E17.83188
G1 X125.209 Y85.24 E17.83483
G1 X125.105 Y85.285 E17.8386
G1 X125.004 Y85.315 E17.84211
G1 X124.91 Y85.332 E17.84528
G1 X124.796 Y85.339 E17.84908
G1 X124.698 Y85.333 E17.85235
G1 X124.596 Y85.315 E17.85579
G1 X124.495 Y85.284 E17.85931
G1 X124.387 Y85.238 E17.86321
G1 X124.314 Y85.196 E17.86601
G1 X124.222 Y85.127 E17.86984
G1 X124.147 Y85.056 E17.87327
G1 X124.08 Y84.977 E17.87672
G1 X124.026 Y84.895 E17.87998
G1 X123.977 Y84.797 E17.88363
G1 X123.939 Y84.691 E17.88737
G1 X123.92 Y84.612 E17.89008
G1 X123.906 Y84.491 E17.89413
G1 X123.906 Y84.394 E17.89735
G1 X123.919 Y84.278 E17.90124
G1 X123.942 Y84.184 E17.90445
G0 F6000 X124.324 Y84.307
G1 F1200 X124.349 Y84.238 E17.9069
G1 X124.365 Y84.207 E17.90806
G1 X124.403 Y84.148 E17.91039
G1 X124.445 Y84.098 E17.91256
G1 X124.485 Y84.06 E17.9144
G1 X124.528 Y84.028 E17.91618
G1 X124.573 Y84.002 E17.91791
G1 X124.635 Y83.976 E17.92014
G1 X124.676 Y83.963 E17.92157
G1 X124.746 Y83.951 E17.92394
G1 X124.805 Y83.948 E17.9259
G1 X124.851 Y83.95 E17.92743
G1 X124.921 Y83.962 E17.9298
G1 X124.963 Y83.975 E17.93126
G1 X125.029 Y84.003 E17.93364
G1 X125.072 Y84.028 E17.9353
G1 X125.114 Y84.059 E17.93703
G1 X125.158 Y84.101 E17.93906
G1 X125.196 Y84.146 E17.94101
G1 X125.232 Y84.201 E17.9432
G1 X125.252 Y84.241 E17.94469
G1 X125.276 Y84.307 E17.94702
G1 X125.287 Y84.351 E17.94853
G1 X125.294 Y84.413 E17.95061
G1 X125.294 Y84.472 E17.95257
G1 X125.286 Y84.539 E17.95481
G1 X125.278 Y84.574 E17.95601
G1 X125.255 Y84.636 E17.95821
G1 X125.227 Y84.693 E17.96032
G1 X125.197 Y84.738 E17.96212
G1 X125.161 Y84.781 E17.96398
G1 X125.114 Y84.826 E17.96615
G1 X125.072 Y84.857 E17.96788
G1 X125.029 Y84.882 E17.96954
G1 X124.963 Y84.91 E17.97192
G1 X124.914 Y84.925 E17.97363
G1 X124.859 Y84.934 E17.97548
G1 X124.795 Y84.938 E17.97761
G1 X124.748 Y84.935 E17.97918
G1 X124.683 Y84.924 E17.98137
G1 X124.635 Y84.909 E17.98305
G1 X124.573 Y84.883 E17.98528
G1 X124.528 Y84.857 E17.98701
G1 X124.485 Y84.825 E17.98879
G1 X124.438 Y84.78 E17.99096
G1 X124.402 Y84.738 E17.9928
G1 X124.371 Y84.691 E17.99467
G1 X124.347 Y84.642 E17.99649
G1 X124.322 Y84.574 E17.99889
G1 X124.314 Y84.539 E18.00009
G1 X124.306 Y84.472 E18.00233
G1 X124.306 Y84.413 E18.0043
G1 X124.313 Y84.351 E18.00637
G1 X124.324 Y84.307 E18.00788
G0 F6000 X124.709 Y84.418
G1 F1200 X124.714 Y84.402 E18.00844
G1 X124.72 Y84.393 E18.0088
G1 X124.741 Y84.369 E18.00986
G1 X124.749 Y84.362 E18.01021
G1 X124.769 Y84.353 E18.01094
G1 X124.78 Y84.35 E18.01132
G1 X124.789 Y84.349 E18.01162
G1 X124.795 Y84.348 E18.01182
G1 X124.81 Y84.349 E18.01232
G1 X124.826 Y84.352 E18.01286
G1 X124.851 Y84.362 E18.01376
G1 X124.872 Y84.382 E18.01472
G1 X124.886 Y84.402 E18.01554
G1 X124.891 Y84.418 E18.01609
G1 X124.894 Y84.439 E18.0168
G1 X124.891 Y84.466 E18.0177
G1 X124.887 Y84.477 E18.01809
G1 X124.881 Y84.491 E18.0186
G1 X124.875 Y84.5 E18.01896
G1 X124.855 Y84.52 E18.0199
G1 X124.851 Y84.523 E18.02007
G1 X124.827 Y84.533 E18.02093
G1 X124.821 Y84.535 E18.02114
G1 X124.806 Y84.537 E18.02164
G1 X124.79 Y84.537 E18.02218
G1 X124.779 Y84.535 E18.02255
G1 X124.769 Y84.532 E18.0229
G1 X124.752 Y84.524 E18.02352
G1 X124.744 Y84.519 E18.02383
G1 X124.722 Y84.497 E18.02487
G1 X124.718 Y84.49 E18.02514
G1 X124.709 Y84.466 E18.02599
G1 X124.706 Y84.439 E18.02689
G1 X124.709 Y84.418 E18.0276
G1 F1500 E11.5276
G0 F6000 X132.306 Y84.305
G1 F1500 E18.0276
G1 F1200 X132.342 Y83.997 E18.03791
G1 X132.406 Y83.727 E18.04714
G1 X132.507 Y83.448 E18.05701
G1 X132.633 Y83.199 E18.06629
G1 X132.794 Y82.956 E18.07599
G1 X132.985 Y82.727 E18.08591
G1 X133.2 Y82.523 E18.09576
G1 X133.427 Y82.354 E18.10518
G1 X133.672 Y82.213 E18.11458
G1 X133.952 Y82.093 E18.12471
G1 X134.213 Y82.014 E18.13378
G1 X134.514 Y81.96 E18.14395
G1 X134.8 Y81.945 E18.15348
G1 X135.092 Y81.961 E18.1632
