;FLAVOR:Marlin
;TIME:9853
;Filament used: 5.52917m
;Layer height: 0.2
;MINX:6.204
;MINY:98.21
;MINZ:0.2
;MAXX:214.661
;MAXY:123.061
;MAXZ:19.4
;TARGET_MACHINE.NAME:Creality Ender-3 Pro
;Generated with Cura_SteamEngine 5.7.2
M104 S200
M105
M109 S200
M82 ;absolute extrusion mode
; Ender 3 Custom Start G-code
G92 E0 ; Reset Extruder
G28 ; Home all axes
G29 ; Bed Auto Leveling
G1 Z5.0 F3000 ; Move Z Axis up a bit during heating to not damage bed
M104 S175 ; Start heating up the nozzle most of the way
M190 S60 ; Start heating the bed, wait until target temperature reached
M109 S200.0 ; Finish heating the nozzle
G1 Z2.0 F3000 ; Move Z Axis up little to prevent scratching of Heat Bed
G1 X0.1 Y20 Z0.3 F5000.0 ; Move to start position
G1 X0.1 Y200.0 Z0.3 F1500.0 E15 ; Draw the first line
G1 X0.4 Y200.0 Z0.3 F5000.0 ; Move to side a little
G1 X0.4 Y20 Z0.3 F1500.0 E30 ; Draw the second line
G92 E0 ; Reset Extruder
G1 Z2.0 F3000 ; Move Z Axis up little to prevent scratching of Heat Bed
G1 X5 Y20 Z0.3 F5000.0 ; Move over to prevent blob squish
G92 E0
G92 E0
G1 F1500 E-6.5
;LAYER_COUNT:97
;LAYER:0
M107
G0 F6000 X191.485 Y116.105 Z0.2
;TYPE:SKIRT
G1 F1500 E0
G1 F1200 X192.064 Y115.609 E0.02536
G1 X192.069 Y115.604 E0.02559
G1 X192.319 Y115.375 E0.03687
G1 X192.349 Y115.341 E0.03838
G1 X192.359 Y115.326 E0.03898
G1 X192.851 Y114.878 E0.06111
G1 X193.585 Y114.699 E0.08624
G1 X193.613 Y114.697 E0.08717
G1 X194.423 Y114.465 E0.11519
G1 X194.431 Y114.463 E0.11547
G1 X194.795 Y114.343 E0.12822
G1 X194.812 Y114.337 E0.12882
G1 X195.031 Y114.242 E0.13676
G1 X195.04 Y114.251 E0.13718
G1 X195.156 Y114.27 E0.14109
G1 X196.135 Y114.14 E0.17394
G1 X196.248 Y114.305 E0.18059
G1 X196.46 Y114.662 E0.1944
G1 X196.673 Y115.088 E0.21024
G1 X196.84 Y115.497 E0.22493
G1 X196.971 Y115.897 E0.23893
G1 X197.086 Y116.35 E0.25448
G1 X197.156 Y116.757 E0.26821
G1 X197.202 Y117.209 E0.28332
G1 X197.217 Y117.668 E0.2986
G1 X197.201 Y118.066 E0.31185
G1 X197.15 Y118.535 E0.32754
G1 X197.064 Y118.989 E0.34291
G1 X196.958 Y119.397 E0.35693
G1 X196.815 Y119.815 E0.37162
G1 X195.973 Y121.838 E0.4445
G1 X194.757 Y121.934 E0.48507
G1 X194.736 Y121.916 E0.48599
G1 X194.655 Y121.901 E0.48873
G1 X193.875 Y121.925 E0.51469
G1 X193.867 Y121.919 E0.51502
G1 X193.794 Y121.908 E0.51747
G1 X193.16 Y121.931 E0.53857
G1 X193.144 Y121.92 E0.53922
G1 X193.07 Y121.913 E0.54169
G1 X192.633 Y121.952 E0.55628
G1 X192.553 Y121.921 E0.55914
G1 X192.163 Y121.961 E0.57218
G1 X192.071 Y121.921 E0.57551
G1 X191.305 Y121.921 E0.60099
G1 X191.284 Y121.922 E0.60169
G1 X190.902 Y121.963 E0.61447
G1 X191.014 Y121.267 E0.63792
G1 X191.029 Y121.244 E0.63883
G1 X191.086 Y120.797 E0.65382
G1 X191.087 Y120.79 E0.65405
G1 X191.133 Y120.282 E0.67102
G1 X191.135 Y120.276 E0.67123
G1 X191.178 Y119.557 E0.69518
G1 X191.149 Y119.441 E0.69916
G1 X191.141 Y119.429 E0.69964
G1 X191.157 Y119.342 E0.70258
G1 X191.16 Y119.309 E0.70369
G1 X191.17 Y118.391 E0.73422
G1 X191.17 Y118.385 E0.73442
G1 X191.16 Y117.908 E0.75029
G1 X191.16 Y117.902 E0.75049
G1 X191.136 Y117.408 E0.76694
G1 X191.247 Y116.722 E0.79005
G1 X191.402 Y116.3 E0.805
G1 X191.485 Y116.105 E0.81205
G0 F6000 X191.817 Y116.346
G1 F1200 X192.324 Y115.913 E0.83423
G1 X192.339 Y115.899 E0.83491
G1 X192.589 Y115.67 E0.84619
G1 X192.645 Y115.606 E0.84902
G1 X193.043 Y115.243 E0.86693
G1 X193.688 Y115.086 E0.88901
G1 X193.723 Y115.082 E0.89018
G1 X194.533 Y114.85 E0.91821
G1 X194.556 Y114.843 E0.91901
G1 X194.92 Y114.723 E0.93175
G1 X194.971 Y114.704 E0.93356
G1 X195.09 Y114.653 E0.93787
G1 X195.209 Y114.667 E0.94186
G1 X195.939 Y114.57 E0.96635
G1 X196.106 Y114.85 E0.97719
G1 X196.312 Y115.261 E0.99248
G1 X196.46 Y115.625 E1.00555
G1 X196.586 Y116.007 E1.01893
G1 X196.695 Y116.436 E1.03365
G1 X196.76 Y116.814 E1.04641
G1 X196.803 Y117.238 E1.06058
G1 X196.817 Y117.684 E1.07543
G1 X196.802 Y118.043 E1.08738
G1 X196.755 Y118.471 E1.1017
G1 X196.672 Y118.908 E1.11649
G1 X196.575 Y119.281 E1.12931
G1 X196.438 Y119.679 E1.14331
G1 X195.698 Y121.458 E1.2074
G1 X194.832 Y121.527 E1.23629
G1 X194.643 Y121.501 E1.24264
G1 X193.924 Y121.523 E1.26656
G1 X193.779 Y121.508 E1.27141
G1 X193.214 Y121.528 E1.29021
G1 X193.2 Y121.523 E1.29071
G1 X193.035 Y121.514 E1.2962
G1 X192.705 Y121.543 E1.30722
G1 X192.642 Y121.524 E1.30941
G1 X192.512 Y121.523 E1.31373
G1 X192.212 Y121.554 E1.32376
G1 X192.071 Y121.521 E1.32858
G1 X191.378 Y121.521 E1.35163
G1 X191.393 Y121.427 E1.3548
G1 X191.396 Y121.422 E1.35499
G1 X191.426 Y121.295 E1.35933
G1 X191.483 Y120.848 E1.37432
G1 X191.486 Y120.826 E1.37506
G1 X191.532 Y120.318 E1.39202
G1 X191.534 Y120.3 E1.39262
G1 X191.577 Y119.581 E1.41658
G1 X191.553 Y119.386 E1.42312
G1 X191.56 Y119.314 E1.42552
G1 X191.57 Y118.396 E1.45606
G1 X191.57 Y118.376 E1.45672
G1 X191.56 Y117.899 E1.47259
G1 X191.559 Y117.883 E1.47312
G1 X191.537 Y117.434 E1.48808
G1 X191.637 Y116.819 E1.5088
G1 X191.767 Y116.465 E1.52134
G1 X191.817 Y116.346 E1.52564
G0 F6000 X192.148 Y116.59
G1 F1200 X192.584 Y116.217 E1.54472
G1 X192.609 Y116.194 E1.54585
G1 X192.859 Y115.965 E1.55713
G1 X192.912 Y115.905 E1.55979
G1 X193.238 Y115.608 E1.57446
G1 X193.786 Y115.474 E1.59322
G1 X193.833 Y115.466 E1.5948
G1 X194.643 Y115.234 E1.62283
G1 X194.681 Y115.223 E1.62414
G1 X195.045 Y115.103 E1.63689
G1 X195.13 Y115.071 E1.63991
G1 X195.162 Y115.057 E1.64107
G1 X195.262 Y115.063 E1.64441
G1 X195.731 Y115.001 E1.66014
G1 X195.755 Y115.04 E1.66166
G1 X195.941 Y115.412 E1.6755
G1 X196.087 Y115.77 E1.68836
G1 X196.205 Y116.13 E1.70096
G1 X196.299 Y116.499 E1.71362
G1 X196.364 Y116.88 E1.72648
G1 X196.404 Y117.276 E1.73972
G1 X196.417 Y117.667 E1.75273
G1 X196.402 Y118.011 E1.76418
G1 X196.358 Y118.418 E1.7778
G1 X196.282 Y118.819 E1.79137
G1 X196.19 Y119.173 E1.80354
G1 X196.065 Y119.537 E1.81634
G1 X195.423 Y121.078 E1.87186
G1 X194.855 Y121.123 E1.89081
G1 X194.83 Y121.115 E1.89168
G1 X194.63 Y121.101 E1.89835
G1 X193.948 Y121.122 E1.92105
G1 X193.922 Y121.115 E1.92194
G1 X193.765 Y121.109 E1.92717
G1 X193.224 Y121.128 E1.94517
G1 X193.158 Y121.114 E1.94742
G1 X193 Y121.116 E1.95267
G1 X192.684 Y121.144 E1.96322
G1 X192.471 Y121.125 E1.97034
G1 X192.266 Y121.146 E1.97719
G1 X192.071 Y121.121 E1.98373
G1 X191.852 Y121.121 E1.99101
G1 X191.88 Y120.898 E1.99849
G1 X191.884 Y120.862 E1.99969
G1 X191.93 Y120.354 E2.01666
G1 X191.925 Y120.354 E2.01682
G1 X191.933 Y120.324 E2.01786
G1 X191.976 Y119.605 E2.04181
G1 X191.956 Y119.36 E2.04999
G1 X191.96 Y119.318 E2.05139
G1 X191.97 Y118.4 E2.08193
G1 X191.97 Y118.368 E2.08299
G1 X191.96 Y117.891 E2.09886
G1 X191.959 Y117.863 E2.09979
G1 X191.939 Y117.455 E2.11338
G1 X192.026 Y116.923 E2.13131
G1 X192.144 Y116.601 E2.14271
G1 X192.148 Y116.59 E2.1431
G0 F6000 X192.487 Y116.826
G1 F1200 X192.844 Y116.521 E2.15872
G1 X192.88 Y116.489 E2.16032
G1 X193.13 Y116.26 E2.1716
G1 X193.189 Y116.192 E2.17459
G1 X193.431 Y115.971 E2.18549
G1 X193.885 Y115.861 E2.20103
G1 X193.943 Y115.851 E2.20299
G1 X194.753 Y115.619 E2.23101
G1 X194.806 Y115.603 E2.23285
G1 X195.17 Y115.483 E2.2456
G1 X195.232 Y115.459 E2.24781
G1 X195.314 Y115.46 E2.25054
G1 X195.505 Y115.435 E2.25695
G1 X195.58 Y115.585 E2.26252
G1 X195.711 Y115.906 E2.27406
G1 X195.818 Y116.231 E2.28544
G1 X195.909 Y116.589 E2.29772
G1 X195.967 Y116.929 E2.30919
G1 X196.005 Y117.3 E2.3216
G1 X196.016 Y117.662 E2.33364
G1 X196.003 Y117.982 E2.3443
G1 X195.962 Y118.36 E2.35694
G1 X195.891 Y118.733 E2.36957
G1 X195.809 Y119.048 E2.3804
G1 X195.686 Y119.407 E2.39302
G1 X195.148 Y120.699 E2.43957
G1 X194.798 Y120.726 E2.45124
G1 X194.618 Y120.702 E2.45728
G1 X193.891 Y120.724 E2.48147
G1 X193.751 Y120.709 E2.48616
G1 X193.177 Y120.73 E2.50526
G1 X192.964 Y120.717 E2.51236
G1 X192.763 Y120.735 E2.51907
G1 X192.752 Y120.732 E2.51945
G1 X192.43 Y120.727 E2.53016
G1 X192.296 Y120.741 E2.53464
G1 X192.328 Y120.39 E2.54637
G1 X192.333 Y120.348 E2.54777
G1 X192.376 Y119.629 E2.57173
G1 X192.359 Y119.337 E2.58146
G1 X192.36 Y119.322 E2.58196
G1 X192.37 Y118.404 E2.61249
G1 X192.37 Y118.36 E2.61396
G1 X192.36 Y117.883 E2.62982
G1 X192.358 Y117.844 E2.63112
G1 X192.34 Y117.482 E2.64318
G1 X192.415 Y117.024 E2.65861
G1 X192.487 Y116.826 E2.66562
G0 F6000 X192.826 Y117.063
G1 F1200 X193.104 Y116.825 E2.67779
G1 X193.15 Y116.784 E2.67984
G1 X193.4 Y116.555 E2.69112
G1 X193.454 Y116.493 E2.69385
G1 X193.626 Y116.336 E2.7016
G1 X193.98 Y116.25 E2.71372
G1 X194.054 Y116.235 E2.71623
G1 X194.864 Y116.003 E2.74425
G1 X194.932 Y115.982 E2.74662
G1 X195.266 Y115.872 E2.75831
G1 X195.334 Y116.039 E2.76431
G1 X195.433 Y116.341 E2.77488
G1 X195.519 Y116.68 E2.78651
G1 X195.57 Y116.979 E2.7966
G1 X195.605 Y117.325 E2.80817
G1 X195.616 Y117.673 E2.81975
G1 X195.605 Y117.95 E2.82897
G1 X195.567 Y118.297 E2.84058
G1 X195.501 Y118.644 E2.85233
G1 X195.424 Y118.94 E2.8625
G1 X195.319 Y119.246 E2.87326
G1 X194.872 Y120.32 E2.91195
G1 X194.862 Y120.321 E2.91229
G1 X194.606 Y120.302 E2.92082
G1 X193.987 Y120.321 E2.94142
G1 X193.736 Y120.309 E2.94978
G1 X193.272 Y120.326 E2.96522
G1 X193.225 Y120.317 E2.96681
G1 X192.929 Y120.319 E2.97666
G1 X192.734 Y120.336 E2.98317
G1 X192.775 Y119.652 E3.00596
G1 X192.76 Y119.327 E3.01678
G1 X192.77 Y118.409 E3.04732
G1 X192.77 Y118.351 E3.04925
G1 X192.76 Y117.874 E3.06511
G1 X192.758 Y117.824 E3.06678
G1 X192.742 Y117.503 E3.07747
G1 X192.804 Y117.123 E3.09027
G1 X192.826 Y117.063 E3.0924
G0 F6000 X193.182 Y117.285
G1 F1200 X193.364 Y117.129 E3.10037
G1 X193.42 Y117.079 E3.10287
G1 X193.67 Y116.85 E3.11415
G1 X193.723 Y116.789 E3.11683
G1 X193.819 Y116.701 E3.12117
G1 X193.977 Y116.663 E3.12657
G1 X194.164 Y116.62 E3.13295
G1 X194.974 Y116.388 E3.16098
G1 X195.022 Y116.373 E3.16265
G1 X195.054 Y116.472 E3.16611
G1 X195.126 Y116.755 E3.17582
G1 X195.172 Y117.021 E3.1848
G1 X195.205 Y117.349 E3.19576
G1 X195.216 Y117.669 E3.20641
G1 X195.205 Y117.921 E3.2148
G1 X195.17 Y118.243 E3.22558
G1 X195.111 Y118.552 E3.23604
G1 X195.042 Y118.818 E3.24518
G1 X194.94 Y119.116 E3.25566
G1 X194.612 Y119.902 E3.28398
G1 X194.593 Y119.902 E3.28461
G1 X193.891 Y119.924 E3.30798
G1 X193.722 Y119.909 E3.31362
G1 X193.159 Y119.929 E3.33236
G1 X193.174 Y119.676 E3.34078
G1 X193.16 Y119.296 E3.35343
G1 X193.17 Y118.413 E3.3828
G1 X193.17 Y118.343 E3.38513
G1 X193.16 Y117.866 E3.401
G1 X193.157 Y117.805 E3.40303
G1 X193.143 Y117.524 E3.41239
G1 X193.182 Y117.285 E3.42044
G0 F6000 X193.554 Y117.493
G1 F1200 X193.624 Y117.433 E3.42351
G1 X193.69 Y117.374 E3.42645
G1 X193.94 Y117.145 E3.43773
G1 X193.993 Y117.084 E3.44042
G1 X194.014 Y117.065 E3.44136
G1 X194.169 Y117.027 E3.44667
G1 X194.274 Y117.004 E3.45024
G1 X194.74 Y116.87 E3.46637
G1 X194.776 Y117.082 E3.47352
G1 X194.806 Y117.373 E3.48325
G1 X194.815 Y117.665 E3.49297
G1 X194.806 Y117.889 E3.50043
G1 X194.773 Y118.188 E3.51043
G1 X194.72 Y118.466 E3.51984
G1 X194.657 Y118.71 E3.52822
G1 X194.567 Y118.973 E3.53747
G1 X194.343 Y119.509 E3.55679
G1 X194.035 Y119.519 E3.56704
G1 X193.708 Y119.51 E3.57792
G1 X193.568 Y119.515 E3.58258
G1 X193.561 Y119.245 E3.59156
G1 X193.57 Y118.417 E3.61911
G1 X193.569 Y118.335 E3.62183
G1 X193.559 Y117.858 E3.6377
G1 X193.557 Y117.785 E3.64013
G1 X193.545 Y117.545 E3.64812
G1 X193.554 Y117.493 E3.64988
G0 F6000 X193.952 Y117.676
G1 F1200 X193.96 Y117.669 E3.65023
G1 X194.21 Y117.44 E3.66151
G1 X194.22 Y117.428 E3.66203
G1 X194.384 Y117.389 E3.66763
G1 X194.405 Y117.383 E3.66836
G1 X194.407 Y117.4 E3.66893
G1 X194.416 Y117.661 E3.67762
G1 X194.408 Y117.849 E3.68387
G1 X194.378 Y118.123 E3.69304
G1 X194.33 Y118.377 E3.70164
G1 X194.275 Y118.589 E3.70892
G1 X194.189 Y118.839 E3.71772
G1 X194.074 Y119.117 E3.72772
G1 X193.962 Y119.121 E3.73145
G1 X193.97 Y118.422 E3.7547
G1 X193.969 Y118.326 E3.75789
G1 X193.959 Y117.849 E3.77376
G1 X193.956 Y117.766 E3.77653
G1 X193.952 Y117.676 E3.77952
G1 F1500 E-2.72048
G0 F6000 X196.55 Y121.372
G0 X211.397 Y121.367
G0 X211.9 Y121.27
G0 X212.75 Y121.277
;TYPE:SUPPORT-INTERFACE
G1 F1500 E3.77952
G1 F1200 X212.76 Y101.835 E4.42617
G1 X213.452 Y102.216 E4.45244
G1 X213.448 Y120.775 E5.06971
G1 X213.007 Y121.105 E5.08803
G1 X212.75 Y121.277 E5.09832
G1 F1500 E-1.40168
;MESH:Lift Arm (Needs Support).stl
G0 F6000 X210.99 Y120.306
G0 X183.661 Y120.124
;TYPE:WALL-INNER
G1 F1500 E5.09832
G1 F1200 X183.562 Y119.828 E5.1087
G1 X183.422 Y119.272 E5.12777
G1 X183.328 Y118.767 E5.14486
G1 X183.26 Y118.178 E5.16458
G1 X183.244 Y117.721 E5.17978
G1 X183.263 Y117.063 E5.20168
G1 X183.324 Y116.505 E5.22035
G1 X183.404 Y116.045 E5.23588
G1 X183.558 Y115.422 E5.25722
G1 X183.694 Y115.014 E5.27153
G1 X183.94 Y114.397 E5.29362
G1 X184.184 Y113.913 E5.31165
G1 X184.449 Y113.463 E5.32902
G1 X184.805 Y112.95 E5.34979
G1 X185.129 Y112.55 E5.36691
G1 X185.502 Y112.145 E5.38522
G1 X185.929 Y111.747 E5.40463
G1 X186.339 Y111.416 E5.42216
G1 X186.822 Y111.078 E5.44177
G1 X187.319 Y110.789 E5.46089
G1 X187.766 Y110.563 E5.47755
G1 X188.325 Y110.329 E5.4977
G1 X188.864 Y110.154 E5.51655
G1 X189.349 Y110.031 E5.53319
G1 X189.925 Y109.926 E5.55267
G1 X190.425 Y109.869 E5.56941
G1 X191.059 Y109.848 E5.5905
G1 X191.6 Y109.865 E5.60851
G1 X192.131 Y109.925 E5.62628
G1 X192.726 Y110.034 E5.6464
G1 X193.256 Y110.172 E5.66462
G1 X193.716 Y110.32 E5.68069
G1 X194.307 Y110.568 E5.702
G1 X194.752 Y110.794 E5.7186
G1 X195.278 Y111.105 E5.73893
G1 X195.739 Y111.431 E5.75771
G1 X196.134 Y111.749 E5.77457
G1 X196.578 Y112.165 E5.79481
G1 X196.888 Y112.496 E5.80989
G1 X197.275 Y112.973 E5.83032
G1 X197.589 Y113.434 E5.84888
G1 X197.868 Y113.905 E5.86708
G1 X198.116 Y114.397 E5.88541
G1 X198.35 Y114.97 E5.90599
G1 X198.509 Y115.45 E5.92281
G1 X198.657 Y116.042 E5.94311
G1 X198.745 Y116.585 E5.9614
G1 X198.8 Y117.125 E5.97946
G1 X198.816 Y117.689 E5.99822
G1 X198.797 Y118.213 E6.01566
G1 X198.726 Y118.814 E6.03579
G1 X198.63 Y119.314 E6.05273
G1 X198.485 Y119.874 E6.07197
G1 X198.399 Y120.124 E6.08076
G1 X211.148 Y120.123 E6.50479
G1 X211.159 Y103.02 E7.07364
G1 X210.77 Y102.823 E7.08814
G1 X209.328 Y102.166 E7.14085
G1 X207.512 Y101.472 E7.20551
G1 X205.622 Y100.888 E7.2713
G1 X203.804 Y100.457 E7.33345
G1 X202.033 Y100.154 E7.39321
G1 X201.757 Y100.116 E7.40247
G1 X200.113 Y99.951 E7.45743
G1 X199.774 Y99.928 E7.46873
G1 X198.02 Y99.873 E7.52709
G1 X196.987 Y99.892 E7.56146
G1 X195.928 Y99.951 E7.59674
G1 X194.747 Y100.057 E7.63617
G1 X193.845 Y100.178 E7.66644
G1 X192.818 Y100.347 E7.70106
G1 X191.887 Y100.527 E7.7326
G1 X190.776 Y100.793 E7.7706
G1 X189.755 Y101.08 E7.80587
G1 X188.756 Y101.393 E7.84069
G1 X187.77 Y101.749 E7.87556
G1 X186.809 Y102.134 E7.90999
G1 X185.836 Y102.561 E7.94533
G1 X184.904 Y103.012 E7.97977
G1 X183.98 Y103.501 E8.01454
G1 X183.062 Y104.035 E8.04986
G1 X182.163 Y104.594 E8.08507
G1 X180.236 Y105.756 E8.15991
G1 X178.269 Y106.751 E8.23323
G1 X176.18 Y107.629 E8.3086
G1 X174.046 Y108.345 E8.38346
G1 X171.896 Y108.899 E8.45731
G1 X169.678 Y109.301 E8.53228
G1 X167.458 Y109.544 E8.60656
G1 X165.232 Y109.624 E8.68065
G1 X29.918 Y109.624 E13.18121
G1 X29.777 Y109.697 E13.18649
G1 X29.709 Y109.798 E13.19054
G1 X29.669 Y110.191 E13.20368
G1 X29.57 Y110.62 E13.21832
G1 X29.37 Y111.042 E13.23385
G1 X29.024 Y111.474 E13.25226
G1 X28.553 Y111.858 E13.27247
G1 X27.93 Y112.07 E13.29436
G1 X27.472 Y112.124 E13.3097
G1 X11.022 Y112.124 E13.85683
G1 X10.526 Y112.153 E13.87335
G1 X10.07 Y112.234 E13.88876
G1 X9.626 Y112.365 E13.90416
G1 X9.203 Y112.549 E13.9195
G1 X8.798 Y112.783 E13.93506
G1 X8.423 Y113.061 E13.95058
G1 X8.086 Y113.381 E13.96604
G1 X7.787 Y113.736 E13.98148
G1 X7.53 Y114.128 E13.99707
G1 X7.328 Y114.531 E14.01206
G1 X7.165 Y114.973 E14.02773
G1 X7.056 Y115.439 E14.04365
G1 X7 Y115.893 E14.05886
G1 X7 Y116.351 E14.07409
G1 X7.056 Y116.811 E14.08951
G1 X7.164 Y117.274 E14.10532
G1 X7.327 Y117.713 E14.12089
G1 X7.53 Y118.121 E14.13605
G1 X7.786 Y118.513 E14.15162
G1 X8.085 Y118.866 E14.16701
G1 X8.423 Y119.183 E14.18242
G1 X8.799 Y119.466 E14.19807
G1 X9.203 Y119.699 E14.21359
G1 X9.626 Y119.883 E14.22893
G1 X10.07 Y120.015 E14.24433
G1 X10.527 Y120.094 E14.25976
G1 X11.022 Y120.124 E14.27625
G1 X183.661 Y120.124 E20.01825
G1 F1500 E13.51825
G0 F6000 X183.303 Y120.024
G0 X27.688 Y119.924
