;FLAVOR:Marlin
;TIME:4517
;Filament used: 1.87354m
;Layer height: 0.2
;MINX:91.354
;MINY:98.75
;MINZ:0.2
;MAXX:124.904
;MAXY:121.25
;MAXZ:71.4
;TARGET_MACHINE.NAME:Creality Ender-3 Pro
;Generated with Cura_SteamEngine 5.7.2
M104 S200
M105
M109 S200
M82 ;absolute extrusion mode
; Ender 3 Custom Start G-code
G92 E0 ; Reset Extruder
G28 ; Home all axes
G29 ; Bed Auto Leveling
G1 Z5.0 F3000 ; Move Z Axis up a bit during heating to not damage bed
M104 S175 ; Start heating up the nozzle most of the way
M190 S60 ; Start heating the bed, wait until target temperature reached
M109 S200.0 ; Finish heating the nozzle
G1 Z2.0 F3000 ; Move Z Axis up little to prevent scratching of Heat Bed
G1 X0.1 Y20 Z0.3 F5000.0 ; Move to start position
G1 X0.1 Y200.0 Z0.3 F1500.0 E15 ; Draw the first line
G1 X0.4 Y200.0 Z0.3 F5000.0 ; Move to side a little
G1 X0.4 Y20 Z0.3 F1500.0 E30 ; Draw the second line
G92 E0 ; Reset Extruder
G1 Z2.0 F3000 ; Move Z Axis up little to prevent scratching of Heat Bed
G1 X5 Y20 Z0.3 F5000.0 ; Move over to prevent blob squish
G92 E0
G92 E0
G1 F1500 E-6.5
;LAYER_COUNT:357
;LAYER:0
M107
G0 F6000 X94.753 Y101.951 Z0.2
;TYPE:SKIRT
G1 F1500 E0
G1 F1200 X95.563 Y101.231 E0.03605
G1 X96.334 Y100.664 E0.06788
G1 X97.35 Y100.058 E0.10722
G1 X98.534 Y99.513 E0.15058
G1 X99.322 Y99.241 E0.1783
G1 X100.49 Y98.955 E0.2183
G1 X101.781 Y98.78 E0.26163
G1 X102.605 Y98.75 E0.28905
G1 X115.706 Y98.77 E0.72479
G1 X116.823 Y98.874 E0.76211
G1 X117.538 Y99.004 E0.78628
G1 X118.961 Y99.419 E0.83558
G1 X120.013 Y99.854 E0.87344
G1 X120.584 Y100.147 E0.89479
G1 X121.892 Y100.994 E0.94662
G1 X122.658 Y101.621 E0.97954
G1 X123.295 Y102.236 E1.00899
G1 X124.022 Y103.027 E1.04472
G1 X124.714 Y104.445 E1.0972
G1 X124.869 Y105.393 E1.12915
G1 X124.904 Y114.701 E1.43874
G1 X124.508 Y115.961 E1.48267
G1 X124.068 Y116.908 E1.5174
G1 X123.32 Y117.736 E1.55451
G1 X122.47 Y118.541 E1.59345
G1 X121.619 Y119.206 E1.62937
G1 X120.899 Y119.671 E1.65788
G1 X119.838 Y120.223 E1.69766
G1 X118.629 Y120.7 E1.74089
G1 X117.875 Y120.915 E1.76696
G1 X116.324 Y121.186 E1.81933
G1 X115.667 Y121.236 E1.84125
G1 X102.354 Y121.25 E2.28404
G1 X101.743 Y121.22 E2.30438
G1 X100.474 Y121.04 E2.34701
G1 X99.128 Y120.694 E2.39324
G1 X98.074 Y120.298 E2.43069
G1 X97.503 Y120.028 E2.45169
G1 X96.163 Y119.222 E2.5037
G1 X95.621 Y118.818 E2.52619
G1 X94.471 Y117.767 E2.578
G1 X93.973 Y117.21 E2.60286
G1 X93.107 Y116.033 E2.65146
G1 X92.738 Y115.407 E2.67563
G1 X92.17 Y114.202 E2.71993
G1 X91.845 Y113.282 E2.75239
G1 X91.559 Y112.112 E2.79245
G1 X91.384 Y110.8 E2.83647
G1 X91.354 Y109.751 E2.87137
G1 X91.384 Y109.138 E2.89179
G1 X91.564 Y107.873 E2.93429
G1 X91.869 Y106.655 E2.97605
G1 X92.305 Y105.472 E3.01798
G1 X92.576 Y104.899 E3.03906
G1 X93.382 Y103.559 E3.09107
G1 X93.785 Y103.018 E3.11351
G1 X94.753 Y101.951 E3.16143
G0 F6000 X95.049 Y102.22
G1 F1200 X95.801 Y101.553 E3.19486
G1 X96.539 Y101.008 E3.22537
G1 X97.555 Y100.402 E3.26472
G1 X98.665 Y99.891 E3.30536
G1 X99.417 Y99.63 E3.33184
G1 X100.585 Y99.344 E3.37183
G1 X101.796 Y99.18 E3.41248
G1 X102.604 Y99.15 E3.43937
G1 X115.669 Y99.168 E3.87392
G1 X116.751 Y99.268 E3.91006
G1 X117.466 Y99.398 E3.93423
G1 X118.809 Y99.789 E3.98075
G1 X119.83 Y100.21 E4.01748
G1 X120.401 Y100.503 E4.03883
G1 X121.639 Y101.304 E4.08787
G1 X122.405 Y101.931 E4.1208
G1 X123 Y102.507 E4.14834
G1 X123.688 Y103.256 E4.18217
G1 X124.328 Y104.568 E4.23072
G1 X124.474 Y105.458 E4.26072
G1 X124.504 Y114.64 E4.56611
G1 X124.145 Y115.793 E4.60628
G1 X123.731 Y116.685 E4.63898
G1 X123.044 Y117.446 E4.67308
G1 X122.223 Y118.226 E4.71075
G1 X121.401 Y118.87 E4.74548
G1 X120.714 Y119.316 E4.77272
G1 X119.653 Y119.868 E4.8125
G1 X118.519 Y120.315 E4.85304
G1 X117.765 Y120.53 E4.87912
G1 X116.294 Y120.787 E4.92879
G1 X115.637 Y120.837 E4.9507
G1 X102.374 Y120.85 E5.39183
G1 X101.763 Y120.82 E5.41218
G1 X100.531 Y120.644 E5.45357
G1 X99.268 Y120.319 E5.49695
G1 X98.245 Y119.936 E5.53328
G1 X97.674 Y119.666 E5.55429
G1 X96.402 Y118.901 E5.60366
G1 X95.86 Y118.497 E5.62614
G1 X94.769 Y117.5 E5.6753
G1 X94.271 Y116.943 E5.70015
G1 X93.451 Y115.829 E5.74615
G1 X93.1 Y115.236 E5.76907
G1 X92.532 Y114.031 E5.81338
G1 X92.234 Y113.187 E5.84315
G1 X91.948 Y112.017 E5.88321
G1 X91.784 Y110.788 E5.92445
G1 X91.754 Y109.771 E5.95829
G1 X91.784 Y109.158 E5.9787
G1 X91.96 Y107.93 E6.01996
G1 X92.245 Y106.793 E6.05895
G1 X92.667 Y105.643 E6.09969
G1 X92.938 Y105.07 E6.12078
G1 X93.703 Y103.798 E6.17014
G1 X94.106 Y103.257 E6.19258
G1 X95.049 Y102.22 E6.2392
G0 F6000 X95.345 Y102.489
G1 F1200 X96.039 Y101.874 E6.27004
G1 X96.744 Y101.352 E6.29922
G1 X97.76 Y100.746 E6.33857
G1 X98.797 Y100.269 E6.37653
G1 X99.512 Y100.019 E6.40172
G1 X100.68 Y99.733 E6.44172
G1 X101.811 Y99.58 E6.47968
G1 X102.604 Y99.55 E6.50607
G1 X115.632 Y99.566 E6.93939
G1 X116.679 Y99.662 E6.97436
G1 X117.394 Y99.792 E6.99853
G1 X118.657 Y100.159 E7.04227
G1 X119.647 Y100.566 E7.07787
G1 X120.218 Y100.859 E7.09922
G1 X121.386 Y101.614 E7.14548
G1 X122.127 Y102.219 E7.17729
G1 X122.705 Y102.778 E7.20404
G1 X123.356 Y103.487 E7.23605
G1 X123.942 Y104.688 E7.2805
G1 X124.079 Y105.523 E7.30864
G1 X124.104 Y114.58 E7.60988
G1 X123.782 Y115.625 E7.64625
G1 X123.394 Y116.462 E7.67693
G1 X122.768 Y117.156 E7.70802
G1 X121.976 Y117.911 E7.74441
G1 X121.183 Y118.534 E7.77795
G1 X120.496 Y118.98 E7.8052
G1 X119.469 Y119.513 E7.84368
G1 X118.409 Y119.93 E7.88157
G1 X117.655 Y120.145 E7.90764
G1 X116.264 Y120.388 E7.95461
G1 X115.607 Y120.438 E7.97653
G1 X102.394 Y120.45 E8.41599
G1 X101.783 Y120.42 E8.43634
G1 X100.63 Y120.256 E8.47507
G1 X99.408 Y119.944 E8.51702
G1 X98.416 Y119.574 E8.55223
G1 X97.845 Y119.304 E8.57324
G1 X96.641 Y118.58 E8.61997
G1 X96.099 Y118.176 E8.64245
G1 X95.067 Y117.233 E8.68895
G1 X94.569 Y116.676 E8.7138
G1 X93.795 Y115.624 E8.75724
G1 X93.462 Y115.065 E8.77888
G1 X92.894 Y113.86 E8.82319
G1 X92.623 Y113.092 E8.85028
G1 X92.337 Y111.922 E8.89034
G1 X92.184 Y110.776 E8.92879
G1 X92.154 Y109.791 E8.96157
G1 X92.184 Y109.178 E8.98198
G1 X92.348 Y108.027 E9.02065
G1 X92.633 Y106.89 E9.05964
G1 X93.029 Y105.814 E9.09777
G1 X93.3 Y105.241 E9.11885
G1 X94.024 Y104.037 E9.16558
G1 X94.427 Y103.496 E9.18802
G1 X95.345 Y102.489 E9.23334
G0 F6000 X95.611 Y102.788
G1 F1200 X96.278 Y102.195 E9.26302
G1 X96.949 Y101.696 E9.29084
G1 X97.965 Y101.09 E9.33018
G1 X98.93 Y100.646 E9.36551
G1 X99.607 Y100.408 E9.38938
G1 X100.775 Y100.122 E9.42938
G1 X101.826 Y99.98 E9.46465
G1 X102.604 Y99.95 E9.49055
G1 X115.596 Y99.964 E9.92266
G1 X116.607 Y100.056 E9.95643
G1 X117.322 Y100.186 E9.9806
G1 X118.505 Y100.529 E10.02157
G1 X119.464 Y100.922 E10.05604
G1 X120.035 Y101.215 E10.07738
G1 X121.133 Y101.924 E10.12085
G1 X121.849 Y102.507 E10.15156
G1 X122.427 Y103.066 E10.17831
G1 X123.023 Y103.716 E10.20764
G1 X123.556 Y104.808 E10.24806
G1 X123.684 Y105.588 E10.27435
G1 X123.704 Y114.52 E10.57143
G1 X123.419 Y115.457 E10.604
G1 X123.057 Y116.239 E10.63266
G1 X122.471 Y116.888 E10.66174
G1 X121.728 Y117.597 E10.6959
G1 X120.965 Y118.198 E10.72821
G1 X120.278 Y118.644 E10.75545
G1 X119.285 Y119.158 E10.79264
G1 X118.299 Y119.545 E10.82787
G1 X117.545 Y119.76 E10.85395
G1 X116.234 Y119.989 E10.89821
G1 X115.577 Y120.039 E10.92013
G1 X102.414 Y120.05 E11.35793
G1 X101.803 Y120.02 E11.37828
G1 X100.728 Y119.868 E11.41439
G1 X99.547 Y119.569 E11.45491
G1 X98.587 Y119.212 E11.48897
G1 X98.016 Y118.942 E11.50998
G1 X96.88 Y118.259 E11.55407
G1 X96.338 Y117.855 E11.57655
G1 X95.365 Y116.966 E11.62039
G1 X94.891 Y116.438 E11.64399
G1 X94.139 Y115.419 E11.68611
G1 X93.806 Y114.86 E11.70775
G1 X93.256 Y113.69 E11.75075
G1 X93.012 Y112.997 E11.77519
G1 X92.726 Y111.827 E11.81525
G1 X92.584 Y110.763 E11.85095
G1 X92.554 Y109.811 E11.88263
G1 X92.584 Y109.198 E11.90304
G1 X92.736 Y108.124 E11.93912
G1 X93.009 Y107.028 E11.97668
G1 X93.391 Y105.985 E12.01363
G1 X93.662 Y105.412 E12.03471
G1 X94.345 Y104.276 E12.0788
G1 X94.748 Y103.735 E12.10123
G1 X95.611 Y102.788 E12.14385
G0 F6000 X95.906 Y103.058
G1 F1200 X96.517 Y102.516 E12.17101
G1 X97.188 Y102.017 E12.19883
G1 X98.133 Y101.453 E12.23543
G1 X99.063 Y101.023 E12.26951
G1 X99.702 Y100.797 E12.29205
G1 X100.87 Y100.511 E12.33205
G1 X101.842 Y100.38 E12.36467
G1 X102.604 Y100.35 E12.39003
G1 X115.56 Y100.362 E12.82095
G1 X116.535 Y100.45 E12.85351
G1 X117.25 Y100.58 E12.87768
G1 X118.354 Y100.899 E12.9159
G1 X119.281 Y101.278 E12.94921
G1 X119.852 Y101.571 E12.97056
G1 X120.881 Y102.235 E13.01129
G1 X121.571 Y102.795 E13.04085
G1 X122.149 Y103.354 E13.06759
G1 X122.689 Y103.944 E13.09419
G1 X123.17 Y104.929 E13.13065
G1 X123.289 Y105.653 E13.15505
G1 X123.304 Y114.461 E13.44801
G1 X123.056 Y115.289 E13.47676
G1 X122.72 Y116.016 E13.5034
G1 X122.174 Y116.62 E13.53048
G1 X121.48 Y117.283 E13.5624
G1 X120.747 Y117.862 E13.59347
G1 X120.06 Y118.308 E13.62071
G1 X119.102 Y118.802 E13.65656
G1 X118.189 Y119.16 E13.68918
G1 X117.435 Y119.375 E13.71526
G1 X116.204 Y119.59 E13.75682
G1 X115.547 Y119.64 E13.77873
G1 X102.434 Y119.65 E14.21487
G1 X101.823 Y119.62 E14.23522
G1 X100.825 Y119.48 E14.26874
G1 X99.686 Y119.194 E14.3078
G1 X98.758 Y118.85 E14.34072
G1 X98.187 Y118.58 E14.36172
G1 X97.119 Y117.938 E14.40317
G1 X96.577 Y117.534 E14.42565
G1 X95.663 Y116.699 E14.46683
G1 X95.189 Y116.171 E14.49043
G1 X94.483 Y115.214 E14.52998
G1 X94.15 Y114.655 E14.55162
G1 X93.633 Y113.556 E14.59202
G1 X93.401 Y112.902 E14.6151
G1 X93.115 Y111.732 E14.65516
G1 X92.984 Y110.75 E14.68811
G1 X92.954 Y109.831 E14.71869
G1 X92.984 Y109.218 E14.73911
G1 X93.124 Y108.221 E14.77259
G1 X93.397 Y107.125 E14.81016
G1 X93.753 Y106.156 E14.84449
G1 X94.024 Y105.583 E14.86558
G1 X94.666 Y104.515 E14.90702
G1 X95.069 Y103.974 E14.92946
G1 X95.906 Y103.058 E14.97073
G0 F6000 X96.172 Y103.357
G1 F1200 X96.756 Y102.837 E14.99674
G1 X97.427 Y102.338 E15.02455
G1 X98.337 Y101.797 E15.05976
G1 X99.198 Y101.4 E15.0913
G1 X99.797 Y101.186 E15.11245
G1 X100.965 Y100.9 E15.15245
G1 X101.858 Y100.78 E15.18242
G1 X102.604 Y100.75 E15.20725
G1 X115.524 Y100.76 E15.63697
G1 X116.463 Y100.844 E15.66832
G1 X117.178 Y100.974 E15.6925
G1 X118.203 Y101.27 E15.72798
G1 X119.098 Y101.634 E15.76012
G1 X119.669 Y101.927 E15.78146
G1 X120.629 Y102.546 E15.81945
G1 X121.293 Y103.083 E15.84786
G1 X121.871 Y103.642 E15.8746
G1 X122.355 Y104.172 E15.89847
G1 X122.784 Y105.05 E15.93098
G1 X122.894 Y105.718 E15.95349
G1 X122.904 Y114.403 E16.24236
G1 X122.673 Y115.174 E16.26913
G1 X122.383 Y115.793 E16.29186
G1 X121.897 Y116.331 E16.31598
G1 X121.232 Y116.969 E16.34663
G1 X120.529 Y117.526 E16.37646
G1 X119.842 Y117.972 E16.4037
G1 X118.955 Y118.43 E16.4369
G1 X118.079 Y118.775 E16.46822
G1 X117.325 Y118.99 E16.4943
G1 X116.174 Y119.191 E16.53316
G1 X115.517 Y119.241 E16.55507
G1 X102.454 Y119.25 E16.98955
G1 X101.843 Y119.22 E17.0099
G1 X100.922 Y119.092 E17.04082
G1 X99.825 Y118.819 E17.07842
G1 X98.929 Y118.488 E17.11019
G1 X98.358 Y118.218 E17.1312
G1 X97.358 Y117.617 E17.17
G1 X96.816 Y117.213 E17.19249
G1 X95.961 Y116.432 E17.231
G1 X95.487 Y115.904 E17.2546
G1 X94.827 Y115.009 E17.29159
G1 X94.494 Y114.45 E17.31323
G1 X94.01 Y113.421 E17.35105
G1 X93.79 Y112.807 E17.37275
G1 X93.504 Y111.637 E17.41281
G1 X93.384 Y110.736 E17.44304
G1 X93.354 Y109.851 E17.47249
G1 X93.384 Y109.238 E17.4929
G1 X93.512 Y108.318 E17.5238
G1 X93.785 Y107.222 E17.56136
G1 X94.115 Y106.327 E17.59309
G1 X94.386 Y105.754 E17.61417
G1 X94.987 Y104.754 E17.65298
G1 X95.39 Y104.213 E17.67541
G1 X96.172 Y103.357 E17.71398
G0 F6000 X96.439 Y103.655
G1 F1200 X96.995 Y103.158 E17.73878
G1 X97.666 Y102.659 E17.76659
G1 X98.541 Y102.141 E17.80041
G1 X99.333 Y101.777 E17.8294
G1 X99.932 Y101.563 E17.85056
G1 X101.019 Y101.296 E17.88779
G1 X101.874 Y101.18 E17.91649
G1 X102.604 Y101.15 E17.94079
G1 X115.489 Y101.158 E18.36934
G1 X116.391 Y101.238 E18.39946
G1 X117.106 Y101.368 E18.42363
G1 X118.091 Y101.654 E18.45775
G1 X118.915 Y101.99 E18.48734
G1 X119.486 Y102.283 E18.50869
G1 X120.378 Y102.858 E18.54399
G1 X121.015 Y103.371 E18.57119
G1 X121.575 Y103.912 E18.59709
G1 X122.022 Y104.402 E18.61915
G1 X122.398 Y105.171 E18.64762
G1 X122.499 Y105.783 E18.66825
G1 X122.504 Y114.345 E18.95302
G1 X122.311 Y115.004 E18.97586
G1 X122.046 Y115.569 E18.99662
G1 X121.6 Y116.063 E19.01876
G1 X120.983 Y116.656 E19.04722
G1 X120.311 Y117.19 E19.07577
G1 X119.624 Y117.636 E19.10301
G1 X118.772 Y118.074 E19.13487
G1 X117.969 Y118.39 E19.16357
G1 X117.215 Y118.605 E19.18965
G1 X116.144 Y118.792 E19.22581
G1 X115.487 Y118.842 E19.24773
G1 X102.474 Y118.85 E19.68054
G1 X101.863 Y118.82 E19.70089
G1 X101.018 Y118.704 E19.72926
G1 X99.963 Y118.444 E19.7654
G1 X99.1 Y118.126 E19.79599
G1 X98.529 Y117.856 E19.81699
G1 X97.597 Y117.296 E19.85316
G1 X97.055 Y116.892 E19.87564
G1 X96.259 Y116.165 E19.9115
G1 X95.785 Y115.637 E19.9351
G1 X95.171 Y114.804 E19.96952
G1 X94.838 Y114.245 E19.99116
G1 X94.387 Y113.286 E20.0264
G1 X94.167 Y112.672 E20.0481
G1 X93.9 Y111.584 E20.08536
G1 X93.784 Y110.722 E20.11429
G1 X93.754 Y109.871 E20.14261
G1 X93.784 Y109.258 E20.16302
G1 X93.9 Y108.414 E20.19136
G1 X94.16 Y107.36 E20.22746
G1 X94.477 Y106.498 E20.25801
G1 X94.748 Y105.925 E20.27909
G1 X95.308 Y104.993 E20.31526
G1 X95.711 Y104.452 E20.33769
G1 X96.439 Y103.655 E20.3736
G0 F6000 X96.706 Y103.953
G1 F1200 X97.234 Y103.479 E20.3972
G1 X97.905 Y102.98 E20.42501
G1 X98.709 Y102.504 E20.45609
G1 X99.468 Y102.154 E20.48388
G1 X100.067 Y101.94 E20.50504
G1 X101.073 Y101.692 E20.5395
G1 X101.891 Y101.58 E20.56696
G1 X102.604 Y101.55 E20.5907
G1 X115.454 Y101.557 E21.01809
G1 X116.319 Y101.632 E21.04697
G1 X117.034 Y101.762 E21.07114
G1 X117.941 Y102.025 E21.10255
G1 X118.732 Y102.346 E21.13094
G1 X119.303 Y102.639 E21.15229
G1 X120.128 Y103.17 E21.18492
G1 X120.737 Y103.659 E21.2109
G1 X121.297 Y104.2 E21.23679
G1 X121.688 Y104.63 E21.25612
G1 X122.012 Y105.292 E21.28064
G1 X122.104 Y105.848 E21.29938
G1 X122.104 Y114.287 E21.58007
G1 X121.949 Y114.834 E21.59897
G1 X121.709 Y115.345 E21.61775
G1 X121.303 Y115.795 E21.63791
G1 X120.733 Y116.343 E21.66421
G1 X120.093 Y116.854 E21.69145
G1 X119.406 Y117.3 E21.71869
G1 X118.59 Y117.718 E21.74918
G1 X117.859 Y118.005 E21.7753
G1 X117.105 Y118.22 E21.80138
G1 X116.114 Y118.393 E21.83484
G1 X115.457 Y118.443 E21.85676
G1 X102.494 Y118.45 E22.28791
G1 X101.883 Y118.42 E22.30825
G1 X101.073 Y118.308 E22.33545
G1 X100.101 Y118.068 E22.36875
G1 X99.271 Y117.764 E22.39815
G1 X98.7 Y117.494 E22.41916
G1 X97.836 Y116.975 E22.45268
G1 X97.294 Y116.571 E22.47516
G1 X96.556 Y115.897 E22.50841
G1 X96.107 Y115.399 E22.53071
G1 X95.515 Y114.599 E22.56381
G1 X95.182 Y114.04 E22.58545
G1 X94.764 Y113.151 E22.61812
G1 X94.544 Y112.537 E22.63982
G1 X94.296 Y111.53 E22.67431
G1 X94.184 Y110.707 E22.70194
G1 X94.154 Y109.891 E22.7291
G1 X94.184 Y109.278 E22.74951
G1 X94.296 Y108.469 E22.77667
G1 X94.536 Y107.497 E22.80997
G1 X94.839 Y106.669 E22.8393
G1 X95.11 Y106.096 E22.86038
G1 X95.629 Y105.232 E22.8939
G1 X96.032 Y104.691 E22.91634
G1 X96.706 Y103.953 E22.94958
G0 F6000 X96.974 Y104.25
G1 F1200 X97.473 Y103.8 E22.97193
G1 X98.144 Y103.301 E22.99974
G1 X98.877 Y102.867 E23.02808
G1 X99.603 Y102.531 E23.05468
G1 X100.202 Y102.317 E23.07584
G1 X101.128 Y102.088 E23.10757
G1 X101.908 Y101.98 E23.13376
G1 X102.604 Y101.95 E23.15693
G1 X115.454 Y101.957 E23.58432
G1 X116.247 Y102.026 E23.6108
G1 X116.962 Y102.156 E23.63497
G1 X117.791 Y102.396 E23.66367
G1 X118.549 Y102.702 E23.69086
G1 X119.12 Y102.995 E23.7122
G1 X119.878 Y103.483 E23.74219
G1 X120.459 Y103.947 E23.76692
G1 X121.019 Y104.488 E23.79282
G1 X121.354 Y104.857 E23.80939
G1 X121.626 Y105.414 E23.83001
G1 X121.704 Y105.848 E23.84468
G1 X121.704 Y114.231 E24.1235
G1 X121.564 Y114.725 E24.14057
G1 X121.373 Y115.121 E24.1552
G1 X121.006 Y115.527 E24.1734
G1 X120.483 Y116.03 E24.19753
G1 X119.843 Y116.541 E24.22477
G1 X119.189 Y116.964 E24.25068
G1 X118.443 Y117.346 E24.27855
G1 X117.749 Y117.62 E24.30337
G1 X116.995 Y117.835 E24.32945
G1 X116.084 Y117.994 E24.36021
G1 X115.427 Y118.044 E24.38212
G1 X102.514 Y118.05 E24.81161
G1 X101.903 Y118.02 E24.83196
